;FLAVOR:Marlin
;TIME:4296
;Filament used: 6.05545m
;Layer height: 0.3
;MINX:68.557
;MINY:82.9
;MINZ:0.3
;MAXX:142.57
;MAXY:117.1
;MAXZ:42.9
;Generated with Cura_SteamEngine 5.2.2
M140 S60
M105
M190 S60
M104 S185
M105
M109 S185
M82 ;absolute extrusion mode
G21 ;metric values
G90 ;absolute positioning
M82 ;set extruder to absolute mode
M107 ;start with the fan off
G28
G29
G92 E0 ;zero the extruded length again
G1 F60
M117 "please"
G92 E0
G92 E0
G1 F4800 E-6.5
;LAYER_COUNT:143
;LAYER:0
M107
G1 F600 Z1.3
G0 F1800 X69.955 Y83.669 Z1.3
;TYPE:SKIRT
G1 F600 Z0.3
G1 F4800 E0
G1 F1800 X70.402 Y83.372 E0.02677
G1 X70.887 Y83.144 E0.05351
G1 X71.401 Y82.991 E0.08027
G1 X72.14 Y82.901 E0.11741
G1 X98.594 Y82.9 E1.4372
G1 X99.295 Y82.91 E1.47218
G1 X99.914 Y82.973 E1.50322
G1 X101.55 Y83.283 E1.58629
G1 X104.234 Y83.742 E1.72214
G1 X106.927 Y84.124 E1.85784
G1 X109.645 Y84.431 E1.99431
G1 X112.369 Y84.662 E2.1307
G1 X115.069 Y84.814 E2.26561
G1 X119.161 Y84.9 E2.46981
G1 X129.547 Y84.9 E2.98797
G1 X130.087 Y84.908 E3.01491
G1 X130.791 Y84.939 E3.05007
G1 X131.503 Y84.999 E3.08572
G1 X132.803 Y85.227 E3.15156
G1 X133.486 Y85.411 E3.18685
G1 X134.215 Y85.63 E3.22483
G1 X135.262 Y86.044 E3.281
G1 X136.366 Y86.639 E3.34357
G1 X137.28 Y87.243 E3.39823
G1 X137.908 Y87.709 E3.43724
G1 X138.452 Y88.179 E3.47311
G1 X139.007 Y88.705 E3.51126
G1 X139.419 Y89.155 E3.54169
G1 X139.849 Y89.652 E3.57448
G1 X140.204 Y90.133 E3.60431
G1 X140.622 Y90.735 E3.64087
G1 X141.117 Y91.587 E3.69003
G1 X141.335 Y92.037 E3.71498
G1 X141.695 Y92.88 E3.76071
G1 X141.901 Y93.42 E3.78954
G1 X142.066 Y93.935 E3.81652
G1 X142.277 Y94.702 E3.85621
G1 X142.418 Y95.477 E3.89551
G1 X142.513 Y96.166 E3.93021
G1 X142.57 Y97.27 E3.98536
G1 X142.538 Y98.159 E4.02974
G1 X142.488 Y98.944 E4.06899
G1 X142.383 Y99.641 E4.10415
G1 X142.251 Y100.336 E4.13945
G1 X142.112 Y100.881 E4.16751
G1 X141.945 Y101.458 E4.19747
G1 X141.676 Y102.188 E4.23629
G1 X141.238 Y103.18 E4.29039
G1 X140.727 Y104.09 E4.34246
G1 X140.028 Y105.103 E4.40386
G1 X139.201 Y106.077 E4.46761
G1 X138.797 Y106.502 E4.49686
G1 X138.013 Y107.228 E4.55017
G1 X137.273 Y107.77 E4.59593
G1 X136.677 Y108.181 E4.63205
G1 X135.648 Y108.761 E4.69098
G1 X134.868 Y109.102 E4.73345
G1 X134.239 Y109.355 E4.76728
G1 X133.078 Y109.702 E4.82773
G1 X132.491 Y109.829 E4.85769
G1 X131.43 Y109.998 E4.91129
G1 X130.736 Y110.054 E4.94603
G1 X130.214 Y110.079 E4.9721
G1 X129.071 Y110.1 E5.02914
G1 X124.937 Y110.1 E5.23538
G1 X122.156 Y110.139 E5.37414
G1 X119.429 Y110.255 E5.51032
G1 X116.699 Y110.449 E5.64686
G1 X114.024 Y110.714 E5.78097
G1 X111.284 Y111.064 E5.91878
G1 X108.607 Y111.485 E6.05398
G1 X105.938 Y111.981 E6.18941
G1 X103.281 Y112.551 E6.32499
G1 X100.612 Y113.207 E6.46211
G1 X97.976 Y113.932 E6.5985
G1 X95.383 Y114.726 E6.7338
G1 X92.791 Y115.601 E6.87028
G1 X90.148 Y116.577 E7.01084
G1 X89.441 Y116.849 E7.04864
G1 X88.927 Y117.004 E7.07542
G1 X88.158 Y117.1 E7.11408
G1 X82.706 Y117.1 E7.38609
G1 X82.005 Y117.09 E7.42106
G1 X81.47 Y117.042 E7.44786
G1 X80.949 Y116.916 E7.4746
G1 X80.453 Y116.713 E7.50134
G1 X79.992 Y116.439 E7.5281
G1 X79.576 Y116.1 E7.55487
G1 X79.124 Y115.602 E7.58842
G1 X78.483 Y114.529 E7.65078
G1 X77.923 Y113.562 E7.70653
G1 X76.554 Y111.344 E7.83657
G1 X75.978 Y110.441 E7.89
G1 X75.724 Y109.969 E7.91674
G1 X75.531 Y109.419 E7.94582
G1 X75.248 Y108.341 E8.00143
G1 X74.523 Y105.718 E8.1372
G1 X73.716 Y103.089 E8.2744
G1 X72.85 Y100.528 E8.40927
G1 X71.9 Y97.957 E8.54602
G1 X70.877 Y95.42 E8.68249
G1 X69.794 Y92.934 E8.81778
G1 X69.172 Y91.612 E8.89067
G1 X68.887 Y90.982 E8.92516
G1 X68.703 Y90.478 E8.95193
G1 X68.596 Y89.953 E8.97866
G1 X68.557 Y89.164 E9.01807
G1 X68.557 Y87.146 E9.11875
G1 X68.567 Y86.457 E9.15313
G1 X68.615 Y85.923 E9.17988
G1 X68.742 Y85.401 E9.20668
G1 X68.944 Y84.905 E9.2334
G1 X69.218 Y84.444 E9.26016
G1 X69.558 Y84.029 E9.28692
G1 X69.955 Y83.669 E9.31366
G0 X70.341 Y83.881
G1 X70.777 Y83.626 E9.33886
G1 X71.249 Y83.444 E9.3641
G1 X71.743 Y83.337 E9.38931
G1 X72.397 Y83.301 E9.42199
G1 X98.589 Y83.3 E10.72872
G1 X99.29 Y83.31 E10.76369
G1 X99.839 Y83.366 E10.79122
G1 X101.455 Y83.672 E10.87328
G1 X104.182 Y84.139 E11.01131
G1 X106.863 Y84.518 E11.1464
G1 X109.603 Y84.829 E11.28397
G1 X112.346 Y85.061 E11.42131
G1 X115.067 Y85.214 E11.55728
G1 X119.153 Y85.3 E11.76117
G1 X129.541 Y85.3 E12.27943
G1 X130.18 Y85.311 E12.31132
G1 X130.871 Y85.344 E12.34583
G1 X131.45 Y85.396 E12.37483
G1 X132.719 Y85.618 E12.4391
G1 X133.382 Y85.797 E12.47337
G1 X134.084 Y86.008 E12.50994
G1 X135.095 Y86.408 E12.56418
G1 X136.166 Y86.986 E12.6249
G1 X137.058 Y87.576 E12.67825
G1 X137.646 Y88.012 E12.71477
G1 X138.269 Y88.552 E12.75591
G1 X138.713 Y88.976 E12.78653
G1 X139.116 Y89.416 E12.8163
G1 X139.456 Y89.809 E12.84223
G1 X139.812 Y90.273 E12.87141
G1 X140.369 Y91.071 E12.91996
G1 X140.907 Y92.053 E12.97582
G1 X141.327 Y93.037 E13.0292
G1 X141.521 Y93.545 E13.05633
G1 X141.681 Y94.041 E13.08233
G1 X141.882 Y94.775 E13.1203
G1 X142.022 Y95.537 E13.15895
G1 X142.115 Y96.198 E13.19225
G1 X142.17 Y97.264 E13.2455
G1 X142.139 Y98.134 E13.28894
G1 X142.09 Y98.905 E13.32748
G1 X141.99 Y99.571 E13.36108
G1 X141.863 Y100.239 E13.395
G1 X141.728 Y100.77 E13.42234
G1 X141.522 Y101.482 E13.45932
G1 X141.309 Y102.029 E13.4886
G1 X141.03 Y102.672 E13.52357
G1 X140.756 Y103.221 E13.55418
G1 X140.389 Y103.876 E13.59164
G1 X139.705 Y104.866 E13.65167
G1 X138.986 Y105.716 E13.70722
G1 X138.628 Y106.112 E13.73385
G1 X138.071 Y106.63 E13.7718
G1 X137.541 Y107.077 E13.80639
G1 X136.698 Y107.694 E13.85851
G1 X135.943 Y108.137 E13.90218
G1 X135.332 Y108.463 E13.93673
G1 X134.811 Y108.692 E13.96512
G1 X134.113 Y108.975 E14.0027
G1 X133.102 Y109.276 E14.05533
G1 X132.515 Y109.423 E14.08552
G1 X131.5 Y109.582 E14.13677
G1 X130.832 Y109.647 E14.17026
G1 X130.098 Y109.683 E14.20692
G1 X129.127 Y109.7 E14.25537
G1 X124.931 Y109.7 E14.46471
G1 X122.134 Y109.74 E14.60427
G1 X119.418 Y109.855 E14.73989
G1 X116.671 Y110.05 E14.87728
G1 X113.967 Y110.318 E15.01285
G1 X111.243 Y110.666 E15.14985
G1 X108.543 Y111.091 E15.28622
G1 X105.853 Y111.591 E15.42272
G1 X103.206 Y112.158 E15.55777
G1 X100.482 Y112.828 E15.69773
G1 X97.891 Y113.541 E15.8318
G1 X95.244 Y114.351 E15.9699
G1 X92.661 Y115.222 E16.1059
G1 X90.021 Y116.197 E16.2463
G1 X89.297 Y116.476 E16.28501
G1 X88.812 Y116.62 E16.31025
G1 X88.16 Y116.699 E16.34302
G1 X82.711 Y116.7 E16.61487
G1 X82.01 Y116.69 E16.64985
G1 X81.507 Y116.643 E16.67505
G1 X81.017 Y116.517 E16.70029
G1 X80.554 Y116.315 E16.72549
G1 X80.127 Y116.043 E16.75075
G1 X79.749 Y115.708 E16.77595
G1 X79.309 Y115.132 E16.81211
G1 X78.829 Y114.328 E16.85883
G1 X78.275 Y113.372 E16.91395
G1 X76.891 Y111.129 E17.04545
G1 X76.315 Y110.226 E17.09888
G1 X76.078 Y109.78 E17.12408
G1 X75.918 Y109.318 E17.14847
G1 X75.635 Y108.24 E17.20408
G1 X74.908 Y105.608 E17.3403
G1 X74.102 Y102.981 E17.47739
G1 X73.228 Y100.398 E17.61344
G1 X72.27 Y97.805 E17.75135
G1 X71.256 Y95.29 E17.88664
G1 X70.152 Y92.754 E18.02463
G1 X69.536 Y91.447 E18.09671
G1 X69.251 Y90.817 E18.13121
G1 X69.08 Y90.341 E18.15645
G1 X68.958 Y89.528 E18.19746
G1 X68.957 Y87.152 E18.316
G1 X68.967 Y86.463 E18.35038
G1 X69.015 Y85.959 E18.37564
G1 X69.141 Y85.47 E18.40083
G1 X69.342 Y85.006 E18.42606
G1 X69.614 Y84.58 E18.45127
G1 X69.95 Y84.202 E18.47651
G1 X70.341 Y83.881 E18.50174
G1 F4800 E12.00174
G1 F600 Z1.3
G0 F1800 X106.257 Y96.814 Z1.3
G1 F600 Z0.3
G1 F4800 E18.50174
G1 F1800 X106.731 Y97.149 E18.5307
G1 X107.289 Y97.503 E18.56367
G1 X106.72 Y97.858 E18.59713
G1 X106.239 Y98.199 E18.62655
G1 X105.87 Y97.722 E18.65663
G1 X105.664 Y97.504 E18.6716
G1 X106.257 Y96.814 E18.71699
G0 X105.908 Y96.589
G1 X106.138 Y96.24 E18.73784
G1 X106.962 Y96.823 E18.7882
G1 X107.612 Y97.234 E18.82657
G1 X108.15 Y97.5 E18.85651
G1 X107.588 Y97.781 E18.88786
G1 X106.952 Y98.185 E18.92545
G1 X106.139 Y98.762 E18.97518
G1 X105.956 Y98.477 E18.99208
G1 X105.475 Y97.877 E19.03045
G1 X105.101 Y97.499 E19.05698
G1 X105.42 Y97.184 E19.07934
G1 X105.908 Y96.589 E19.11773
G0 X105.693 Y96.202
G1 X106.024 Y95.669 E19.14904
G1 X107.193 Y96.496 E19.22048
G1 X107.826 Y96.895 E19.25781
G1 X108.498 Y97.224 E19.29514
G1 X109.243 Y97.495 E19.33469
G1 X108.361 Y97.837 E19.38188
G1 X107.696 Y98.18 E19.41921
G1 X107.183 Y98.511 E19.44967
G1 X106.034 Y99.326 E19.51995
G1 X105.558 Y98.611 E19.56281
G1 X105.079 Y98.037 E19.6001
G1 X104.515 Y97.495 E19.63913
G1 X104.713 Y97.329 E19.65202
G1 X105.234 Y96.792 E19.68935
G1 X105.693 Y96.202 E19.72664
G0 X105.471 Y95.816
G1 X105.831 Y95.194 E19.7625
G1 X106.401 Y95.446 E19.79359
G1 X107.424 Y96.17 E19.85611
G1 X108.039 Y96.556 E19.89234
G1 X108.693 Y96.873 E19.9286
G1 X109.378 Y97.115 E19.96484
G1 X110.085 Y97.281 E20.00107
G1 X110.806 Y97.369 E20.03731
G1 X111.669 Y97.381 E20.08037
G1 X112.394 Y97.337 E20.11661
G1 X113.11 Y97.214 E20.15285
G1 X113.808 Y97.013 E20.18909
G1 X114.48 Y96.737 E20.22534
G1 X115.241 Y96.32 E20.26863
G1 X116.529 Y95.381 E20.34815
G1 X117.043 Y95.161 E20.37604
G1 X118.121 Y95.1 E20.42991
G1 X123.31 Y95.1 E20.68879
G1 X123.135 Y96.051 E20.73703
G1 X123.028 Y96.893 E20.77938
G1 X123.023 Y97.817 E20.82548
G1 X123.059 Y98.543 E20.86174
G1 X123.168 Y99.225 E20.8962
G1 X123.315 Y99.9 E20.93067
G1 X117.918 Y99.9 E21.19992
G1 X117.271 Y99.865 E21.23225
G1 X116.921 Y99.799 E21.25002
G1 X116.513 Y99.615 E21.27235
G1 X115.518 Y98.89 E21.33377
G1 X114.908 Y98.495 E21.37003
G1 X114.259 Y98.169 E21.40626
G1 X113.578 Y97.917 E21.44249
G1 X112.873 Y97.741 E21.47874
G1 X112.153 Y97.644 E21.51498
G1 X111.265 Y97.621 E21.5593
G1 X110.54 Y97.657 E21.59552
G1 X109.823 Y97.773 E21.63175
G1 X109.123 Y97.967 E21.66799
G1 X108.448 Y98.237 E21.70426
G1 X107.69 Y98.642 E21.74714
G1 X106.401 Y99.555 E21.82594
G1 X105.823 Y99.806 E21.85738
G1 X105.575 Y99.347 E21.88341
G1 X105.161 Y98.75 E21.91966
G1 X104.685 Y98.202 E21.95587
G1 X104.151 Y97.709 E21.99213
G1 X103.883 Y97.512 E22.00872
G1 X104.548 Y96.935 E22.05265
G1 X105.041 Y96.401 E22.08891
G1 X105.471 Y95.816 E22.12513
G0 X105.241 Y95.432
G1 X105.611 Y94.74 E22.16428
G1 X106.091 Y94.852 E22.18887
G1 X106.618 Y95.109 E22.21812
G1 X107.655 Y95.843 E22.28151
G1 X108.252 Y96.217 E22.31665
G1 X108.887 Y96.52 E22.35175
G1 X109.553 Y96.75 E22.38691
G1 X110.24 Y96.902 E22.42201
G1 X111.431 Y96.996 E22.48161
G1 X112.37 Y96.937 E22.52855
G1 X113.063 Y96.815 E22.56366
G1 X113.738 Y96.614 E22.5988
G1 X114.385 Y96.338 E22.63389
G1 X115.071 Y95.95 E22.67321
G1 X116.312 Y95.045 E22.74984
G1 X116.708 Y94.852 E22.77181
G1 X117.142 Y94.756 E22.79399
G1 X118.115 Y94.7 E22.84261
G1 X123.824 Y94.7 E23.12744
G1 X123.666 Y95.372 E23.16188
G1 X123.528 Y96.123 E23.19997
G1 X123.427 Y96.922 E23.24015
G1 X123.423 Y97.819 E23.2849
G1 X123.46 Y98.522 E23.32003
G1 X123.559 Y99.142 E23.35135
G1 X123.693 Y99.771 E23.38343
G1 X123.844 Y100.3 E23.41088
G1 X117.915 Y100.3 E23.70668
G1 X117.217 Y100.262 E23.74155
G1 X116.786 Y100.176 E23.76348
G1 X116.298 Y99.954 E23.79023
G1 X115.282 Y99.213 E23.85297
G1 X114.691 Y98.831 E23.88807
G1 X114.06 Y98.519 E23.92319
G1 X113.397 Y98.28 E23.95835
G1 X112.712 Y98.118 E23.99347
G1 X112.013 Y98.035 E24.02859
G1 X111.263 Y98.021 E24.06601
G1 X110.56 Y98.058 E24.10113
G1 X109.866 Y98.173 E24.13623
G1 X109.189 Y98.367 E24.17137
G1 X108.539 Y98.637 E24.20648
G1 X107.646 Y99.163 E24.25819
G1 X106.617 Y99.893 E24.32113
G1 X106.072 Y100.151 E24.35121
G1 X105.619 Y100.254 E24.37439
G1 X105.176 Y99.465 E24.41953
G1 X104.765 Y98.894 E24.45463
G1 X104.291 Y98.373 E24.48977
G1 X103.761 Y97.909 E24.52492
G1 X103.173 Y97.507 E24.56045
G1 X103.856 Y97.015 E24.60245
G1 X104.377 Y96.541 E24.63759
G1 X104.841 Y96.011 E24.67273
G1 X105.241 Y95.432 E24.70784
G0 X105.002 Y95.05
G1 X105.371 Y94.294 E24.74981
G1 X105.917 Y94.386 E24.77744
G1 X106.518 Y94.597 E24.80921
G1 X106.834 Y94.772 E24.82724
G1 X107.887 Y95.517 E24.89159
G1 X108.464 Y95.877 E24.92552
G1 X109.081 Y96.167 E24.95953
G1 X109.726 Y96.383 E24.99347
G1 X110.393 Y96.521 E25.02745
G1 X111.44 Y96.595 E25.07981
G1 X112.345 Y96.538 E25.12505
G1 X113.014 Y96.415 E25.15899
G1 X113.665 Y96.214 E25.19298
G1 X114.288 Y95.939 E25.22696
G1 X115.054 Y95.467 E25.27184
G1 X116.097 Y94.706 E25.33626
G1 X116.578 Y94.473 E25.36292
G1 X117.094 Y94.358 E25.3893
G1 X118.11 Y94.3 E25.44007
G1 X124.396 Y94.3 E25.75368
G1 X124.18 Y94.924 E25.78662
G1 X124.06 Y95.445 E25.8133
G1 X123.922 Y96.196 E25.85139
G1 X123.827 Y96.958 E25.8897
G1 X123.823 Y97.821 E25.93276
G1 X123.86 Y98.501 E25.96673
G1 X123.95 Y99.058 E25.99488
G1 X124.084 Y99.687 E26.02697
G1 X124.372 Y100.7 E26.07951
G1 X117.893 Y100.7 E26.40275
G1 X117.18 Y100.661 E26.43837
G1 X116.648 Y100.552 E26.46547
G1 X116.08 Y100.29 E26.49667
G1 X115.046 Y99.536 E26.56052
G1 X114.474 Y99.168 E26.59445
G1 X113.862 Y98.87 E26.62841
G1 X113.219 Y98.645 E26.6624
G1 X112.554 Y98.497 E26.69639
G1 X111.486 Y98.409 E26.74985
G1 X110.581 Y98.458 E26.79507
G1 X109.91 Y98.574 E26.82904
G1 X109.258 Y98.767 E26.86296
G1 X108.632 Y99.036 E26.89696
G1 X107.877 Y99.49 E26.94091
G1 X106.835 Y100.229 E27.00464
G1 X106.537 Y100.392 E27.02159
G1 X105.932 Y100.608 E27.05364
G1 X105.343 Y100.682 E27.08325
G1 X105.122 Y100.174 E27.11089
G1 X104.778 Y99.586 E27.14488
G1 X104.368 Y99.042 E27.17886
G1 X103.897 Y98.551 E27.21281
G1 X103.372 Y98.117 E27.24679
G1 X102.8 Y97.748 E27.28075
G1 X102.288 Y97.498 E27.30918
G1 X102.576 Y97.372 E27.32486
G1 X103.164 Y97.028 E27.35885
G1 X103.708 Y96.618 E27.39283
G1 X104.199 Y96.147 E27.42678
G1 X104.633 Y95.622 E27.46076
G1 X105.002 Y95.05 E27.49472
G0 X104.752 Y94.671
G1 X105.016 Y94.069 E27.52752
G1 X105.085 Y93.84 E27.53945
G1 X106.003 Y93.995 E27.58589
G1 X106.345 Y94.092 E27.60363
G1 X107.049 Y94.433 E27.64266
G1 X108.118 Y95.19 E27.70801
G1 X108.676 Y95.537 E27.74079
G1 X109.272 Y95.812 E27.77354
G1 X109.898 Y96.014 E27.80635
G1 X110.543 Y96.138 E27.83912
G1 X111.453 Y96.195 E27.88461
G1 X112.319 Y96.138 E27.92791
G1 X112.964 Y96.015 E27.96067
G1 X113.59 Y95.815 E27.99346
G1 X114.187 Y95.541 E28.02623
G1 X114.818 Y95.144 E28.06342
G1 X115.879 Y94.37 E28.12894
G1 X116.445 Y94.095 E28.16034
G1 X117.055 Y93.959 E28.19152
G1 X118.087 Y93.9 E28.24309
G1 X124.992 Y93.9 E28.58758
G1 X124.772 Y94.433 E28.61635
G1 X124.514 Y95.185 E28.65601
G1 X124.315 Y96.268 E28.71095
G1 X124.226 Y97.217 E28.7585
G1 X124.223 Y97.823 E28.78873
G1 X124.26 Y98.479 E28.82151
G1 X124.342 Y98.975 E28.8466
G1 X124.476 Y99.604 E28.87868
G1 X124.676 Y100.307 E28.91514
G1 X124.961 Y101.1 E28.95719
G1 X117.889 Y101.1 E29.31001
G1 X117.128 Y101.058 E29.34803
G1 X116.522 Y100.933 E29.3789
G1 X115.951 Y100.69 E29.40986
G1 X114.811 Y99.859 E29.48024
G1 X114.257 Y99.505 E29.51304
G1 X113.665 Y99.221 E29.5458
G1 X113.043 Y99.011 E29.57855
G1 X112.399 Y98.878 E29.61136
G1 X111.47 Y98.809 E29.65784
G1 X110.603 Y98.858 E29.70116
G1 X109.957 Y98.974 E29.73391
G1 X109.329 Y99.167 E29.76668
G1 X108.729 Y99.436 E29.79949
G1 X108.108 Y99.816 E29.83581
G1 X107.043 Y100.571 E29.90094
G1 X106.339 Y100.907 E29.93986
G1 X105.613 Y101.068 E29.97696
G1 X105.066 Y101.099 E30.00429
G1 X104.994 Y100.871 E30.01622
G1 X104.722 Y100.273 E30.049
G1 X104.38 Y99.712 E30.08178
G1 X103.972 Y99.197 E30.11455
G1 X103.505 Y98.735 E30.14733
G1 X102.985 Y98.334 E30.18009
G1 X102.421 Y97.998 E30.21284
G1 X101.819 Y97.734 E30.24564
G1 X101.055 Y97.503 E30.28546
G1 X101.879 Y97.244 E30.32855
G1 X102.477 Y96.972 E30.36133
G1 X103.038 Y96.63 E30.3941
G1 X103.553 Y96.222 E30.42688
G1 X104.015 Y95.755 E30.45966
G1 X104.416 Y95.235 E30.49242
G1 X104.752 Y94.671 E30.52517
G0 X104.49 Y94.294
G1 X104.718 Y93.705 E30.55668
G1 X104.781 Y93.45 E30.56979
G1 X105.178 Y93.45 E30.58959
G1 X106.088 Y93.604 E30.63564
G1 X106.49 Y93.718 E30.65648
G1 X107.261 Y94.094 E30.69928
G1 X108.349 Y94.864 E30.76578
G1 X108.887 Y95.196 E30.79732
G1 X109.462 Y95.457 E30.82882
G1 X110.066 Y95.644 E30.86037
G1 X110.689 Y95.753 E30.89192
G1 X111.472 Y95.794 E30.93104
G1 X112.292 Y95.738 E30.97204
G1 X112.912 Y95.615 E31.00358
G1 X113.512 Y95.416 E31.03512
G1 X114.082 Y95.142 E31.06667
G1 X114.582 Y94.821 E31.09631
G1 X115.664 Y94.032 E31.16312
G1 X116.308 Y93.718 E31.19887
