;FLAVOR:Marlin
;TIME:8374
;Filament used: 13.1406m
;Layer height: 0.3
;MINX:40.813
;MINY:46.8
;MINZ:0.3
;MAXX:172.591
;MAXY:153.2
;MAXZ:24
;Generated with Cura_SteamEngine 5.3.1
M140 S60
M105
M190 S60
M104 S185
M105
M109 S185
M82 ;absolute extrusion mode
G21 ;metric values
G90 ;absolute positioning
M82 ;set extruder to absolute mode
M107 ;start with the fan off
G28
G29
G92 E0 ;zero the extruded length again
G1 F60
M117 "please"
G92 E0
G92 E0
G1 F4800 E-6.5
;LAYER_COUNT:80
;LAYER:0
M107
G1 F600 Z1.3
G0 F1800 X45.843 Y47.704 Z1.3
;TYPE:SKIRT
G1 F600 Z0.3
G1 F4800 E0
G1 F1800 X46.234 Y47.383 E0.02524
G1 X46.67 Y47.128 E0.05044
G1 X47.142 Y46.945 E0.07569
G1 X47.636 Y46.838 E0.10091
G1 X48.081 Y46.801 E0.12319
G1 X76.989 Y46.8 E1.56542
G1 X81.772 Y46.858 E1.80406
G1 X82.974 Y46.888 E1.86404
G1 X86.889 Y47.036 E2.0595
G1 X88.14 Y47.1 E2.122
G1 X91.954 Y47.342 E2.31266
G1 X93.312 Y47.445 E2.38061
G1 X97.064 Y47.778 E2.56853
G1 X98.373 Y47.911 E2.63417
G1 X102.188 Y48.345 E2.82573
G1 X103.393 Y48.498 E2.88633
G1 X107.125 Y49.018 E3.07432
G1 X108.509 Y49.229 E3.14417
G1 X112.305 Y49.858 E3.33613
G1 X113.59 Y50.087 E3.40125
G1 X117.281 Y50.794 E3.58874
G1 X118.621 Y51.068 E3.65698
G1 X122.387 Y51.888 E3.84927
G1 X123.604 Y52.17 E3.91159
G1 X127.267 Y53.066 E4.09973
G1 X128.636 Y53.418 E4.17025
G1 X132.25 Y54.398 E4.35707
G1 X133.509 Y54.756 E4.42237
G1 X137.115 Y55.832 E4.61011
G1 X138.378 Y56.226 E4.67612
G1 X142.039 Y57.42 E4.86823
G1 X143.291 Y57.845 E4.9342
G1 X146.796 Y59.086 E5.1197
G1 X148.048 Y59.548 E5.18628
G1 X151.651 Y60.926 E5.37873
G1 X152.912 Y61.428 E5.44644
G1 X156.406 Y62.868 E5.63498
G1 X157.597 Y63.376 E5.69958
G1 X161.069 Y64.911 E5.88898
G1 X162.321 Y65.483 E5.95765
G1 X165.747 Y67.102 E6.1467
G1 X166.906 Y67.667 E6.21102
G1 X170.217 Y69.335 E6.39599
G1 X170.853 Y69.665 E6.43173
G1 X171.282 Y69.932 E6.45694
G1 X171.663 Y70.264 E6.48216
G1 X171.988 Y70.652 E6.50741
G1 X172.247 Y71.086 E6.53262
G1 X172.435 Y71.555 E6.55783
G1 X172.575 Y72.177 E6.58964
G1 X172.59 Y73.229 E6.64213
G1 X172.591 Y126.807 E9.31515
G1 X172.581 Y127.537 E9.35157
G1 X172.534 Y128.04 E9.37677
G1 X172.408 Y128.53 E9.40202
G1 X172.207 Y128.994 E9.42724
G1 X171.936 Y129.42 E9.45243
G1 X171.6 Y129.798 E9.47766
G1 X171.111 Y130.2 E9.50925
G1 X170.156 Y130.698 E9.56298
G1 X167.163 Y132.208 E9.73023
G1 X166.132 Y132.714 E9.78753
G1 X162.89 Y134.256 E9.96663
G1 X161.861 Y134.731 E10.02318
G1 X158.581 Y136.199 E10.20246
G1 X157.538 Y136.65 E10.25915
G1 X154.22 Y138.044 E10.4387
G1 X153.175 Y138.469 E10.49498
G1 X149.878 Y139.762 E10.67167
G1 X148.718 Y140.203 E10.73358
G1 X145.49 Y141.385 E10.90508
G1 X144.285 Y141.811 E10.96885
G1 X141.004 Y142.926 E11.14173
G1 X139.859 Y143.301 E11.20184
G1 X136.486 Y144.361 E11.37824
G1 X135.321 Y144.712 E11.43894
G1 X131.972 Y145.682 E11.61289
G1 X130.836 Y145.995 E11.67168
G1 X127.422 Y146.897 E11.84785
G1 X126.255 Y147.191 E11.90789
G1 X122.771 Y148.025 E12.08661
G1 X121.736 Y148.26 E12.13957
G1 X118.223 Y149.015 E12.31883
G1 X117.005 Y149.262 E12.38083
G1 X113.305 Y149.964 E12.56872
G1 X111.961 Y150.202 E12.63682
G1 X108.226 Y150.815 E12.82565
G1 X106.966 Y151.006 E12.88923
G1 X103.222 Y151.524 E13.0778
G1 X101.96 Y151.683 E13.14126
G1 X98.183 Y152.11 E13.33089
G1 X96.874 Y152.241 E13.39653
G1 X93.071 Y152.574 E13.58698
G1 X91.813 Y152.669 E13.64992
G1 X87.948 Y152.91 E13.84312
G1 X86.718 Y152.971 E13.90456
G1 X82.934 Y153.113 E14.09348
G1 X81.673 Y153.145 E14.15641
G1 X76.973 Y153.2 E14.39091
G1 X49.115 Y153.2 E15.78076
G1 X48.417 Y153.19 E15.81558
G1 X47.914 Y153.143 E15.84079
G1 X47.424 Y153.017 E15.86603
G1 X46.96 Y152.815 E15.89128
G1 X46.534 Y152.543 E15.91649
G1 X46.156 Y152.208 E15.94169
G1 X45.836 Y151.817 E15.9669
G1 X45.581 Y151.38 E15.99214
G1 X45.398 Y150.909 E16.01735
G1 X45.291 Y150.415 E16.04257
G1 X45.255 Y149.965 E16.06509
G1 X45.254 Y146.661 E16.22993
G1 X45.264 Y145.958 E16.265
G1 X45.311 Y145.455 E16.29021
G1 X45.471 Y144.832 E16.3223
G1 X45.934 Y143.912 E16.37368
G1 X47.129 Y141.453 E16.51008
G1 X48.246 Y138.977 E16.6456
G1 X49.313 Y136.423 E16.78369
G1 X50.309 Y133.834 E16.92208
G1 X51.206 Y131.291 E17.05661
G1 X52.043 Y128.682 E17.19331
G1 X52.812 Y126.038 E17.33069
G1 X53.49 Y123.427 E17.46527
G1 X54.111 Y120.724 E17.60364
G1 X54.651 Y118.024 E17.74101
G1 X55.109 Y115.349 E17.87641
G1 X55.491 Y112.66 E18.01191
G1 X55.801 Y109.924 E18.14928
G1 X56.033 Y107.181 E18.28662
G1 X56.186 Y104.465 E18.42234
G1 X56.263 Y101.714 E18.55964
G1 X56.263 Y98.996 E18.69524
G1 X56.184 Y96.243 E18.83264
G1 X56.028 Y93.497 E18.96986
G1 X55.795 Y90.782 E19.10581
G1 X55.488 Y88.08 E19.24148
G1 X55.101 Y85.365 E19.3783
G1 X54.637 Y82.664 E19.51503
G1 X54.098 Y79.976 E19.65181
G1 X53.487 Y77.327 E19.78744
G1 X52.78 Y74.614 E19.92731
G1 X52.03 Y72.038 E20.06116
G1 X51.192 Y69.433 E20.19768
G1 X50.278 Y66.848 E20.33448
G1 X49.301 Y64.31 E20.47015
G1 X48.229 Y61.751 E20.60857
G1 X47.105 Y59.265 E20.74469
G1 X45.919 Y56.824 E20.88008
G1 X45.217 Y55.457 E20.95675
G1 X45.023 Y54.99 E20.98198
G1 X44.904 Y54.499 E21.00718
G1 X44.854 Y53.965 E21.03394
G1 X44.854 Y50.633 E21.20018
G1 X44.863 Y49.966 E21.23346
G1 X44.91 Y49.462 E21.25871
G1 X45.035 Y48.973 E21.28389
G1 X45.236 Y48.509 E21.30912
G1 X45.508 Y48.082 E21.33438
G1 X45.843 Y47.704 E21.35958
G1 F4800 E14.85958
G1 F600 Z1.3
;MESH:mouth_11.stl
G0 F1800 X62.698 Y53 Z1.3
;TYPE:WALL-INNER
G1 F600 Z0.3
G1 F4800 E21.35958
G1 F1800 X62.698 Y51 E21.45936
G1 X49.054 Y51 E22.14006
G1 X49.054 Y53 E22.23984
G1 X62.698 Y53 E22.92054
G0 X63.098 Y53.4
G1 X63.098 Y50.6 E23.06023
G1 X48.654 Y50.6 E23.78085
G1 X48.654 Y53.4 E23.92054
G1 X63.098 Y53.4 E24.64115
G0 X63.498 Y53.8
;TYPE:WALL-OUTER
G1 X63.498 Y50.2 E24.82076
G1 X48.254 Y50.2 E25.58128
G1 X48.254 Y53.8 E25.76089
G1 X63.498 Y53.8 E26.52142
G0 X63.498 Y53.6
G0 X62.828 Y53.13
G0 X62.318 Y52.62
;TYPE:SKIN
G1 X49.434 Y52.62 E27.1642
G1 X49.434 Y51.38 E27.22606
G1 X62.318 Y51.38 E27.86885
G1 X62.318 Y52.62 E27.93071
G0 X62.117 Y51.934
G1 X61.762 Y51.579 E27.95576
G0 X61.196 Y51.579
G1 X62.035 Y52.419 E28.01499
G0 X61.47 Y52.419
G1 X60.63 Y51.579 E28.07426
G0 X60.065 Y51.579
G1 X60.904 Y52.419 E28.13349
G0 X60.338 Y52.419
G1 X59.499 Y51.579 E28.19272
G0 X58.933 Y51.579
G1 X59.773 Y52.419 E28.25199
G0 X59.207 Y52.419
G1 X58.368 Y51.579 E28.31122
G0 X57.802 Y51.579
G1 X58.641 Y52.419 E28.37045
G0 X58.076 Y52.419
G1 X57.236 Y51.579 E28.42972
G0 X56.671 Y51.579
G1 X57.51 Y52.419 E28.48895
G0 X56.944 Y52.419
G1 X56.105 Y51.579 E28.54818
G0 X55.539 Y51.579
G1 X56.379 Y52.419 E28.60745
G0 X55.813 Y52.419
G1 X54.974 Y51.579 E28.66668
G0 X54.408 Y51.579
G1 X55.247 Y52.419 E28.72591
G0 X54.681 Y52.419
G1 X53.842 Y51.579 E28.78514
G0 X53.276 Y51.579
G1 X54.116 Y52.419 E28.84441
G0 X53.55 Y52.419
G1 X52.711 Y51.579 E28.90364
G0 X52.145 Y51.579
G1 X52.984 Y52.419 E28.96287
G0 X52.419 Y52.419
G1 X51.579 Y51.579 E29.02214
G0 X51.014 Y51.579
G1 X51.853 Y52.419 E29.08137
G0 X51.287 Y52.419
G1 X50.448 Y51.579 E29.1406
G0 X49.882 Y51.579
G1 X50.722 Y52.419 E29.19986
G0 X50.156 Y52.419
G1 X49.633 Y51.896 E29.23677
G1 F4800 E22.73677
G1 F600 Z1.3
G0 F1800 X49.633 Y51.896 Z1.3
G0 X64.62 Y147
;TYPE:WALL-INNER
G1 F600 Z0.3
G1 F4800 E29.23677
G1 F1800 X49.454 Y147 E29.9934
G1 X49.454 Y149 E30.09318
G1 X77.252 Y149 E31.48003
G1 X82.228 Y148.937 E31.7283
G1 X87.168 Y148.75 E31.97494
G1 X92.156 Y148.438 E32.22427
G1 X97.148 Y148.001 E32.47428
G1 X102.096 Y147.439 E32.72272
G1 X106.943 Y146.766 E32.96686
G1 X111.925 Y145.952 E33.21871
G1 X116.82 Y145.022 E33.46729
G1 X121.309 Y144.056 E33.69637
G1 X125.831 Y142.972 E33.92837
G1 X130.317 Y141.788 E34.15984
G1 X134.725 Y140.511 E34.3888
G1 X139.145 Y139.122 E34.61995
G1 X143.455 Y137.655 E34.84709
G1 X147.844 Y136.048 E35.08027
G1 X152.148 Y134.359 E35.31094
G1 X156.424 Y132.562 E35.54234
G1 X160.618 Y130.685 E35.77158
G1 X164.821 Y128.685 E36.0038
G1 X168.391 Y126.885 E36.20327
G1 X168.39 Y73.116 E38.88581
G1 X164.451 Y71.136 E39.10576
G1 X159.933 Y69.001 E39.35507
G1 X155.33 Y66.969 E39.60609
G1 X150.707 Y65.063 E39.85557
G1 X145.958 Y63.247 E40.10923
G1 X141.228 Y61.574 E40.35954
G1 X136.463 Y60.021 E40.60957
G1 X131.715 Y58.604 E40.85677
G1 X126.831 Y57.284 E41.10918
G1 X121.995 Y56.103 E41.35754
G1 X117.091 Y55.035 E41.60793
G1 X112.165 Y54.091 E41.85817
G1 X107.107 Y53.256 E42.11393
G1 X102.234 Y52.579 E42.35938
G1 X97.271 Y52.014 E42.60858
G1 X92.286 Y51.572 E42.85826
G1 X87.263 Y51.254 E43.10936
G1 X82.235 Y51.065 E43.36038
G1 X77.247 Y51.001 E43.60926
G1 X65.496 Y51.001 E44.19552
G1 X65.492 Y146.088 E48.93943
G1 X65.384 Y146.459 E48.9587
G1 X65.192 Y146.718 E48.97479
G1 X64.886 Y146.922 E48.99314
G1 X64.62 Y147 E49.00697
G0 X64.572 Y146.6
G1 X49.054 Y146.6 E49.78116
G1 X49.054 Y149.4 E49.92085
G1 X77.257 Y149.4 E51.32791
G1 X82.242 Y149.337 E51.57663
G1 X87.192 Y149.15 E51.82376
G1 X92.19 Y148.837 E52.0736
G1 X97.192 Y148.398 E52.32411
G1 X102.151 Y147.835 E52.57311
G1 X106.974 Y147.167 E52.81602
G1 X112 Y146.345 E53.0701
G1 X116.904 Y145.413 E53.31915
G1 X121.393 Y144.447 E53.54823
G1 X125.933 Y143.359 E53.78114
G1 X130.428 Y142.172 E54.01309
G1 X134.845 Y140.893 E54.24251
G1 X139.274 Y139.501 E54.47413
G1 X143.593 Y138.031 E54.70174
G1 X147.96 Y136.433 E54.93374
G1 X152.302 Y134.728 E55.16646
G1 X156.588 Y132.928 E55.39839
G1 X160.799 Y131.042 E55.62858
G1 X165.001 Y129.043 E55.86073
G1 X168.791 Y127.131 E56.07252
G1 X168.79 Y72.869 E58.77966
G1 X164.622 Y70.774 E59.01239
G1 X160.076 Y68.627 E59.26321
G1 X155.483 Y66.599 E59.5137
G1 X150.855 Y64.691 E59.76345
G1 X146.092 Y62.87 E60.01785
G1 X141.352 Y61.194 E60.26868
G1 X136.577 Y59.638 E60.51923
G1 X131.806 Y58.214 E60.76763
G1 X126.914 Y56.893 E61.02044
G1 X122.081 Y55.712 E61.26865
G1 X117.166 Y54.642 E61.51961
G1 X112.23 Y53.697 E61.77034
G1 X107.183 Y52.862 E62.02556
G1 X102.279 Y52.182 E62.27256
G1 X97.306 Y51.615 E62.52227
G1 X92.296 Y51.172 E62.77319
G1 X87.278 Y50.854 E63.02405
G1 X82.24 Y50.665 E63.27557
G1 X77.247 Y50.601 E63.52469
G1 X65.096 Y50.601 E64.13091
G1 X65.093 Y146.053 E68.89303
G1 X65.029 Y146.276 E68.9046
G1 X64.914 Y146.431 E68.91423
G1 X64.73 Y146.553 E68.92524
G1 X64.572 Y146.6 E68.93347
G0 X64.572 Y146.9
G0 X69.143 Y146.903
G0 X69.139 Y146.556
G1 X68.952 Y146.433 E68.94464
G1 X68.835 Y146.277 E68.95436
G1 X68.771 Y146.054 E68.96594
G1 X68.769 Y53.871 E73.56497
G1 X68.855 Y53.675 E73.57565
G1 X68.976 Y53.531 E73.58503
G1 X69.159 Y53.423 E73.59563
G1 X69.369 Y53.386 E73.60627
G1 X75.459 Y53.533 E73.91019
G1 X81.565 Y53.787 E74.21508
G1 X87.618 Y54.15 E74.51761
G1 X93.778 Y54.638 E74.8259
G1 X96.804 Y54.925 E74.97754
G1 X99.924 Y55.255 E75.13407
G1 X102.977 Y55.617 E75.28745
G1 X106.066 Y56.024 E75.44289
G1 X109.169 Y56.477 E75.59934
G1 X112.269 Y56.973 E75.75597
G1 X115.325 Y57.51 E75.91077
G1 X118.507 Y58.124 E76.07245
G1 X118.712 Y58.211 E76.08356
G1 X118.871 Y58.366 E76.09464
G1 X118.979 Y58.646 E76.10961
G1 X118.977 Y141.905 E80.26342
G1 X118.882 Y142.123 E80.27528
G1 X118.719 Y142.289 E80.28689
G1 X118.572 Y142.369 E80.29524
G1 X115.372 Y142.957 E80.45756
G1 X112.267 Y143.477 E80.61463
G1 X109.177 Y143.946 E80.77055
G1 X106.074 Y144.366 E80.92677
G1 X102.971 Y144.744 E81.08273
G1 X99.841 Y145.083 E81.2398
G1 X96.826 Y145.37 E81.3909
G1 X93.781 Y145.628 E81.54336
G1 X90.702 Y145.854 E81.69738
G1 X87.638 Y146.048 E81.85055
G1 X81.544 Y146.344 E82.15494
G1 X75.48 Y146.525 E82.45761
G1 X69.369 Y146.601 E82.76251
G1 X69.139 Y146.556 E82.7742
G0 X69.143 Y146.903
G0 X81.56 Y146.582
G0 X90.721 Y146.092
G0 X99.918 Y145.314
G0 X106.11 Y144.601
G0 X112.309 Y143.713
G0 X119.209 Y142.484
G0 X122.558 Y141.784
G0 X128.598 Y140.339
G0 X133.685 Y138.91
G0 X138.812 Y137.259
G0 X143.932 Y135.38
G0 X149.09 Y133.239
G0 X154.292 Y130.816
G0 X159.538 Y128.094
G0 X165.225 Y124.821
G0 X164.991 Y124.481
G1 X164.778 Y124.813 E82.79388
G1 X162.052 Y126.412 E82.95155
G1 X159.44 Y127.878 E83.10099
G1 X156.795 Y129.283 E83.25041
G1 X154.181 Y130.606 E83.39657
G1 X151.635 Y131.825 E83.5374
G1 X148.99 Y133.022 E83.68225
G1 X146.413 Y134.124 E83.82208
G1 X143.84 Y135.16 E83.96046
G1 X141.273 Y136.13 E84.09737
G1 X138.758 Y137.024 E84.23053
G1 X136.119 Y137.904 E84.36932
G1 X133.643 Y138.673 E84.49867
G1 X131.012 Y139.438 E84.63536
G1 X128.53 Y140.111 E84.76366
G1 X125.981 Y140.754 E84.89482
G1 X123.519 Y141.329 E85.02095
G1 X123.25 Y141.33 E85.03437
G1 X123.028 Y141.229 E85.04654
G1 X122.885 Y141.081 E85.05681
G1 X122.782 Y140.822 E85.07071
G1 X122.779 Y59.798 E89.11302
G1 X122.833 Y59.548 E89.12578
G1 X122.925 Y59.404 E89.1343
G1 X123.135 Y59.249 E89.14732
G1 X123.319 Y59.2 E89.15682
G1 X123.521 Y59.214 E89.16693
G1 X126.041 Y59.824 E89.29628
G1 X128.543 Y60.475 E89.42526
G1 X131.085 Y61.18 E89.55687
G1 X133.604 Y61.927 E89.68795
G1 X136.14 Y62.731 E89.82068
G1 X138.708 Y63.601 E89.95595
G1 X141.268 Y64.522 E90.09168
G1 X143.825 Y65.5 E90.22827
G1 X146.427 Y66.557 E90.36838
G1 X148.998 Y67.665 E90.50805
G1 X151.573 Y68.838 E90.64922
G1 X154.19 Y70.098 E90.79413
G1 X156.806 Y71.424 E90.94045
G1 X159.451 Y72.836 E91.09004
G1 X162.061 Y74.3 E91.23934
G1 X164.75 Y75.88 E91.39494
G1 X164.908 Y76.056 E91.40674
G1 X164.991 Y76.363 E91.4226
G1 X164.991 Y124.481 E93.82322
G0 X165.291 Y124.481
G0 X159.538 Y128.094
G0 X154.292 Y130.816
G0 X149.09 Y133.239
G0 X143.932 Y135.38
G0 X138.812 Y137.259
G0 X133.685 Y138.91
G0 X129.565 Y140.067
G0 X123.162 Y141.721
G1 X122.792 Y141.553 E93.84349
G1 X122.554 Y141.306 E93.8606
G1 X122.382 Y140.871 E93.88394
G1 X122.379 Y59.798 E97.92869
G1 X122.469 Y59.382 E97.94992
G1 X122.623 Y59.141 E97.96419
G1 X122.973 Y58.883 E97.98589
G1 X123.28 Y58.802 E98.00173
G1 X123.503 Y58.798 E98.01285
G1 X126.141 Y59.436 E98.14826
G1 X128.65 Y60.09 E98.27762
G1 X131.199 Y60.796 E98.40957
G1 X133.725 Y61.546 E98.54103
G1 X136.264 Y62.35 E98.6739
G1 X138.843 Y63.224 E98.80976
G1 X141.411 Y64.148 E98.94592
G1 X143.975 Y65.129 E99.08288
G1 X146.566 Y66.181 E99.22239
G1 X149.164 Y67.301 E99.36354
G1 X151.747 Y68.478 E99.50515
G1 X154.371 Y69.741 E99.65044
G1 X156.995 Y71.071 E99.79721
G1 X159.647 Y72.487 E99.9472
G1 X162.263 Y73.955 E100.09686
G1 X164.989 Y75.559 E100.25465
G1 X165.252 Y75.851 E100.27426
G1 X165.355 Y76.093 E100.28738
G1 X165.391 Y76.363 E100.30097
G1 X165.391 Y124.344 E102.69475
G1 X165.35 Y124.634 E102.70936
G1 X165.23 Y124.89 E102.72347
G1 X165.038 Y125.125 E102.73861
G1 X162.248 Y126.761 E102.89997
G1 X159.628 Y128.231 E103.04985
G1 X156.975 Y129.64 E103.19972
G1 X154.354 Y130.967 E103.34628
G1 X151.8 Y132.19 E103.48756
G1 X149.147 Y133.39 E103.63283
G1 X146.562 Y134.495 E103.77308
G1 X143.981 Y135.534 E103.91189
G1 X141.407 Y136.507 E104.04918
G1 X138.891 Y137.402 E104.18241
G1 X136.238 Y138.286 E104.32192
G1 X133.755 Y139.057 E104.45163
G1 X131.117 Y139.824 E104.58869
G1 X128.628 Y140.499 E104.71735
G1 X126.072 Y141.144 E104.84887
G1 X123.61 Y141.719 E104.975
G1 X123.162 Y141.721 E104.99736
G0 X115.419 Y143.193
G0 X109.206 Y144.182
G0 X103.002 Y144.98
G0 X93.805 Y145.866
G0 X87.657 Y146.286
G0 X82.719 Y146.525
G0 X68.986 Y146.926
G1 X68.674 Y146.721 E105.01598
G1 X68.48 Y146.46 E105.03221
G1 X68.372 Y146.088 E105.05153
G1 X68.369 Y53.986 E109.64652
G1 X68.406 Y53.712 E109.66031
G1 X68.513 Y53.468 E109.6736
G1 X68.715 Y53.228 E109.68925
G1 X69.02 Y53.048 E109.70692
G1 X69.369 Y52.986 E109.72461
G1 X75.476 Y53.133 E110.02938
G1 X81.589 Y53.388 E110.33462
G1 X87.649 Y53.751 E110.6375
G1 X93.816 Y54.24 E110.94613
G1 X96.846 Y54.527 E111.09798
G1 X99.971 Y54.858 E111.25476
G1 X103.037 Y55.222 E111.40879
G1 X106.124 Y55.628 E111.56413
G1 X109.233 Y56.082 E111.72089
G1 X112.339 Y56.579 E111.87782
G1 X115.401 Y57.117 E112.03292
G1 X118.592 Y57.733 E112.19506
G1 X118.934 Y57.879 E112.21361
G1 X119.198 Y58.136 E112.23199
G1 X119.339 Y58.427 E112.24812
G1 X119.379 Y58.711 E112.26243
G1 X119.375 Y141.978 E116.41664
G1 X119.216 Y142.342 E116.43646
G1 X118.946 Y142.619 E116.45576
G1 X118.59 Y142.773 E116.47511
G1 X115.438 Y143.352 E116.63499
G1 X112.327 Y143.872 E116.79235
G1 X109.237 Y144.342 E116.94829
G1 X106.123 Y144.763 E117.10506
G1 X103.014 Y145.142 E117.26132
G1 X99.879 Y145.481 E117.41863
