;FLAVOR:Marlin
;TIME:2534
;Filament used: 3.86988m
;Layer height: 0.3
;MINX:31.947
;MINY:29.049
;MINZ:0.3
;MAXX:183.534
;MAXY:169.958
;MAXZ:9.3
;Generated with Cura_SteamEngine 5.3.1
M140 S60
M105
M190 S60
M104 S185
M105
M109 S185
M82 ;absolute extrusion mode
G21 ;metric values
G90 ;absolute positioning
M82 ;set extruder to absolute mode
M107 ;start with the fan off
G28
G29
G92 E0 ;zero the extruded length again
G1 F60
M117 "please"
G92 E0
G92 E0
G1 F4800 E-6.5
;LAYER_COUNT:14
;LAYER:0
M107
G1 F600 Z1.3
G0 F1800 X97.087 Y37.243 Z1.3
;TYPE:SKIRT
G1 F600 Z0.3
G1 F4800 E0
G1 F1800 X97.569 Y36.128 E0.0606
G1 X98.295 Y34.88 E0.13263
G1 X99.201 Y33.685 E0.20745
G1 X99.884 Y32.977 E0.25653
G1 X100.418 Y32.474 E0.29313
G1 X101.07 Y31.945 E0.33502
G1 X101.586 Y31.569 E0.36687
G1 X102.295 Y31.124 E0.40863
G1 X102.858 Y30.809 E0.44082
G1 X103.955 Y30.294 E0.50128
G1 X104.994 Y29.953 E0.55584
G1 X105.591 Y29.79 E0.58671
G1 X106.318 Y29.642 E0.62372
G1 X107.06 Y29.528 E0.66118
G1 X107.876 Y29.465 E0.70201
G1 X108.512 Y29.449 E0.73375
G1 X109.72 Y29.5 E0.79407
G1 X111.183 Y29.744 E0.86807
G1 X112.574 Y30.15 E0.94036
G1 X113.956 Y30.746 E1.01545
G1 X115.201 Y31.47 E1.0873
G1 X116.12 Y32.167 E1.14484
G1 X116.586 Y32.56 E1.17526
G1 X117.171 Y33.126 E1.21587
G1 X117.61 Y33.594 E1.24788
G1 X118.091 Y34.186 E1.28593
G1 X118.514 Y34.761 E1.32155
G1 X118.914 Y35.396 E1.35899
G1 X119.276 Y36.037 E1.39572
G1 X119.788 Y37.128 E1.45584
G1 X120.093 Y38.047 E1.50415
G1 X120.295 Y38.769 E1.54155
G1 X120.45 Y39.531 E1.58035
G1 X120.557 Y40.235 E1.61588
G1 X120.635 Y41.25 E1.66666
G1 X120.653 Y42.413 E1.72469
G1 X120.653 Y65.855 E2.89422
G1 X120.645 Y66.454 E2.92411
G1 X120.604 Y67.377 E2.9702
G1 X120.539 Y68.064 E3.00463
G1 X120.424 Y68.768 E3.04022
G1 X120.271 Y69.487 E3.07689
G1 X119.926 Y70.665 E3.13813
G1 X119.349 Y72.007 E3.21101
G1 X118.831 Y72.898 E3.26243
G1 X118.447 Y73.492 E3.29771
G1 X117.734 Y74.438 E3.35681
G1 X116.942 Y75.257 E3.41365
G1 X116.493 Y75.676 E3.44429
G1 X115.814 Y76.227 E3.48792
G1 X115.321 Y76.586 E3.51835
G1 X114.618 Y77.027 E3.55975
G1 X114.049 Y77.345 E3.59227
G1 X112.963 Y77.856 E3.65215
G1 X111.934 Y78.195 E3.7062
G1 X111.31 Y78.366 E3.73848
G1 X110.142 Y78.603 E3.79794
G1 X109.007 Y78.69 E3.85473
G1 X108.374 Y78.706 E3.88632
G1 X107.212 Y78.657 E3.94434
G1 X105.721 Y78.41 E4.01974
G1 X104.305 Y77.994 E4.09337
G1 X102.956 Y77.41 E4.16671
G1 X101.677 Y76.664 E4.24058
G1 X100.815 Y76.011 E4.29453
G1 X100.333 Y75.606 E4.32594
G1 X99.46 Y74.763 E4.38649
G1 X98.776 Y73.918 E4.44073
G1 X98.395 Y73.398 E4.47289
G1 X97.752 Y72.378 E4.53304
G1 X97.281 Y71.374 E4.58837
G1 X97.035 Y70.776 E4.62063
G1 X96.808 Y70.091 E4.65663
G1 X96.608 Y69.372 E4.69387
G1 X96.445 Y68.561 E4.73514
G1 X96.349 Y67.915 E4.76772
G1 X96.273 Y66.928 E4.81711
G1 X96.253 Y65.739 E4.87643
G1 X96.253 Y42.278 E6.04691
G1 X96.264 Y41.613 E6.08009
G1 X96.303 Y40.777 E6.12184
G1 X96.368 Y40.089 E6.15632
G1 X96.563 Y38.909 E6.21599
G1 X96.871 Y37.862 E6.27044
G1 X97.087 Y37.243 E6.30315
G0 X96.709 Y37.111
G1 X97.223 Y35.927 E6.36754
G1 X97.976 Y34.638 E6.44202
G1 X98.882 Y33.443 E6.51684
G1 X99.596 Y32.699 E6.56828
G1 X100.166 Y32.163 E6.60732
G1 X100.834 Y31.622 E6.6502
G1 X101.373 Y31.23 E6.68345
G1 X102.082 Y30.785 E6.72522
G1 X102.688 Y30.447 E6.75983
G1 X103.83 Y29.914 E6.82271
G1 X104.889 Y29.567 E6.87831
G1 X105.511 Y29.398 E6.91046
G1 X106.257 Y29.247 E6.94844
G1 X107.029 Y29.129 E6.9874
G1 X107.866 Y29.065 E7.02928
G1 X108.529 Y29.049 E7.06237
G1 X109.786 Y29.105 E7.12514
G1 X111.249 Y29.349 E7.19914
G1 X112.686 Y29.766 E7.27379
G1 X114.157 Y30.4 E7.3537
G1 X115.443 Y31.151 E7.428
G1 X116.378 Y31.861 E7.48657
G1 X116.844 Y32.254 E7.51698
G1 X117.463 Y32.852 E7.55992
G1 X117.902 Y33.32 E7.59194
G1 X118.413 Y33.949 E7.63237
G1 X118.836 Y34.524 E7.66798
G1 X119.262 Y35.199 E7.7078
G1 X119.638 Y35.867 E7.74605
G1 X120.168 Y37.002 E7.80854
G1 X120.478 Y37.939 E7.85778
G1 X120.687 Y38.689 E7.89662
G1 X120.842 Y39.451 E7.93542
G1 X120.956 Y40.204 E7.97341
G1 X121.035 Y41.244 E8.02545
G1 X121.053 Y42.407 E8.08348
G1 X121.053 Y65.86 E9.25355
G1 X121.045 Y66.472 E9.28409
G1 X121.004 Y67.395 E9.33018
G1 X120.934 Y68.128 E9.36692
G1 X120.815 Y68.851 E9.40347
G1 X120.655 Y69.599 E9.44164
G1 X120.31 Y70.777 E9.50288
G1 X119.695 Y72.208 E9.58058
G1 X119.167 Y73.115 E9.63294
G1 X118.783 Y73.709 E9.66823
G1 X118.022 Y74.716 E9.7312
G1 X117.23 Y75.535 E9.78804
G1 X116.745 Y75.987 E9.82112
G1 X116.066 Y76.538 E9.86474
G1 X115.534 Y76.925 E9.89757
G1 X114.831 Y77.366 E9.93897
G1 X114.219 Y77.707 E9.97392
G1 X113.088 Y78.236 E10.03621
G1 X112.04 Y78.581 E10.09126
G1 X111.416 Y78.752 E10.12354
G1 X110.173 Y79.002 E10.18679
G1 X109.017 Y79.09 E10.24463
G1 X108.357 Y79.106 E10.27757
G1 X107.195 Y79.057 E10.33559
G1 X105.656 Y78.805 E10.4134
G1 X104.192 Y78.378 E10.48948
G1 X102.754 Y77.756 E10.56765
G1 X101.475 Y77.01 E10.64152
G1 X100.573 Y76.33 E10.69787
G1 X100.055 Y75.894 E10.73165
G1 X99.149 Y75.015 E10.79463
G1 X98.453 Y74.154 E10.84986
G1 X98.072 Y73.634 E10.88203
G1 X97.39 Y72.548 E10.946
G1 X96.911 Y71.526 E11.00231
G1 X96.655 Y70.902 E11.03596
G1 X96.428 Y70.217 E11.07197
G1 X96.216 Y69.451 E11.11162
G1 X96.049 Y68.62 E11.15391
G1 X95.953 Y67.974 E11.18649
G1 X95.873 Y66.935 E11.23848
G1 X95.853 Y65.746 E11.29781
G1 X95.853 Y42.271 E12.46898
G1 X95.864 Y41.594 E12.50276
G1 X95.903 Y40.758 E12.54451
G1 X95.973 Y40.024 E12.5813
G1 X96.179 Y38.796 E12.64342
G1 X96.493 Y37.73 E12.69886
G1 X96.709 Y37.111 E12.73157
G1 F4800 E6.23157
G1 F600 Z1.3
;MESH:????????????_test_01.stl(5)
G0 F1800 X108.503 Y48.631 Z1.3
;TYPE:WALL-INNER
G1 F600 Z0.3
G1 F4800 E12.73157
G1 F1800 X107.462 Y48.563 E12.78362
G1 X106.454 Y48.342 E12.8351
G1 X105.507 Y47.986 E12.88557
G1 X104.567 Y47.459 E12.93934
G1 X103.799 Y46.865 E12.98778
G1 X103.081 Y46.125 E13.03922
G1 X102.486 Y45.297 E13.09009
G1 X101.995 Y44.347 E13.14344
G1 X101.684 Y43.428 E13.19184
G1 X101.489 Y42.374 E13.24532
G1 X101.458 Y41.367 E13.29558
G1 X101.563 Y40.382 E13.345
G1 X101.811 Y39.421 E13.39452
G1 X102.249 Y38.39 E13.4504
G1 X102.74 Y37.581 E13.49762
G1 X103.431 Y36.754 E13.55138
G1 X104.149 Y36.11 E13.5995
G1 X105.017 Y35.534 E13.65147
G1 X105.973 Y35.086 E13.70415
G1 X106.943 Y34.794 E13.75468
G1 X107.977 Y34.647 E13.80679
G1 X108.93 Y34.648 E13.85434
G1 X109.919 Y34.788 E13.90417
G1 X110.928 Y35.079 E13.95656
G1 X111.896 Y35.536 E14.00996
G1 X112.721 Y36.078 E14.05921
G1 X113.5 Y36.777 E14.11143
G1 X114.133 Y37.536 E14.16074
G1 X114.658 Y38.39 E14.21075
G1 X115.097 Y39.42 E14.26661
G1 X115.343 Y40.386 E14.31634
G1 X115.447 Y41.322 E14.36333
G1 X115.416 Y42.379 E14.41608
G1 X115.233 Y43.389 E14.46729
G1 X114.907 Y44.353 E14.51806
G1 X114.42 Y45.296 E14.57101
G1 X113.82 Y46.131 E14.62231
G1 X113.142 Y46.835 E14.67107
G1 X112.304 Y47.482 E14.72389
G1 X111.405 Y47.983 E14.77524
G1 X110.446 Y48.345 E14.82638
G1 X109.445 Y48.564 E14.8775
G1 X108.503 Y48.631 E14.92461
G0 X108.508 Y48.231
G1 X107.514 Y48.166 E14.97431
G1 X106.576 Y47.96 E15.02222
G1 X105.674 Y47.621 E15.0703
G1 X104.789 Y47.124 E15.12094
G1 X104.039 Y46.538 E15.16842
G1 X103.392 Y45.872 E15.21474
G1 X102.83 Y45.088 E15.26287
G1 X102.363 Y44.186 E15.31354
G1 X102.072 Y43.325 E15.35889
G1 X101.895 Y42.368 E15.40744
G1 X101.857 Y41.391 E15.45622
G1 X101.959 Y40.456 E15.50315
G1 X102.193 Y39.54 E15.55031
G1 X102.6 Y38.581 E15.60229
G1 X103.088 Y37.788 E15.64874
G1 X103.727 Y37.027 E15.69832
G1 X104.396 Y36.424 E15.74325
G1 X105.225 Y35.877 E15.7928
G1 X106.119 Y35.456 E15.8421
G1 X107.061 Y35.18 E15.89107
G1 X108.001 Y35.046 E15.93845
G1 X108.906 Y35.047 E15.9836
G1 X109.847 Y35.181 E16.03102
G1 X110.787 Y35.456 E16.07988
G1 X111.689 Y35.879 E16.12958
G1 X112.473 Y36.394 E16.17638
G1 X113.216 Y37.061 E16.22619
G1 X113.817 Y37.784 E16.2731
G1 X114.307 Y38.582 E16.31982
G1 X114.714 Y39.54 E16.37175
G1 X114.949 Y40.458 E16.41902
G1 X115.048 Y41.347 E16.46365
G1 X115.017 Y42.33 E16.51272
G1 X114.845 Y43.284 E16.56108
G1 X114.537 Y44.198 E16.6092
G1 X114.077 Y45.088 E16.65918
G1 X113.482 Y45.906 E16.70964
G1 X112.88 Y46.531 E16.75294
G1 X112.078 Y47.151 E16.80351
G1 X111.23 Y47.622 E16.85191
G1 X110.33 Y47.961 E16.89989
G1 X109.393 Y48.167 E16.94775
G1 X108.508 Y48.231 E16.99202
G0 X108.529 Y48.529
G0 X105.658 Y66.088
G0 X105.613 Y66.799
G0 X105.746 Y67.5
G0 X106.05 Y68.146
G0 X106.505 Y68.696
G0 X107.083 Y69.116
G0 X108.412 Y69.522
G0 X108.449 Y69.226
G1 X107.813 Y69.145 E17.02401
G1 X107.206 Y68.908 E17.05652
G1 X106.677 Y68.527 E17.08904
G1 X106.261 Y68.026 E17.12153
G1 X105.976 Y67.43 E17.15449
G1 X105.855 Y66.787 E17.18713
G1 X105.894 Y66.134 E17.21977
G1 X106.097 Y65.51 E17.2525
G1 X106.445 Y64.959 E17.28502
G1 X106.928 Y64.513 E17.31782
G1 X107.499 Y64.202 E17.35025
G1 X108.119 Y64.042 E17.3822
G1 X108.787 Y64.042 E17.41553
G1 X109.407 Y64.202 E17.44747
G1 X109.979 Y64.513 E17.47995
G1 X110.463 Y64.962 E17.51289
G1 X110.81 Y65.511 E17.54529
G1 X111.014 Y66.134 E17.578
G1 X111.049 Y66.81 E17.61177
G1 X110.925 Y67.443 E17.64395
G1 X110.644 Y68.03 E17.67642
G1 X110.23 Y68.525 E17.70861
G1 X109.701 Y68.907 E17.74117
G1 X109.1 Y69.144 E17.7734
G1 X108.449 Y69.226 E17.80613
G0 X108.412 Y69.522
G0 X108.453 Y74.62
G0 X108.453 Y74.92
G1 X109.47 Y74.86 E17.85696
G1 X110.461 Y74.679 E17.90722
G1 X111.433 Y74.374 E17.95804
G1 X112.352 Y73.96 E18.00833
G1 X113.229 Y73.43 E18.05945
G1 X114.018 Y72.812 E18.10945
G1 X114.743 Y72.087 E18.16061
G1 X115.361 Y71.298 E18.21061
G1 X115.891 Y70.421 E18.26173
G1 X116.307 Y69.496 E18.31233
G1 X116.61 Y68.528 E18.36294
G1 X116.79 Y67.539 E18.41309
G1 X116.853 Y66.5 E18.46502
G1 X116.853 Y41.648 E19.70489
G1 X116.79 Y40.616 E19.75647
G1 X116.61 Y39.627 E19.80663
G1 X116.304 Y38.649 E19.85775
G1 X115.891 Y37.734 E19.90783
G1 X115.36 Y36.857 E19.95898
G1 X114.743 Y36.067 E20.00899
G1 X114.018 Y35.343 E20.06011
G1 X113.229 Y34.724 E20.11014
G1 X112.352 Y34.194 E20.16126
G1 X111.433 Y33.78 E20.21155
G1 X110.459 Y33.477 E20.26244
G1 X109.47 Y33.296 E20.3126
G1 X108.453 Y33.234 E20.36344
G1 X107.436 Y33.295 E20.41426
G1 X106.447 Y33.477 E20.46443
G1 X105.474 Y33.779 E20.51526
G1 X104.555 Y34.194 E20.56557
G1 X103.678 Y34.724 E20.61669
G1 X102.888 Y35.344 E20.66679
G1 X102.164 Y36.067 E20.71784
G1 X101.545 Y36.857 E20.76791
G1 X101.015 Y37.734 E20.81903
G1 X100.599 Y38.658 E20.86959
G1 X100.298 Y39.627 E20.92021
G1 X100.116 Y40.616 E20.97038
G1 X100.053 Y41.653 E21.02221
G1 X100.053 Y66.506 E22.26214
G1 X100.116 Y67.539 E22.31377
G1 X100.297 Y68.528 E22.36393
G1 X100.599 Y69.496 E22.41452
G1 X101.015 Y70.421 E22.46512
G1 X101.545 Y71.298 E22.51624
G1 X102.164 Y72.087 E22.56627
G1 X102.888 Y72.811 E22.61736
G1 X103.678 Y73.43 E22.66743
G1 X104.555 Y73.96 E22.71855
G1 X105.474 Y74.374 E22.76884
G1 X106.446 Y74.679 E22.81966
G1 X107.436 Y74.859 E22.86986
G1 X108.453 Y74.92 E22.92069
G0 X108.453 Y74.52
G1 X109.422 Y74.462 E22.96912
G1 X110.365 Y74.29 E23.01694
G1 X111.29 Y74 E23.06531
G1 X112.166 Y73.606 E23.11323
G1 X113.001 Y73.1 E23.16194
G1 X113.752 Y72.512 E23.20952
G1 X114.443 Y71.821 E23.25828
G1 X115.031 Y71.07 E23.30586
G1 X115.536 Y70.235 E23.35455
G1 X115.933 Y69.354 E23.40276
G1 X116.22 Y68.432 E23.45093
G1 X116.392 Y67.491 E23.49866
G1 X116.453 Y66.488 E23.54879
G1 X116.452 Y41.645 E24.78821
G1 X116.392 Y40.664 E24.83725
G1 X116.221 Y39.723 E24.88496
G1 X115.929 Y38.792 E24.93364
G1 X115.536 Y37.92 E24.98136
G1 X115.03 Y37.085 E25.03007
G1 X114.443 Y36.333 E25.07766
G1 X113.752 Y35.643 E25.12638
G1 X113.001 Y35.054 E25.174
G1 X112.165 Y34.549 E25.22273
G1 X111.291 Y34.155 E25.27056
G1 X110.363 Y33.866 E25.31905
G1 X109.422 Y33.694 E25.36677
G1 X108.453 Y33.635 E25.4152
G1 X107.484 Y33.693 E25.46363
G1 X106.543 Y33.866 E25.51137
G1 X105.616 Y34.154 E25.5598
G1 X104.741 Y34.548 E25.60767
G1 X103.906 Y35.054 E25.65638
G1 X103.154 Y35.644 E25.70407
G1 X102.464 Y36.333 E25.75272
G1 X101.875 Y37.085 E25.80037
G1 X101.37 Y37.92 E25.84906
G1 X100.973 Y38.8 E25.89722
G1 X100.687 Y39.723 E25.94543
G1 X100.514 Y40.664 E25.99316
G1 X100.453 Y41.665 E26.0432
G1 X100.453 Y66.494 E27.28192
G1 X100.514 Y67.491 E27.33175
G1 X100.686 Y68.432 E27.37948
G1 X100.974 Y69.354 E27.42767
G1 X101.37 Y70.235 E27.47586
G1 X101.875 Y71.07 E27.52454
G1 X102.464 Y71.821 E27.57216
G1 X103.154 Y72.511 E27.62084
G1 X103.906 Y73.1 E27.6685
G1 X104.741 Y73.606 E27.71721
G1 X105.617 Y74 E27.76513
G1 X106.542 Y74.29 E27.81349
G1 X107.484 Y74.461 E27.86126
G1 X108.453 Y74.52 E27.90969
G0 X108.454 Y69.627
G1 X107.722 Y69.538 E27.94648
G1 X107.006 Y69.26 E27.9848
G1 X106.405 Y68.821 E28.02193
G1 X105.906 Y68.221 E28.06086
G1 X105.591 Y67.55 E28.09784
G1 X105.452 Y66.807 E28.13556
G1 X105.497 Y66.062 E28.17279
G1 X105.733 Y65.338 E28.21078
G1 X106.132 Y64.706 E28.24807
G1 X106.664 Y64.206 E28.2845
G1 X107.316 Y63.84 E28.3218
G1 X108.063 Y63.637 E28.36042
G1 X108.809 Y63.637 E28.39764
G1 X109.56 Y63.822 E28.43622
G1 X110.244 Y64.206 E28.47536
G1 X110.789 Y64.721 E28.51277
G1 X111.213 Y65.457 E28.55514
G1 X111.412 Y66.064 E28.58701
G1 X111.45 Y66.85 E28.62627
G1 X111.302 Y67.582 E28.66353
G1 X110.979 Y68.253 E28.70068
G1 X110.5 Y68.823 E28.73783
G1 X109.893 Y69.262 E28.7752
G1 X109.188 Y69.536 E28.81294
G1 X108.454 Y69.627 E28.84984
G0 X108.465 Y68.821
;TYPE:WALL-OUTER
G1 X107.91 Y68.754 E28.87773
G1 X107.396 Y68.552 E28.90528
G1 X106.958 Y68.235 E28.93226
G1 X106.592 Y67.8 E28.96062
G1 X106.363 Y67.311 E28.98756
G1 X106.259 Y66.776 E29.01475
G1 X106.289 Y66.209 E29.04308
G1 X106.461 Y65.683 E29.07068
G1 X106.754 Y65.219 E29.09806
G1 X107.162 Y64.838 E29.12591
G1 X107.644 Y64.575 E29.15331
G1 X108.173 Y64.438 E29.18057
G1 X108.733 Y64.438 E29.20851
G1 X109.262 Y64.575 E29.23577
G1 X109.745 Y64.838 E29.26321
G1 X110.153 Y65.22 E29.29109
G1 X110.453 Y65.706 E29.31959
G1 X110.617 Y66.207 E29.34589
G1 X110.65 Y66.763 E29.37367
G1 X110.547 Y67.3 E29.40095
G1 X110.314 Y67.797 E29.42834
G1 X109.966 Y68.219 E29.45563
G1 X109.521 Y68.546 E29.48318
G1 X108.996 Y68.754 E29.51135
G1 X108.465 Y68.821 E29.53805
G0 X108.267 Y68.798
G0 X108.179 Y69.493
G0 X108.453 Y74.62
G0 X108.453 Y75.321
G1 X109.518 Y75.258 E29.59128
G1 X110.557 Y75.068 E29.64398
G1 X111.575 Y74.749 E29.6972
G1 X112.538 Y74.315 E29.7499
G1 X113.457 Y73.76 E29.80346
G1 X114.284 Y73.112 E29.85587
G1 X115.043 Y72.353 E29.90943
G1 X115.691 Y71.526 E29.96184
G1 X116.246 Y70.607 E30.0154
G1 X116.682 Y69.638 E30.06842
G1 X116.999 Y68.624 E30.12142
G1 X117.188 Y67.587 E30.17401
G1 X117.253 Y66.512 E30.22774
G1 X117.253 Y41.636 E31.46881
G1 X117.188 Y40.568 E31.52219
G1 X116.999 Y39.531 E31.57478
G1 X116.678 Y38.507 E31.62831
G1 X116.246 Y37.548 E31.68079
G1 X115.69 Y36.629 E31.73438
G1 X115.043 Y35.801 E31.7868
G1 X114.284 Y35.043 E31.84032
G1 X113.457 Y34.394 E31.89277
G1 X112.538 Y33.839 E31.94633
G1 X111.575 Y33.405 E31.99902
G1 X110.555 Y33.087 E32.05233
G1 X109.518 Y32.898 E32.10492
G1 X108.453 Y32.833 E32.15815
G1 X107.388 Y32.897 E32.21138
G1 X106.351 Y33.087 E32.26397
G1 X105.332 Y33.405 E32.31723
G1 X104.369 Y33.839 E32.36993
G1 X103.45 Y34.394 E32.42349
G1 X102.622 Y35.044 E32.47601
G1 X101.864 Y35.801 E32.52945
G1 X101.215 Y36.629 E32.58194
G1 X100.66 Y37.548 E32.6355
G1 X100.224 Y38.516 E32.68847
G1 X99.908 Y39.531 E32.7415
G1 X99.718 Y40.568 E32.7941
G1 X99.653 Y41.641 E32.84773
G1 X99.653 Y66.518 E34.08885
G1 X99.718 Y67.587 E34.14228
G1 X99.908 Y68.624 E34.19488
G1 X100.224 Y69.638 E34.24787
G1 X100.66 Y70.607 E34.30088
G1 X101.215 Y71.526 E34.35444
G1 X101.864 Y72.353 E34.40689
G1 X102.622 Y73.111 E34.46037
G1 X103.45 Y73.76 E34.51285
G1 X104.369 Y74.315 E34.56642
G1 X105.332 Y74.749 E34.61911
G1 X106.35 Y75.068 E34.67234
G1 X107.388 Y75.257 E34.72497
G1 X108.453 Y75.321 E34.7782
G0 X108.652 Y75.31
G0 X108.612 Y74.611
G0 X111.16 Y67.5
G0 X111.293 Y66.8
G0 X108.54 Y48.528
G0 X108.49 Y47.831
G1 X107.559 Y47.766 E34.82476
G1 X106.674 Y47.57 E34.86999
G1 X105.858 Y47.263 E34.91348
G1 X104.997 Y46.78 E34.96274
G1 X104.347 Y46.278 E35.00371
G1 X103.708 Y45.623 E35.04936
G1 X103.179 Y44.889 E35.0945
G1 X102.729 Y44.019 E35.14337
G1 X102.465 Y43.239 E35.18445
G1 X102.289 Y42.299 E35.23216
