;FLAVOR:Marlin
;TIME:6759
;Filament used: 10.4182m
;Layer height: 0.3
;MINX:40.507
;MINY:46.8
;MINZ:0.3
;MAXX:172.589
;MAXY:153.2
;MAXZ:15.9
;Generated with Cura_SteamEngine 5.3.1
M140 S60
M105
M190 S60
M104 S185
M105
M109 S185
M82 ;absolute extrusion mode
G21 ;metric values
G90 ;absolute positioning
M82 ;set extruder to absolute mode
M107 ;start with the fan off
G28
G29
G92 E0 ;zero the extruded length again
G1 F60
M117 "please"
G92 E0
G92 E0
G1 F4800 E-6.5
;LAYER_COUNT:53
;LAYER:0
M107
G1 F600 Z1.3
G0 F1800 X41.496 Y47.704 Z1.3
;TYPE:SKIRT
G1 F600 Z0.3
G1 F4800 E0
G1 F1800 X41.887 Y47.383 E0.02524
G1 X42.324 Y47.128 E0.05048
G1 X42.795 Y46.944 E0.07571
G1 X43.289 Y46.838 E0.10092
G1 X43.747 Y46.8 E0.12384
G1 X77.283 Y46.802 E1.79696
G1 X81.828 Y46.858 E2.02373
G1 X82.977 Y46.888 E2.08107
G1 X86.83 Y47.034 E2.27344
G1 X88.15 Y47.101 E2.33938
G1 X91.954 Y47.341 E2.52954
G1 X93.269 Y47.442 E2.59534
G1 X97.172 Y47.789 E2.79083
G1 X98.463 Y47.92 E2.85557
G1 X102.138 Y48.339 E3.0401
G1 X103.388 Y48.498 E3.10296
G1 X107.299 Y49.045 E3.29998
G1 X108.544 Y49.235 E3.36282
G1 X112.274 Y49.852 E3.55144
G1 X113.534 Y50.076 E3.61528
G1 X117.371 Y50.811 E3.81019
G1 X118.622 Y51.068 E3.87391
G1 X122.33 Y51.876 E4.06324
G1 X123.564 Y52.16 E4.12642
G1 X127.283 Y53.067 E4.3174
G1 X128.543 Y53.393 E4.38233
G1 X132.273 Y54.405 E4.57515
G1 X133.619 Y54.789 E4.64498
G1 X137.129 Y55.836 E4.82772
G1 X138.418 Y56.239 E4.89509
G1 X141.987 Y57.402 E5.08237
G1 X143.31 Y57.852 E5.15209
G1 X146.693 Y59.049 E5.33112
G1 X147.928 Y59.504 E5.39678
G1 X151.68 Y60.938 E5.59718
G1 X152.823 Y61.391 E5.65852
G1 X156.427 Y62.877 E5.853
G1 X157.679 Y63.413 E5.92095
G1 X161.067 Y64.91 E6.10574
G1 X162.359 Y65.501 E6.17662
G1 X165.761 Y67.108 E6.36433
G1 X166.929 Y67.678 E6.42917
G1 X170.247 Y69.349 E6.61452
G1 X170.86 Y69.669 E6.64902
G1 X171.288 Y69.938 E6.67424
G1 X171.669 Y70.271 E6.69948
G1 X171.992 Y70.659 E6.72467
G1 X172.251 Y71.094 E6.74993
G1 X172.437 Y71.564 E6.77514
G1 X172.575 Y72.183 E6.80678
G1 X172.589 Y73.155 E6.85528
G1 X172.589 Y75.685 E6.98151
G1 X172.57 Y77.736 E7.08383
G1 X172.57 Y122.226 E9.30345
G1 X172.589 Y124.297 E9.40678
G1 X172.589 Y126.808 E9.53205
G1 X172.579 Y127.537 E9.56842
G1 X172.532 Y128.04 E9.59363
G1 X172.406 Y128.53 E9.61887
G1 X172.205 Y128.994 E9.6441
G1 X171.934 Y129.42 E9.66929
G1 X171.598 Y129.799 E9.69456
G1 X171.111 Y130.198 E9.72597
G1 X170.15 Y130.701 E9.78008
G1 X167.188 Y132.195 E9.94559
G1 X166.083 Y132.736 E10.00697
G1 X162.933 Y134.235 E10.18101
G1 X161.818 Y134.75 E10.24229
G1 X158.632 Y136.176 E10.41643
G1 X157.521 Y136.658 E10.47685
G1 X154.26 Y138.027 E10.6533
G1 X153.15 Y138.476 E10.71303
G1 X149.792 Y139.796 E10.89304
G1 X148.668 Y140.222 E10.95301
G1 X145.355 Y141.434 E11.12901
G1 X144.392 Y141.774 E11.17996
G1 X141.013 Y142.924 E11.35804
G1 X139.88 Y143.296 E11.41753
G1 X136.467 Y144.368 E11.59601
G1 X135.328 Y144.711 E11.65536
G1 X131.978 Y145.68 E11.82934
G1 X130.767 Y146.014 E11.89201
G1 X127.494 Y146.879 E12.06091
G1 X126.24 Y147.195 E12.12543
G1 X122.839 Y148.01 E12.29991
G1 X121.688 Y148.271 E12.35879
G1 X118.264 Y149.006 E12.5335
G1 X117.008 Y149.261 E12.59745
G1 X113.279 Y149.969 E12.78681
G1 X112.02 Y150.192 E12.8506
G1 X108.294 Y150.804 E13.03898
G1 X106.986 Y151.002 E13.10498
G1 X103.217 Y151.524 E13.29481
G1 X102.028 Y151.674 E13.3546
G1 X98.236 Y152.104 E13.545
G1 X96.881 Y152.241 E13.61294
G1 X93.068 Y152.575 E13.8039
G1 X91.858 Y152.666 E13.86444
G1 X87.985 Y152.908 E14.05804
G1 X86.759 Y152.969 E14.11928
G1 X82.908 Y153.113 E14.31154
G1 X81.594 Y153.146 E14.37712
G1 X77.148 Y153.199 E14.59895
G1 X44.45 Y153.2 E16.23026
G1 X43.751 Y153.19 E16.26513
G1 X43.248 Y153.143 E16.29034
G1 X42.758 Y153.017 E16.31558
G1 X42.294 Y152.815 E16.34083
G1 X41.868 Y152.543 E16.36604
G1 X41.49 Y152.208 E16.39124
G1 X41.17 Y151.817 E16.41645
G1 X40.915 Y151.38 E16.44169
G1 X40.732 Y150.909 E16.4669
G1 X40.625 Y150.415 E16.49212
G1 X40.589 Y149.973 E16.51424
G1 X40.587 Y146.662 E16.67943
G1 X40.597 Y145.958 E16.71456
G1 X40.644 Y145.454 E16.73981
G1 X40.805 Y144.83 E16.77196
G1 X41.419 Y143.612 E16.84001
G1 X42.606 Y141.169 E16.97552
G1 X43.736 Y138.666 E17.11253
G1 X44.805 Y136.108 E17.25085
G1 X45.787 Y133.557 E17.38722
G1 X46.691 Y130.995 E17.52276
G1 X47.528 Y128.386 E17.65946
G1 X48.294 Y125.75 E17.79641
G1 X48.984 Y123.096 E17.93322
G1 X49.591 Y120.461 E18.06812
G1 X50.138 Y117.726 E18.20728
G1 X50.598 Y115.047 E18.34289
G1 X50.979 Y112.367 E18.47794
G1 X51.29 Y109.625 E18.61561
G1 X51.522 Y106.887 E18.7527
G1 X51.676 Y104.168 E18.88857
G1 X51.753 Y101.419 E19.02577
G1 X51.753 Y98.7 E19.16142
G1 X51.674 Y95.944 E19.29898
G1 X51.518 Y93.196 E19.4363
G1 X51.288 Y90.491 E19.57174
G1 X50.98 Y87.785 E19.70761
G1 X50.592 Y85.063 E19.84479
G1 X50.131 Y82.374 E19.9809
G1 X49.591 Y79.68 E20.11798
G1 X48.978 Y77.021 E20.25411
G1 X48.285 Y74.359 E20.39135
G1 X47.517 Y71.719 E20.52852
G1 X46.683 Y69.126 E20.66441
G1 X45.778 Y66.562 E20.80006
G1 X44.797 Y64.014 E20.93628
G1 X43.719 Y61.44 E21.0755
G1 X42.608 Y58.98 E21.21017
G1 X41.414 Y56.523 E21.34646
G1 X40.868 Y55.456 E21.40625
G1 X40.674 Y54.989 E21.43148
G1 X40.556 Y54.497 E21.45673
G1 X40.508 Y53.991 E21.48208
G1 X40.507 Y50.632 E21.64967
G1 X40.516 Y49.966 E21.68289
G1 X40.563 Y49.462 E21.70815
G1 X40.688 Y48.973 E21.73333
G1 X40.889 Y48.509 E21.75856
G1 X41.161 Y48.082 E21.78382
G1 X41.496 Y47.704 E21.80901
G1 F4800 E15.30901
G1 F600 Z1.3
;MESH:mouth_10.stl
G0 F1800 X118.307 Y84.901 Z1.3
;TYPE:WALL-INNER
G1 F600 Z0.3
G1 F4800 E21.80901
G1 F1800 X117.879 Y84.8 E21.83095
G1 X117.577 Y84.588 E21.84936
G1 X116.462 Y83.015 E21.94556
G1 X115.288 Y81.576 E22.03821
G1 X114.013 Y80.205 E22.13161
G1 X112.655 Y78.925 E22.22472
G1 X111.215 Y77.738 E22.31782
G1 X109.702 Y76.647 E22.41088
G1 X108.124 Y75.661 E22.50371
G1 X106.476 Y74.775 E22.59706
G1 X104.777 Y74.002 E22.69019
G1 X103.032 Y73.344 E22.78323
G1 X101.253 Y72.802 E22.87601
G1 X99.431 Y72.376 E22.96936
G1 X97.595 Y72.072 E23.06221
G1 X95.733 Y71.888 E23.15556
G1 X93.872 Y71.827 E23.24845
G1 X92.009 Y71.889 E23.34145
G1 X90.146 Y72.074 E23.43485
G1 X88.311 Y72.378 E23.52765
G1 X86.49 Y72.807 E23.62099
G1 X84.705 Y73.35 E23.71407
G1 X82.967 Y74.009 E23.8068
G1 X81.263 Y74.785 E23.90021
G1 X79.619 Y75.67 E23.99336
G1 X78.041 Y76.658 E24.08625
G1 X76.488 Y77.778 E24.18177
G1 X75.088 Y78.94 E24.27254
G1 X73.73 Y80.221 E24.36568
G1 X72.46 Y81.588 E24.45877
G1 X71.287 Y83.031 E24.55155
G1 X70.198 Y84.565 E24.6454
G1 X69.838 Y84.831 E24.66774
G1 X69.454 Y84.915 E24.68735
G1 X69.067 Y84.849 E24.70693
G1 X68.832 Y84.739 E24.71988
G1 X68.605 Y84.541 E24.73491
G1 X68.434 Y84.249 E24.75179
G1 X68.37 Y84.017 E24.7638
G1 X68.37 Y53.985 E26.2621
G1 X68.4 Y53.737 E26.27456
G1 X68.478 Y53.53 E26.2856
G1 X68.675 Y53.265 E26.30207
G1 X68.992 Y53.058 E26.32096
G1 X69.255 Y52.982 E26.33462
G1 X75.449 Y53.132 E26.64373
G1 X81.552 Y53.387 E26.94847
G1 X87.691 Y53.754 E27.2553
G1 X93.768 Y54.236 E27.55943
G1 X97.11 Y54.553 E27.72691
G1 X99.775 Y54.837 E27.86062
G1 X102.863 Y55.201 E28.01575
G1 X106.146 Y55.631 E28.18094
G1 X109.245 Y56.083 E28.33718
G1 X112.351 Y56.58 E28.49411
G1 X115.412 Y57.119 E28.64918
G1 X118.592 Y57.732 E28.81075
G1 X118.934 Y57.878 E28.8293
G1 X119.199 Y58.135 E28.84772
G1 X119.339 Y58.427 E28.86387
G1 X119.379 Y58.71 E28.87813
G1 X119.379 Y83.88 E30.13387
G1 X119.339 Y84.167 E30.14833
G1 X119.223 Y84.42 E30.16221
G1 X119.057 Y84.617 E30.17507
G1 X118.682 Y84.834 E30.19668
G1 X118.307 Y84.901 E30.21569
G0 X118.322 Y84.95
G0 X107.239 Y84.216
G0 X105.927 Y83.206
G0 X104.537 Y82.302
G0 X103.081 Y81.513
G0 X101.566 Y80.84
G0 X100.002 Y80.29
G0 X98.401 Y79.866
G0 X96.77 Y79.572
G0 X95.122 Y79.408
G0 X93.466 Y79.375
G0 X91.811 Y79.473
G0 X90.169 Y79.703
G0 X88.552 Y80.063
G0 X69.696 Y84.979
G0 X69.354 Y84.51
G1 X69.047 Y84.402 E30.23192
G1 X68.911 Y84.283 E30.24094
G1 X68.77 Y83.97 E30.25807
G1 X68.77 Y53.985 E31.75402
G1 X68.835 Y53.712 E31.76802
G1 X68.953 Y53.553 E31.7779
G1 X69.143 Y53.429 E31.78922
G1 X69.299 Y53.383 E31.79734
G1 X75.432 Y53.532 E32.1034
G1 X81.528 Y53.786 E32.4078
G1 X87.659 Y54.152 E32.71422
G1 X93.73 Y54.634 E33.01805
G1 X97.067 Y54.951 E33.18529
G1 X99.729 Y55.234 E33.31884
G1 X102.811 Y55.598 E33.47367
G1 X106.088 Y56.027 E33.63856
G1 X109.181 Y56.478 E33.7945
G1 X112.281 Y56.974 E33.95113
G1 X115.336 Y57.512 E34.10589
G1 X118.507 Y58.123 E34.267
G1 X118.712 Y58.21 E34.27811
G1 X118.871 Y58.365 E34.28919
G1 X118.979 Y58.645 E34.30416
G1 X118.979 Y84 E35.56913
G1 X118.885 Y84.204 E35.58033
G1 X118.674 Y84.404 E35.59484
G1 X118.399 Y84.495 E35.60929
G1 X118.166 Y84.482 E35.62093
G1 X117.871 Y84.311 E35.63794
G1 X116.781 Y82.773 E35.73199
G1 X115.59 Y81.313 E35.82599
G1 X114.297 Y79.923 E35.9207
G1 X112.919 Y78.625 E36.01515
G1 X111.46 Y77.421 E36.10952
G1 X109.926 Y76.315 E36.20387
G1 X108.325 Y75.315 E36.29805
G1 X106.654 Y74.416 E36.39271
G1 X104.931 Y73.633 E36.48713
G1 X103.161 Y72.965 E36.58152
G1 X101.357 Y72.415 E36.67561
G1 X99.509 Y71.983 E36.77029
G1 X97.648 Y71.675 E36.8644
G1 X95.759 Y71.489 E36.9591
G1 X93.872 Y71.427 E37.05329
G1 X91.982 Y71.489 E37.14764
G1 X90.093 Y71.678 E37.24235
G1 X88.232 Y71.986 E37.33646
G1 X86.386 Y72.42 E37.43107
G1 X84.575 Y72.972 E37.52552
G1 X82.813 Y73.64 E37.61953
G1 X81.085 Y74.426 E37.71424
G1 X79.418 Y75.324 E37.80871
G1 X77.817 Y76.326 E37.90294
G1 X76.243 Y77.461 E37.99975
G1 X74.822 Y78.64 E38.09187
G1 X73.446 Y79.939 E38.18628
G1 X72.158 Y81.325 E38.28067
G1 X70.968 Y82.789 E38.3748
G1 X69.885 Y84.317 E38.46824
G1 X69.676 Y84.465 E38.48101
G1 X69.354 Y84.51 E38.49723
G0 X69.229 Y84.901
G0 X73.841 Y105.936
G0 X74.36 Y107.512
G0 X75.002 Y109.038
G0 X75.763 Y110.51
G0 X76.638 Y111.918
G0 X77.623 Y113.251
G0 X78.71 Y114.501
G0 X79.894 Y115.661
G0 X81.166 Y116.722
G0 X82.518 Y117.681
G0 X83.941 Y118.529
G0 X85.428 Y119.26
G0 X86.968 Y119.871
G0 X88.552 Y120.358
G0 X90.169 Y120.718
G0 X93.446 Y121.105
G0 X93.463 Y120.807
G1 X91.833 Y120.71 E38.5787
G1 X90.221 Y120.483 E38.65992
G1 X88.626 Y120.131 E38.7414
G1 X87.037 Y119.641 E38.82436
G1 X85.522 Y119.039 E38.9057
G1 X84.055 Y118.318 E38.98725
G1 X82.653 Y117.485 E39.06861
G1 X81.297 Y116.521 E39.15161
G1 X80.07 Y115.496 E39.23138
G1 X78.883 Y114.336 E39.31418
G1 X77.81 Y113.101 E39.3958
G1 X76.845 Y111.796 E39.47677
G1 X75.981 Y110.408 E39.55834
G1 X75.207 Y108.913 E39.64233
G1 X74.592 Y107.447 E39.72164
G1 X74.064 Y105.844 E39.80585
G1 X73.69 Y104.307 E39.88476
G1 X73.422 Y102.635 E39.96925
G1 X73.296 Y101.051 E40.04852
G1 X73.296 Y99.37 E40.13239
G1 X73.422 Y97.786 E40.21166
G1 X73.69 Y96.114 E40.29614
G1 X74.064 Y94.577 E40.37506
G1 X74.592 Y92.974 E40.45926
G1 X75.207 Y91.508 E40.53858
G1 X75.981 Y90.013 E40.62257
G1 X76.852 Y88.616 E40.7047
G1 X77.81 Y87.32 E40.7851
G1 X78.884 Y86.084 E40.8668
G1 X80.043 Y84.949 E40.94773
G1 X81.306 Y83.892 E41.02989
G1 X82.624 Y82.955 E41.11057
G1 X84.055 Y82.103 E41.19366
G1 X85.522 Y81.382 E41.27521
G1 X87.037 Y80.78 E41.35654
G1 X88.595 Y80.298 E41.43791
G1 X90.236 Y79.935 E41.52176
G1 X91.833 Y79.711 E41.60221
G1 X93.463 Y79.614 E41.68368
G1 X95.129 Y79.648 E41.76681
G1 X96.714 Y79.806 E41.84628
G1 X98.377 Y80.107 E41.93059
G1 X99.929 Y80.518 E42.01069
G1 X101.473 Y81.06 E42.09233
G1 X102.985 Y81.732 E42.17488
G1 X104.439 Y82.521 E42.25741
G1 X105.79 Y83.4 E42.33782
G1 X107.082 Y84.394 E42.41915
G1 X108.29 Y85.488 E42.50046
G1 X109.439 Y86.708 E42.58407
G1 X110.433 Y87.947 E42.66332
G1 X111.367 Y89.321 E42.74621
G1 X112.177 Y90.745 E42.82794
G1 X112.865 Y92.214 E42.90887
G1 X113.452 Y93.786 E42.99258
G1 X113.903 Y95.368 E43.07465
G1 X114.215 Y96.921 E43.15368
G1 X114.416 Y98.593 E43.2377
G1 X114.48 Y100.205 E43.31819
G1 X114.416 Y101.828 E43.39922
G1 X114.219 Y103.478 E43.48212
G1 X113.903 Y105.053 E43.56227
G1 X113.438 Y106.679 E43.64664
G1 X112.865 Y108.207 E43.72806
G1 X112.177 Y109.676 E43.80898
G1 X111.383 Y111.073 E43.88915
G1 X110.454 Y112.446 E43.97186
G1 X109.439 Y113.713 E44.05285
G1 X108.315 Y114.907 E44.13466
G1 X107.083 Y116.025 E44.21766
G1 X105.767 Y117.036 E44.30046
G1 X104.43 Y117.906 E44.38004
G1 X102.998 Y118.682 E44.4613
G1 X101.474 Y119.361 E44.54453
G1 X99.93 Y119.903 E44.62617
G1 X98.36 Y120.318 E44.70719
G1 X96.753 Y120.61 E44.78868
G1 X95.124 Y120.773 E44.87035
G1 X93.463 Y120.807 E44.95324
G0 X93.446 Y121.105
G0 X96.77 Y120.849
G0 X98.401 Y120.555
G0 X118.053 Y115.457
G0 X119.211 Y115.826
G0 X118.885 Y116.217
G1 X118.979 Y116.541 E44.97007
G1 X118.977 Y141.85 E46.23274
G1 X118.884 Y142.119 E46.24694
G1 X118.722 Y142.287 E46.25858
G1 X118.572 Y142.368 E46.26709
G1 X115.373 Y142.957 E46.42937
G1 X112.268 Y143.477 E46.58644
G1 X109.167 Y143.947 E46.74291
G1 X106.074 Y144.366 E46.89863
G1 X103.001 Y144.74 E47.05308
G1 X100.002 Y145.066 E47.20358
G1 X96.792 Y145.375 E47.36447
G1 X93.886 Y145.619 E47.50996
G1 X90.703 Y145.854 E47.66919
G1 X87.639 Y146.048 E47.82236
G1 X81.598 Y146.342 E48.1241
G1 X75.496 Y146.525 E48.42867
G1 X69.371 Y146.601 E48.73427
G1 X69.14 Y146.556 E48.74601
G1 X68.953 Y146.433 E48.75718
G1 X68.836 Y146.276 E48.76695
G1 X68.772 Y146.054 E48.77847
G1 X68.77 Y116.526 E50.25163
G1 X68.808 Y116.313 E50.26243
G1 X68.911 Y116.138 E50.27256
G1 X69.047 Y116.019 E50.28157
G1 X69.354 Y115.911 E50.29781
G1 X69.676 Y115.956 E50.31403
G1 X69.885 Y116.104 E50.32681
G1 X70.968 Y117.632 E50.42025
G1 X72.157 Y119.096 E50.51434
G1 X73.446 Y120.482 E50.60877
G1 X74.822 Y121.781 E50.70318
G1 X76.246 Y122.957 E50.79531
G1 X77.818 Y124.096 E50.89216
G1 X79.418 Y125.097 E50.98632
G1 X81.085 Y125.995 E51.08079
G1 X82.813 Y126.781 E51.1755
G1 X84.575 Y127.449 E51.26951
G1 X86.386 Y128.001 E51.36397
G1 X88.232 Y128.435 E51.45857
G1 X90.093 Y128.743 E51.55268
G1 X91.982 Y128.931 E51.64739
G1 X93.872 Y128.994 E51.74174
G1 X95.759 Y128.932 E51.83593
G1 X97.648 Y128.746 E51.93063
G1 X99.509 Y128.438 E52.02474
G1 X101.357 Y128.006 E52.11942
G1 X103.167 Y127.454 E52.21383
G1 X104.931 Y126.788 E52.3079
G1 X106.658 Y126.003 E52.40254
G1 X108.325 Y125.106 E52.49698
G1 X109.926 Y124.106 E52.59116
G1 X111.46 Y123 E52.68551
G1 X112.923 Y121.792 E52.78016
G1 X114.301 Y120.494 E52.87461
G1 X115.59 Y119.108 E52.96904
G1 X116.781 Y117.648 E53.06304
G1 X117.871 Y116.11 E53.15709
G1 X118.166 Y115.939 E53.1741
G1 X118.399 Y115.926 E53.18574
G1 X118.673 Y116.017 E53.20014
G1 X118.885 Y116.217 E53.21468
G0 X119.279 Y116.217
G0 X122.559 Y141.785
G0 X123.332 Y141.681
G0 X123.251 Y141.33
G1 X123.029 Y141.23 E53.22683
G1 X122.886 Y141.081 E53.23714
G1 X122.783 Y140.822 E53.25104
G1 X122.779 Y59.798 E57.29334
G1 X122.833 Y59.548 E57.30611
G1 X122.984 Y59.345 E57.31873
G1 X123.131 Y59.251 E57.32743
G1 X123.316 Y59.201 E57.33699
G1 X123.521 Y59.214 E57.34724
G1 X126.113 Y59.842 E57.4803
G1 X128.49 Y60.461 E57.60284
G1 X130.914 Y61.132 E57.72832
G1 X133.513 Y61.899 E57.86352
G1 X136.16 Y62.738 E58.00205
G1 X138.709 Y63.601 E58.13631
G1 X141.307 Y64.536 E58.27407
G1 X143.774 Y65.48 E58.40585
G1 X146.304 Y66.506 E58.54205
G1 X148.823 Y67.589 E58.67885
G1 X151.588 Y68.845 E58.83036
G1 X154.191 Y70.098 E58.97449
G1 X156.806 Y71.424 E59.12077
G1 X159.452 Y72.836 E59.2704
G1 X162.06 Y74.299 E59.41958
G1 X164.751 Y75.88 E59.57529
G1 X164.929 Y76.093 E59.58914
G1 X164.988 Y76.289 E59.59935
G1 X164.993 Y124.344 E61.99683
G1 X164.967 Y124.519 E62.00565
G1 X164.779 Y124.813 E62.02306
G1 X162.053 Y126.412 E62.18074
G1 X159.441 Y127.878 E62.33017
G1 X156.796 Y129.283 E62.47959
G1 X154.182 Y130.606 E62.62576
G1 X151.58 Y131.851 E62.76967
G1 X149.005 Y133.016 E62.91067
G1 X146.505 Y134.086 E63.04634
G1 X143.902 Y135.135 E63.18635
G1 X141.401 Y136.083 E63.31979
G1 X138.728 Y137.034 E63.46134
G1 X136.09 Y137.914 E63.60008
G1 X133.666 Y138.667 E63.72671
G1 X131.068 Y139.424 E63.86171
G1 X128.745 Y140.053 E63.98178
G1 X126.067 Y140.733 E64.11963
G1 X123.52 Y141.329 E64.25013
G1 X123.251 Y141.33 E64.26355
G0 X123.332 Y141.681
G0 X131.194 Y139.635
G0 X136.227 Y138.119
G0 X141.488 Y136.306
G0 X146.603 Y134.303
G0 X150.718 Y132.491
G0 X168.47 Y124.087
G0 X168.774 Y124.087
G1 X168.774 Y76.289 E66.6482
G1 X168.789 Y76.276 E66.64919
