;FLAVOR:Marlin
;TIME:4628
;Filament used: 6.58267m
;Layer height: 0.3
;MINX:68.674
;MINY:82.9
;MINZ:0.3
;MAXX:142.58
;MAXY:117.1
;MAXZ:47.1
;Generated with Cura_SteamEngine 5.2.2
M140 S60
M105
M190 S60
M104 S185
M105
M109 S185
M82 ;absolute extrusion mode
G21 ;metric values
G90 ;absolute positioning
M82 ;set extruder to absolute mode
M107 ;start with the fan off
G28
G29
G92 E0 ;zero the extruded length again
G1 F60
M117 "please"
G92 E0
G92 E0
G1 F4800 E-6.5
;LAYER_COUNT:157
;LAYER:0
M107
G1 F600 Z1.3
G0 F1800 X70.072 Y83.669 Z1.3
;TYPE:SKIRT
G1 F600 Z0.3
G1 F4800 E0
G1 F1800 X70.519 Y83.372 E0.02677
G1 X71.004 Y83.144 E0.05351
G1 X71.518 Y82.991 E0.08027
G1 X72.257 Y82.901 E0.11741
G1 X98.594 Y82.9 E1.43137
G1 X99.295 Y82.91 E1.46634
G1 X99.914 Y82.973 E1.49739
G1 X101.55 Y83.283 E1.58046
G1 X104.234 Y83.742 E1.71631
G1 X106.927 Y84.124 E1.85201
G1 X109.645 Y84.431 E1.98847
G1 X112.369 Y84.662 E2.12486
G1 X115.069 Y84.814 E2.25978
G1 X119.161 Y84.9 E2.46397
G1 X129.59 Y84.9 E2.98428
G1 X130.162 Y84.91 E3.01282
G1 X131.039 Y84.953 E3.05662
G1 X132.147 Y85.113 E3.11248
G1 X132.81 Y85.229 E3.14606
G1 X133.503 Y85.418 E3.18189
G1 X134.16 Y85.615 E3.21611
G1 X134.838 Y85.883 E3.25248
G1 X135.468 Y86.152 E3.28666
G1 X136.262 Y86.58 E3.33166
G1 X136.923 Y86.979 E3.37018
G1 X137.697 Y87.547 E3.41808
G1 X138.206 Y87.966 E3.45097
G1 X138.869 Y88.565 E3.49555
G1 X139.486 Y89.237 E3.54106
G1 X140.027 Y89.875 E3.58279
G1 X140.614 Y90.711 E3.63376
G1 X141.25 Y91.819 E3.6975
G1 X141.634 Y92.719 E3.74631
G1 X141.952 Y93.526 E3.78959
G1 X142.209 Y94.457 E3.83777
G1 X142.399 Y95.511 E3.8912
G1 X142.502 Y96.194 E3.92566
G1 X142.58 Y97.229 E3.97745
G1 X142.553 Y98.084 E4.02012
G1 X142.495 Y98.925 E4.06218
G1 X142.267 Y100.388 E4.13605
G1 X141.94 Y101.541 E4.19584
G1 X141.638 Y102.288 E4.23604
G1 X141.371 Y102.878 E4.26835
G1 X140.798 Y103.991 E4.33081
G1 X140.133 Y104.956 E4.38927
G1 X139.804 Y105.392 E4.41652
G1 X139.478 Y105.778 E4.44173
G1 X138.921 Y106.394 E4.48316
G1 X138.402 Y106.877 E4.51854
G1 X137.965 Y107.262 E4.54759
G1 X137.372 Y107.711 E4.5847
G1 X136.821 Y108.081 E4.61781
G1 X136.299 Y108.394 E4.64818
G1 X135.287 Y108.938 E4.7055
G1 X134.273 Y109.341 E4.75994
G1 X133.432 Y109.596 E4.80378
G1 X132.425 Y109.869 E4.85583
G1 X131.636 Y109.982 E4.8956
G1 X130.648 Y110.056 E4.94503
G1 X129.774 Y110.092 E4.98867
G1 X129.186 Y110.1 E5.01801
G1 X124.819 Y110.1 E5.23588
G1 X122.038 Y110.139 E5.37464
G1 X119.31 Y110.255 E5.51086
G1 X116.58 Y110.449 E5.6474
G1 X113.905 Y110.714 E5.78151
G1 X111.165 Y111.064 E5.91932
G1 X108.488 Y111.485 E6.05452
G1 X105.819 Y111.981 E6.18996
G1 X103.162 Y112.551 E6.32553
G1 X100.493 Y113.207 E6.46265
G1 X97.857 Y113.932 E6.59905
G1 X95.264 Y114.726 E6.73434
G1 X92.672 Y115.601 E6.87083
G1 X90.029 Y116.577 E7.01139
G1 X89.322 Y116.849 E7.04918
G1 X88.808 Y117.004 E7.07597
G1 X88.039 Y117.1 E7.11463
G1 X82.825 Y117.1 E7.37476
G1 X82.124 Y117.09 E7.40973
G1 X81.589 Y117.042 E7.43653
G1 X81.068 Y116.916 E7.46327
G1 X80.572 Y116.713 E7.49001
G1 X80.111 Y116.439 E7.51677
G1 X79.695 Y116.1 E7.54354
G1 X79.255 Y115.614 E7.57625
G1 X77.475 Y112.721 E7.74571
G1 X75.994 Y110.459 E7.8806
G1 X75.735 Y109.99 E7.90733
G1 X75.519 Y109.382 E7.93952
G1 X75.129 Y107.863 E8.01776
G1 X74.412 Y105.265 E8.15222
G1 X73.61 Y102.648 E8.28878
G1 X72.735 Y100.057 E8.42521
G1 X71.786 Y97.489 E8.5618
G1 X70.771 Y94.965 E8.69752
G1 X69.689 Y92.482 E8.83265
G1 X69.009 Y90.993 E8.91432
G1 X68.823 Y90.49 E8.94107
G1 X68.714 Y89.965 E8.96782
G1 X68.674 Y89.448 E8.9937
G1 X68.674 Y87.146 E9.10854
G1 X68.684 Y86.457 E9.14292
G1 X68.732 Y85.923 E9.16967
G1 X68.859 Y85.401 E9.19647
G1 X69.061 Y84.905 E9.22319
G1 X69.335 Y84.444 E9.24995
G1 X69.675 Y84.029 E9.27671
G1 X70.072 Y83.669 E9.30345
G0 X70.458 Y83.881
G1 X70.894 Y83.626 E9.32865
G1 X71.366 Y83.444 E9.35389
G1 X71.86 Y83.337 E9.3791
G1 X72.514 Y83.301 E9.41178
G1 X98.589 Y83.3 E10.71267
G1 X99.29 Y83.31 E10.74764
G1 X99.839 Y83.366 E10.77518
G1 X101.455 Y83.672 E10.85723
G1 X104.182 Y84.139 E10.99526
G1 X106.863 Y84.518 E11.13035
G1 X109.603 Y84.829 E11.26793
G1 X112.346 Y85.061 E11.40526
G1 X115.067 Y85.214 E11.54123
G1 X119.153 Y85.3 E11.74512
G1 X129.901 Y85.3 E12.28134
G1 X131.004 Y85.352 E12.33643
G1 X132.199 Y85.526 E12.39668
G1 X132.858 Y85.657 E12.4302
G1 X133.398 Y85.804 E12.45812
G1 X134.034 Y85.996 E12.49127
G1 X134.681 Y86.25 E12.52595
G1 X135.286 Y86.509 E12.55878
G1 X135.958 Y86.868 E12.59679
G1 X136.57 Y87.233 E12.63234
G1 X137.029 Y87.552 E12.66023
G1 X137.754 Y88.096 E12.70545
G1 X138.589 Y88.851 E12.76161
G1 X139.39 Y89.724 E12.82072
G1 X139.847 Y90.315 E12.85799
G1 X140.282 Y90.934 E12.89574
G1 X140.901 Y92.021 E12.95814
G1 X141.302 Y92.964 E13.00927
G1 X141.574 Y93.656 E13.04636
G1 X141.817 Y94.539 E13.09205
G1 X142.022 Y95.681 E13.14994
G1 X142.112 Y96.347 E13.18347
G1 X142.18 Y97.242 E13.22825
G1 X142.159 Y97.956 E13.26388
G1 X142.124 Y98.547 E13.29342
G1 X142.049 Y99.201 E13.32626
G1 X141.904 Y100.119 E13.37263
G1 X141.796 Y100.611 E13.39776
G1 X141.513 Y101.53 E13.44574
G1 X141.224 Y102.24 E13.48398
G1 X141.016 Y102.695 E13.50894
G1 X140.611 Y103.481 E13.55305
G1 X140.302 Y104.006 E13.58344
G1 X139.697 Y104.885 E13.63668
G1 X139.264 Y105.414 E13.67079
G1 X138.635 Y106.113 E13.7177
G1 X138.059 Y106.648 E13.75692
G1 X137.385 Y107.221 E13.80106
G1 X136.598 Y107.749 E13.84834
G1 X136.11 Y108.041 E13.87671
G1 X135.357 Y108.446 E13.91937
G1 X134.648 Y108.763 E13.95811
G1 X134.015 Y109.002 E13.99187
G1 X133.422 Y109.183 E14.0228
G1 X132.34 Y109.478 E14.07875
G1 X131.606 Y109.583 E14.11575
G1 X130.618 Y109.657 E14.16518
G1 X129.769 Y109.692 E14.20757
G1 X129.181 Y109.7 E14.23691
G1 X124.813 Y109.7 E14.45483
G1 X122.016 Y109.74 E14.59438
G1 X119.299 Y109.855 E14.73006
G1 X116.552 Y110.05 E14.86745
G1 X113.848 Y110.318 E15.00301
G1 X111.124 Y110.666 E15.14002
G1 X108.424 Y111.091 E15.27638
G1 X105.734 Y111.591 E15.41288
G1 X103.087 Y112.158 E15.54794
G1 X100.363 Y112.828 E15.68789
G1 X97.772 Y113.541 E15.82196
G1 X95.125 Y114.351 E15.96007
G1 X92.542 Y115.222 E16.09606
G1 X89.902 Y116.197 E16.23647
G1 X89.178 Y116.476 E16.27518
G1 X88.693 Y116.62 E16.30042
G1 X88.041 Y116.699 E16.33318
G1 X82.83 Y116.7 E16.59316
G1 X82.129 Y116.69 E16.62814
G1 X81.626 Y116.643 E16.65334
G1 X81.136 Y116.517 E16.67858
G1 X80.673 Y116.315 E16.70379
G1 X80.246 Y116.043 E16.72904
G1 X79.868 Y115.708 E16.75424
G1 X79.449 Y115.166 E16.78842
G1 X77.818 Y112.514 E16.94375
G1 X76.329 Y110.24 E17.07936
G1 X76.086 Y109.797 E17.10456
G1 X75.907 Y109.283 E17.13172
G1 X75.531 Y107.819 E17.20713
G1 X74.794 Y105.147 E17.34541
G1 X73.985 Y102.509 E17.48307
G1 X73.113 Y99.927 E17.61904
G1 X72.16 Y97.349 E17.75616
G1 X71.144 Y94.823 E17.892
G1 X70.03 Y92.265 E18.03119
G1 X69.373 Y90.827 E18.11007
G1 X69.2 Y90.352 E18.13529
G1 X69.104 Y89.856 E18.16049
G1 X69.075 Y89.248 E18.19086
G1 X69.074 Y87.152 E18.29543
G1 X69.084 Y86.463 E18.32981
G1 X69.132 Y85.959 E18.35507
G1 X69.258 Y85.47 E18.38026
G1 X69.459 Y85.006 E18.40549
G1 X69.731 Y84.58 E18.4307
G1 X70.067 Y84.202 E18.45594
G1 X70.458 Y83.881 E18.48117
G1 F4800 E11.98117
G1 F600 Z1.3
G0 F1800 X106.256 Y96.815 Z1.3
G1 F600 Z0.3
G1 F4800 E18.48117
G1 F1800 X106.726 Y97.147 E18.50988
G1 X107.286 Y97.502 E18.54296
G1 X106.727 Y97.85 E18.57581
G1 X106.237 Y98.196 E18.60574
G1 X105.87 Y97.722 E18.63565
G1 X105.664 Y97.504 E18.65061
G1 X106.256 Y96.815 E18.69593
G0 X105.908 Y96.589
G1 X106.137 Y96.241 E18.71671
G1 X106.957 Y96.821 E18.76682
G1 X107.607 Y97.232 E18.80519
G1 X108.147 Y97.499 E18.83525
G1 X107.603 Y97.768 E18.86552
G1 X106.958 Y98.177 E18.90363
G1 X106.137 Y98.758 E18.9538
G1 X105.956 Y98.477 E18.97048
G1 X105.475 Y97.877 E19.00885
G1 X105.101 Y97.499 E19.03538
G1 X105.42 Y97.184 E19.05774
G1 X105.908 Y96.589 E19.09613
G0 X105.693 Y96.202
G1 X106.024 Y95.67 E19.12739
G1 X107.188 Y96.494 E19.19854
G1 X107.821 Y96.893 E19.23587
G1 X108.492 Y97.222 E19.27316
G1 X109.242 Y97.495 E19.31298
G1 X108.376 Y97.827 E19.35925
G1 X107.71 Y98.168 E19.39658
G1 X107.189 Y98.503 E19.42748
G1 X106.031 Y99.322 E19.49824
G1 X105.558 Y98.611 E19.54085
G1 X105.079 Y98.037 E19.57814
G1 X104.515 Y97.495 E19.61717
G1 X104.713 Y97.329 E19.63006
G1 X105.234 Y96.792 E19.66739
G1 X105.693 Y96.202 E19.70468
G0 X105.471 Y95.816
G1 X105.83 Y95.195 E19.74047
G1 X106.277 Y95.36 E19.76424
G1 X107.419 Y96.168 E19.83403
G1 X108.034 Y96.554 E19.87026
G1 X108.688 Y96.87 E19.9065
G1 X109.372 Y97.113 E19.94271
G1 X110.08 Y97.279 E19.97899
G1 X110.801 Y97.366 E20.01522
G1 X111.679 Y97.377 E20.05903
G1 X112.404 Y97.331 E20.09527
G1 X113.119 Y97.207 E20.13148
G1 X113.817 Y97.004 E20.16774
G1 X114.488 Y96.726 E20.20398
G1 X115.245 Y96.309 E20.2471
G1 X116.475 Y95.409 E20.32313
G1 X116.896 Y95.208 E20.34641
G1 X117.127 Y95.156 E20.35822
G1 X118.012 Y95.1 E20.40246
G1 X123.317 Y95.1 E20.66713
G1 X123.163 Y95.84 E20.70484
G1 X123.056 Y96.559 E20.74111
G1 X123.027 Y97.148 E20.77053
G1 X123.024 Y97.875 E20.8068
G1 X123.068 Y98.731 E20.84956
G1 X123.275 Y99.9 E20.90879
G1 X118.175 Y99.9 E21.16323
G1 X117.042 Y99.833 E21.21985
G1 X116.728 Y99.726 E21.2364
G1 X116.447 Y99.567 E21.25251
G1 X115.521 Y98.891 E21.30971
G1 X114.912 Y98.495 E21.34595
G1 X114.263 Y98.169 E21.38219
G1 X113.582 Y97.917 E21.41841
G1 X112.877 Y97.74 E21.45468
G1 X112.158 Y97.642 E21.49088
G1 X111.281 Y97.618 E21.53465
G1 X110.555 Y97.653 E21.57091
G1 X109.838 Y97.767 E21.60713
G1 X109.137 Y97.959 E21.64339
G1 X108.462 Y98.227 E21.67963
G1 X107.705 Y98.629 E21.72239
G1 X106.278 Y99.637 E21.80955
G1 X105.823 Y99.806 E21.83377
G1 X105.575 Y99.347 E21.8598
G1 X105.161 Y98.75 E21.89604
G1 X104.685 Y98.202 E21.93225
G1 X104.151 Y97.709 E21.96851
G1 X103.883 Y97.512 E21.98511
G1 X104.548 Y96.935 E22.02903
G1 X105.041 Y96.401 E22.06529
G1 X105.471 Y95.816 E22.10151
G0 X105.241 Y95.432
G1 X105.612 Y94.738 E22.14077
G1 X106.093 Y94.855 E22.16547
G1 X106.601 Y95.098 E22.19357
G1 X107.65 Y95.841 E22.2577
G1 X108.247 Y96.215 E22.29285
G1 X108.882 Y96.518 E22.32795
G1 X109.548 Y96.747 E22.36308
G1 X110.235 Y96.899 E22.39819
G1 X111.437 Y96.992 E22.45833
G1 X112.378 Y96.932 E22.50538
G1 X113.071 Y96.807 E22.54051
G1 X113.745 Y96.605 E22.57561
G1 X114.392 Y96.327 E22.61074
G1 X115.291 Y95.78 E22.66325
G1 X116.256 Y95.073 E22.72293
G1 X116.769 Y94.828 E22.75129
G1 X117.089 Y94.758 E22.76763
G1 X118.003 Y94.7 E22.81332
G1 X123.836 Y94.7 E23.10433
G1 X123.701 Y95.214 E23.13085
G1 X123.555 Y95.921 E23.16686
G1 X123.452 Y96.618 E23.20201
G1 X123.427 Y97.149 E23.22854
G1 X123.424 Y97.876 E23.26481
G1 X123.467 Y98.69 E23.30547
G1 X123.611 Y99.503 E23.34667
G1 X123.799 Y100.3 E23.38752
G1 X118.168 Y100.3 E23.66845
G1 X116.962 Y100.226 E23.72873
G1 X116.549 Y100.084 E23.75052
G1 X116.229 Y99.903 E23.76886
G1 X115.285 Y99.214 E23.82717
G1 X114.694 Y98.832 E23.86228
G1 X114.063 Y98.519 E23.89742
G1 X113.401 Y98.28 E23.93253
G1 X112.716 Y98.117 E23.96766
G1 X111.515 Y98.006 E24.02783
G1 X110.575 Y98.053 E24.07479
G1 X109.88 Y98.167 E24.10993
G1 X109.203 Y98.359 E24.14503
G1 X108.552 Y98.627 E24.18016
G1 X107.651 Y99.156 E24.23228
G1 X106.58 Y99.913 E24.29772
G1 X106.066 Y100.153 E24.32602
G1 X105.621 Y100.257 E24.34882
G1 X105.176 Y99.465 E24.39414
G1 X104.765 Y98.894 E24.42924
G1 X104.291 Y98.373 E24.46438
G1 X103.761 Y97.909 E24.49952
G1 X103.173 Y97.507 E24.53506
G1 X103.856 Y97.015 E24.57705
G1 X104.377 Y96.541 E24.61219
G1 X104.841 Y96.011 E24.64734
G1 X105.241 Y95.432 E24.68245
G0 X105.002 Y95.05
G1 X105.373 Y94.29 E24.72464
G1 X105.871 Y94.375 E24.74984
G1 X106.535 Y94.604 E24.78489
G1 X106.812 Y94.759 E24.80072
G1 X107.881 Y95.515 E24.86604
G1 X108.459 Y95.875 E24.90002
G1 X109.075 Y96.164 E24.93396
G1 X109.721 Y96.38 E24.96795
G1 X110.388 Y96.518 E25.00193
G1 X111.447 Y96.592 E25.05489
G1 X112.352 Y96.532 E25.10014
G1 X113.022 Y96.407 E25.13414
G1 X113.672 Y96.205 E25.1681
G1 X114.294 Y95.929 E25.20205
G1 X115.055 Y95.457 E25.24673
G1 X116.038 Y94.738 E25.30749
G1 X116.632 Y94.451 E25.3404
G1 X117.049 Y94.359 E25.36171
G1 X117.977 Y94.3 E25.4081
G1 X124.395 Y94.3 E25.72829
G1 X124.15 Y95.019 E25.76619
G1 X123.947 Y96.002 E25.81627
G1 X123.828 Y96.818 E25.85741
G1 X123.824 Y97.878 E25.91029
G1 X123.866 Y98.648 E25.94876
G1 X124.005 Y99.433 E25.98854
G1 X124.163 Y100.096 E26.02254
G1 X124.382 Y100.7 E26.05459
G1 X118.161 Y100.7 E26.36496
G1 X116.897 Y100.624 E26.42813
G1 X116.378 Y100.447 E26.45549
G1 X116.011 Y100.239 E26.47654
G1 X115.049 Y99.537 E26.53595
G1 X114.477 Y99.168 E26.56991
G1 X113.865 Y98.869 E26.60389
G1 X113.223 Y98.644 E26.63783
G1 X112.558 Y98.496 E26.67182
G1 X111.501 Y98.406 E26.72475
G1 X110.595 Y98.453 E26.77001
G1 X109.924 Y98.567 E26.80396
G1 X109.27 Y98.759 E26.83797
G1 X108.644 Y99.027 E26.87194
G1 X107.882 Y99.483 E26.91625
G1 X106.798 Y100.25 E26.9825
G1 X106.556 Y100.384 E26.9963
G1 X105.9 Y100.618 E27.03104
G1 X105.345 Y100.687 E27.05895
G1 X105.122 Y100.174 E27.08685
G1 X104.778 Y99.586 E27.12084
G1 X104.368 Y99.042 E27.15483
G1 X103.897 Y98.551 E27.18877
G1 X103.372 Y98.117 E27.22275
G1 X102.8 Y97.748 E27.25671
G1 X102.288 Y97.498 E27.28514
G1 X102.576 Y97.372 E27.30082
G1 X103.164 Y97.028 E27.33481
G1 X103.708 Y96.618 E27.3688
G1 X104.199 Y96.147 E27.40274
G1 X104.633 Y95.622 E27.43672
G1 X105.002 Y95.05 E27.47068
G0 X104.752 Y94.671
G1 X105.016 Y94.069 E27.50348
G1 X105.086 Y93.836 E27.51562
G1 X105.969 Y93.986 E27.5603
G1 X106.708 Y94.242 E27.59932
G1 X107.024 Y94.418 E27.61736
G1 X108.112 Y95.188 E27.68386
G1 X108.67 Y95.534 E27.71662
G1 X109.267 Y95.81 E27.74943
G1 X109.892 Y96.011 E27.78219
G1 X110.537 Y96.135 E27.81496
G1 X111.459 Y96.191 E27.86104
G1 X112.325 Y96.132 E27.90434
G1 X112.97 Y96.008 E27.93711
G1 X113.596 Y95.806 E27.96993
G1 X114.192 Y95.53 E28.0027
G1 X114.818 Y95.135 E28.03963
G1 X115.821 Y94.401 E28.10163
G1 X116.497 Y94.074 E28.1391
G1 X117.001 Y93.961 E28.16487
G1 X117.968 Y93.9 E28.21321
G1 X124.987 Y93.9 E28.56339
G1 X124.768 Y94.44 E28.59246
G1 X124.485 Y95.376 E28.64124
G1 X124.339 Y96.083 E28.67726
G1 X124.228 Y96.849 E28.71588
G1 X124.224 Y97.88 E28.76731
G1 X124.307 Y98.845 E28.81563
G1 X124.399 Y99.364 E28.84193
G1 X124.553 Y100.002 E28.87468
G1 X124.745 Y100.531 E28.90275
G1 X124.987 Y101.1 E28.9336
G1 X118.138 Y101.1 E29.2753
G1 X116.898 Y101.026 E29.33727
G1 X116.444 Y100.909 E29.36066
G1 X115.799 Y100.58 E29.39679
G1 X114.813 Y99.86 E29.4577
G1 X114.26 Y99.505 E29.49048
G1 X113.668 Y99.221 E29.52324
G1 X113.046 Y99.01 E29.55601
G1 X112.403 Y98.877 E29.58877
G1 X111.483 Y98.807 E29.6348
G1 X110.616 Y98.853 E29.67811
G1 X109.969 Y98.968 E29.7109
G1 X109.341 Y99.16 E29.74366
G1 X108.74 Y99.427 E29.77647
G1 X108.113 Y99.809 E29.8131
G1 X107.007 Y100.592 E29.88071
G1 X106.724 Y100.749 E29.89685
G1 X105.984 Y101.01 E29.936
G1 X105.614 Y101.071 E29.95471
G1 X105.067 Y101.104 E29.98205
G1 X104.994 Y100.871 E29.99423
G1 X104.722 Y100.273 E30.02701
G1 X104.38 Y99.712 E30.05979
G1 X103.972 Y99.197 E30.09257
G1 X103.505 Y98.735 E30.12534
G1 X102.985 Y98.334 E30.1581
G1 X102.421 Y97.998 E30.19085
G1 X101.819 Y97.734 E30.22365
G1 X101.055 Y97.503 E30.26347
G1 X101.879 Y97.244 E30.30656
G1 X102.477 Y96.972 E30.33934
G1 X103.038 Y96.63 E30.37212
G1 X103.553 Y96.222 E30.40489
G1 X104.015 Y95.755 E30.43767
G1 X104.416 Y95.235 E30.47043
G1 X104.752 Y94.671 E30.50318
G0 X104.49 Y94.294
G1 X104.718 Y93.705 E30.53469
G1 X104.798 Y93.381 E30.55134
G1 X106.059 Y93.596 E30.61516
G1 X106.883 Y93.881 E30.65866
G1 X107.235 Y94.078 E30.67878
G1 X108.343 Y94.862 E30.7465
G1 X108.881 Y95.193 E30.77802
G1 X109.457 Y95.455 E30.80959
G1 X110.061 Y95.641 E30.84112
G1 X110.683 Y95.75 E30.87262
G1 X111.476 Y95.791 E30.91224
G1 X112.297 Y95.732 E30.9533
G1 X112.917 Y95.608 E30.98485
G1 X113.516 Y95.407 E31.01637
G1 X114.086 Y95.132 E31.04794
G1 X114.582 Y94.812 E31.07739
G1 X115.603 Y94.065 E31.14051
G1 X115.96 Y93.863 E31.16097
G1 X116.359 Y93.698 E31.18251
G1 X116.952 Y93.564 E31.21284
G1 X117.959 Y93.5 E31.26318
G1 X125.62 Y93.5 E31.64539
G1 X125.489 Y93.728 E31.65851
G1 X125.139 Y94.59 E31.70493
G1 X124.876 Y95.457 E31.75013
G1 X124.73 Y96.164 E31.78614
G1 X124.628 Y96.889 E31.82267
