;FLAVOR:Marlin
;TIME:4373
;Filament used: 6.17902m
;Layer height: 0.3
;MINX:67.4
;MINY:79.4
;MINZ:0.3
;MAXX:142.583
;MAXY:120.6
;MAXZ:44.1
;Generated with Cura_SteamEngine 5.2.2
M140 S60
M105
M190 S60
M104 S185
M105
M109 S185
M82 ;absolute extrusion mode
G21 ;metric values
G90 ;absolute positioning
M82 ;set extruder to absolute mode
M107 ;start with the fan off
G28
G29
G92 E0 ;zero the extruded length again
G1 F60
M117 "please"
G92 E0
G92 E0
G1 F4800 E-6.5
;LAYER_COUNT:147
;LAYER:0
M107
G1 F600 Z1.3
G0 F1800 X72.23 Y89.601 Z1.3
;TYPE:SKIRT
G1 F600 Z0.3
G1 F4800 E0
G1 F1800 X73.642 Y88.497 E0.08942
G1 X75.756 Y86.748 E0.22631
G1 X77.796 Y84.958 E0.36171
G1 X79.78 Y83.118 E0.4967
G1 X81.959 Y80.972 E0.64929
G1 X82.441 Y80.483 E0.68354
G1 X82.845 Y80.13 E0.71031
G1 X83.297 Y79.841 E0.73707
G1 X83.787 Y79.623 E0.76383
G1 X84.304 Y79.48 E0.79059
G1 X84.995 Y79.4 E0.82529
G1 X104.594 Y79.4 E1.80309
G1 X105.3 Y79.41 E1.83832
G1 X105.834 Y79.458 E1.86507
G1 X106.471 Y79.612 E1.89776
G1 X109.251 Y80.869 E2.04998
G1 X111.798 Y81.933 E2.18769
G1 X114.332 Y82.91 E2.32318
G1 X116.88 Y83.81 E2.458
G1 X119.484 Y84.647 E2.59446
G1 X122.085 Y85.403 E2.72959
G1 X124.76 Y86.1 E2.86751
G1 X127.413 Y86.71 E3.00332
G1 X130.081 Y87.245 E3.13908
G1 X131.569 Y87.503 E3.21442
G1 X132.917 Y87.755 E3.28284
G1 X134.113 Y88.116 E3.34516
G1 X134.796 Y88.393 E3.38194
G1 X135.472 Y88.684 E3.41865
G1 X136.044 Y88.984 E3.45088
G1 X136.9 Y89.468 E3.49994
G1 X137.813 Y90.128 E3.55614
G1 X138.746 Y90.935 E3.61769
G1 X139.439 Y91.689 E3.66878
G1 X139.945 Y92.293 E3.70809
G1 X140.316 Y92.809 E3.7398
G1 X140.64 Y93.3 E3.76914
G1 X141.272 Y94.369 E3.8311
G1 X141.808 Y95.591 E3.89767
G1 X142.103 Y96.567 E3.94854
G1 X142.295 Y97.316 E3.98712
G1 X142.405 Y97.906 E4.01706
G1 X142.489 Y98.444 E4.04423
G1 X142.553 Y99.145 E4.07934
G1 X142.583 Y99.802 E4.11216
G1 X142.55 Y100.632 E4.1536
G1 X142.501 Y101.372 E4.1906
G1 X142.38 Y102.164 E4.23057
G1 X142.279 Y102.728 E4.25915
G1 X142.127 Y103.365 E4.29183
G1 X141.932 Y104.038 E4.32678
G1 X141.624 Y104.835 E4.36941
G1 X141.306 Y105.553 E4.40859
G1 X140.82 Y106.467 E4.46023
G1 X140.337 Y107.196 E4.50386
G1 X139.866 Y107.842 E4.54375
G1 X139.435 Y108.338 E4.57653
G1 X138.881 Y108.94 E4.61735
G1 X138.402 Y109.381 E4.64983
G1 X137.961 Y109.763 E4.67894
G1 X137.392 Y110.196 E4.71461
G1 X136.736 Y110.648 E4.75436
G1 X136.138 Y110.994 E4.78882
G1 X135.446 Y111.369 E4.82809
G1 X134.404 Y111.818 E4.8847
G1 X133.404 Y112.119 E4.9368
G1 X132.801 Y112.273 E4.96785
G1 X131.509 Y112.531 E5.03358
G1 X129.494 Y112.888 E5.13567
G1 X126.805 Y113.443 E5.27266
G1 X124.199 Y114.057 E5.40623
G1 X121.517 Y114.772 E5.54471
G1 X118.927 Y115.542 E5.67951
G1 X116.325 Y116.395 E5.81613
G1 X113.75 Y117.321 E5.95265
G1 X111.219 Y118.313 E6.08827
G1 X107.857 Y119.761 E6.2709
G1 X106.729 Y120.27 E6.33264
G1 X106.225 Y120.454 E6.35941
G1 X105.699 Y120.561 E6.38619
G1 X104.92 Y120.6 E6.4251
G1 X85.656 Y120.6 E7.38618
G1 X84.955 Y120.59 E7.42116
G1 X84.42 Y120.542 E7.44796
G1 X83.899 Y120.416 E7.4747
G1 X83.403 Y120.213 E7.50144
G1 X82.942 Y119.939 E7.52819
G1 X82.485 Y119.56 E7.55782
G1 X81.912 Y118.997 E7.59789
G1 X80.943 Y118.016 E7.66668
G1 X78.955 Y116.114 E7.80395
G1 X76.972 Y114.321 E7.93733
G1 X74.853 Y112.512 E8.07633
G1 X72.753 Y110.819 E8.2109
G1 X71.85 Y110.124 E8.26775
G1 X71.203 Y109.603 E8.3092
G1 X70.391 Y108.8 E8.36617
G1 X69.925 Y108.21 E8.40368
G1 X69.564 Y107.727 E8.43376
G1 X69.166 Y107.12 E8.46998
G1 X68.746 Y106.412 E8.51105
G1 X68.393 Y105.669 E8.55209
G1 X68.062 Y104.868 E8.59533
G1 X67.746 Y103.77 E8.65233
G1 X67.601 Y103.031 E8.6899
G1 X67.484 Y102.329 E8.72541
G1 X67.427 Y101.476 E8.76806
G1 X67.4 Y100.138 E8.83482
G1 X67.413 Y98.758 E8.90368
G1 X67.47 Y97.779 E8.9526
G1 X67.54 Y97.226 E8.98041
G1 X67.726 Y96.349 E9.02514
G1 X67.895 Y95.731 E9.0571
G1 X68.142 Y94.966 E9.09721
G1 X68.669 Y93.749 E9.16337
G1 X69.318 Y92.63 E9.22791
G1 X70.315 Y91.322 E9.30996
G1 X71.151 Y90.478 E9.36923
G1 X72.23 Y89.601 E9.4386
G0 X72.477 Y89.916
G1 X73.903 Y88.801 E9.52891
G1 X75.989 Y87.075 E9.66399
G1 X78.069 Y85.25 E9.80204
G1 X80.067 Y83.397 E9.93799
G1 X82.207 Y81.289 E10.08785
G1 X82.726 Y80.763 E10.12472
G1 X83.109 Y80.433 E10.14994
G1 X83.538 Y80.166 E10.17515
G1 X84.005 Y79.971 E10.2004
G1 X84.496 Y79.852 E10.2256
G1 X85.029 Y79.8 E10.25232
G1 X104.588 Y79.8 E11.22812
G1 X105.294 Y79.81 E11.26335
G1 X105.798 Y79.857 E11.2886
G1 X106.37 Y80.004 E11.31807
G1 X109.111 Y81.244 E11.46816
G1 X111.649 Y82.304 E11.60538
G1 X114.192 Y83.284 E11.74135
G1 X116.761 Y84.192 E11.87728
G1 X119.355 Y85.026 E12.01322
G1 X121.987 Y85.791 E12.14997
G1 X124.674 Y86.491 E12.2885
G1 X127.309 Y87.097 E12.42339
G1 X130.019 Y87.64 E12.56128
G1 X131.5 Y87.897 E12.63627
G1 X132.831 Y88.146 E12.70383
G1 X133.98 Y88.494 E12.76372
G1 X134.637 Y88.76 E12.79909
G1 X135.301 Y89.046 E12.83516
G1 X135.847 Y89.332 E12.86591
G1 X136.455 Y89.676 E12.90076
G1 X137.02 Y90.047 E12.93448
G1 X137.559 Y90.437 E12.96767
G1 X138.049 Y90.859 E12.99993
G1 X138.56 Y91.325 E13.03444
G1 X139.212 Y92.036 E13.08257
G1 X139.621 Y92.528 E13.11449
G1 X139.985 Y93.034 E13.14558
G1 X140.296 Y93.504 E13.1737
G1 X140.919 Y94.561 E13.23491
G1 X141.301 Y95.436 E13.28255
G1 X141.51 Y95.987 E13.31195
G1 X141.69 Y96.577 E13.34272
G1 X141.879 Y97.269 E13.37851
G1 X142.01 Y97.967 E13.41394
G1 X142.113 Y98.63 E13.44741
G1 X142.154 Y99.163 E13.47408
G1 X142.183 Y99.802 E13.506
G1 X142.156 Y100.515 E13.54159
G1 X142.104 Y101.319 E13.58179
G1 X141.986 Y102.093 E13.62085
G1 X141.841 Y102.903 E13.6619
G1 X141.555 Y103.905 E13.71389
G1 X141.211 Y104.79 E13.76126
G1 X140.953 Y105.366 E13.79275
G1 X140.626 Y105.98 E13.82746
G1 X140.324 Y106.508 E13.8578
G1 X139.95 Y107.05 E13.89066
G1 X139.549 Y107.597 E13.92449
G1 X139.133 Y108.076 E13.95614
G1 X138.601 Y108.654 E13.99534
G1 X138.056 Y109.153 E14.0322
G1 X137.4 Y109.705 E14.07498
G1 X136.625 Y110.24 E14.12196
G1 X136.033 Y110.595 E14.1564
G1 X135.277 Y111.007 E14.19935
G1 X134.263 Y111.443 E14.25442
G1 X133.289 Y111.736 E14.30516
G1 X132.723 Y111.881 E14.33431
G1 X131.51 Y112.124 E14.39603
G1 X129.415 Y112.496 E14.50219
G1 X126.738 Y113.048 E14.63855
G1 X124.077 Y113.675 E14.77495
G1 X121.438 Y114.379 E14.91121
G1 X118.804 Y115.161 E15.04829
G1 X116.171 Y116.025 E15.18654
G1 X113.605 Y116.948 E15.32259
G1 X111.095 Y117.931 E15.45708
G1 X107.691 Y119.397 E15.64198
G1 X106.564 Y119.906 E15.70368
G1 X106.089 Y120.077 E15.72886
G1 X105.268 Y120.2 E15.77028
G1 X85.661 Y120.2 E16.74848
G1 X84.96 Y120.19 E16.78345
G1 X84.457 Y120.143 E16.80866
G1 X83.967 Y120.017 E16.8339
G1 X83.504 Y119.815 E16.8591
G1 X82.968 Y119.474 E16.8908
G1 X82.197 Y118.716 E16.94474
G1 X81.239 Y117.746 E17.01275
G1 X79.235 Y115.829 E17.15111
G1 X77.217 Y114.004 E17.28685
G1 X75.097 Y112.194 E17.42593
G1 X73.019 Y110.519 E17.55909
G1 X72.037 Y109.762 E17.62094
G1 X71.467 Y109.302 E17.65749
G1 X70.608 Y108.452 E17.71778
G1 X69.81 Y107.388 E17.78413
G1 X69.445 Y106.811 E17.81819
G1 X69.108 Y106.238 E17.85136
G1 X68.638 Y105.251 E17.9059
G1 X68.412 Y104.627 E17.93901
G1 X68.136 Y103.68 E17.98822
G1 X67.891 Y102.415 E18.0525
G1 X67.826 Y101.449 E18.10081
G1 X67.8 Y100.142 E18.16603
G1 X67.81 Y98.883 E18.22884
G1 X67.847 Y97.977 E18.27408
G1 X67.914 Y97.457 E18.30024
G1 X68.079 Y96.571 E18.3452
G1 X68.309 Y95.746 E18.38793
G1 X68.513 Y95.118 E18.42087
G1 X69.02 Y93.94 E18.48485
G1 X69.651 Y92.854 E18.54752
G1 X70.428 Y91.834 E18.61149
G1 X70.806 Y91.395 E18.64039
G1 X71.415 Y90.78 E18.68357
G1 X72.477 Y89.916 E18.75187
G1 F4800 E12.25187
G1 F600 Z1.3
G0 F1800 X115.561 Y100.008 Z1.3
G1 F600 Z0.3
G1 F4800 E18.75187
G1 F1800 X116.172 Y99.621 E18.78796
G1 X117.221 Y98.867 E18.85241
G1 X118.2 Y98.813 E18.90132
G1 X121.87 Y98.813 E19.08442
G1 X121.827 Y99.702 E19.12882
G1 X121.824 Y100.353 E19.1613
G1 X121.863 Y101.213 E19.20425
G1 X118.12 Y101.213 E19.39099
G1 X117.302 Y101.165 E19.43187
G1 X117.137 Y101.095 E19.44081
G1 X116.167 Y100.398 E19.50041
G1 X115.561 Y100.008 E19.53636
G0 X115.295 Y99.71
G1 X115.939 Y99.296 E19.57456
G1 X116.997 Y98.536 E19.63955
G1 X117.199 Y98.468 E19.65018
G1 X118.196 Y98.413 E19.7
G1 X122.351 Y98.413 E19.90729
G1 X122.257 Y99.076 E19.9407
G1 X122.227 Y99.704 E19.97206
G1 X122.224 Y100.355 E20.00454
G1 X122.261 Y101.123 E20.0429
G1 X122.325 Y101.613 E20.06756
G1 X118.114 Y101.613 E20.27764
G1 X117.21 Y101.559 E20.32283
G1 X116.937 Y101.444 E20.3376
G1 X115.933 Y100.723 E20.39927
G1 X115.286 Y100.308 E20.43762
G1 X114.698 Y100.012 E20.47046
G1 X115.295 Y99.71 E20.50384
G0 X115.185 Y99.311
G1 X115.705 Y98.971 E20.53484
G1 X116.803 Y98.181 E20.60232
G1 X117.136 Y98.07 E20.61984
G1 X118.174 Y98.013 E20.6717
G1 X122.812 Y98.013 E20.90309
G1 X122.653 Y99.133 E20.95953
G1 X122.627 Y99.706 E20.98814
G1 X122.624 Y100.357 E21.02062
G1 X122.667 Y101.223 E21.06388
G1 X122.797 Y102.013 E21.10382
G1 X118.107 Y102.013 E21.33781
G1 X117.134 Y101.955 E21.38644
G1 X116.727 Y101.786 E21.40842
G1 X115.7 Y101.048 E21.47152
G1 X115.07 Y100.645 E21.50883
G1 X114.401 Y100.311 E21.54614
G1 X113.567 Y100.002 E21.59051
G1 X113.826 Y99.931 E21.60391
G1 X114.522 Y99.658 E21.64121
G1 X115.185 Y99.311 E21.67854
G0 X115.192 Y98.848
G1 X116.613 Y97.827 E21.76584
G1 X117.07 Y97.674 E21.78988
G1 X118.17 Y97.613 E21.84484
G1 X123.322 Y97.613 E22.10188
G1 X123.15 Y98.469 E22.14544
G1 X123.05 Y99.188 E22.18165
G1 X123.027 Y99.708 E22.20762
G1 X123.024 Y100.359 E22.2401
G1 X123.122 Y101.628 E22.3036
G1 X123.293 Y102.413 E22.34368
G1 X118.083 Y102.413 E22.60361
G1 X117.069 Y102.353 E22.65429
G1 X116.512 Y102.123 E22.68435
G1 X115.467 Y101.373 E22.74852
G1 X114.854 Y100.983 E22.78477
G1 X114.203 Y100.662 E22.82098
G1 X113.52 Y100.414 E22.85724
G1 X112.814 Y100.243 E22.89348
G1 X112.093 Y100.151 E22.92974
G1 X111.219 Y100.134 E22.97335
G1 X110.494 Y100.174 E23.00958
G1 X109.777 Y100.293 E23.04584
G1 X109.078 Y100.491 E23.08208
G1 X108.405 Y100.764 E23.11832
G1 X107.652 Y101.17 E23.161
G1 X106.381 Y102.079 E23.23895
G1 X104.943 Y102.878 E23.32103
G1 X104.328 Y103.266 E23.35731
G1 X103.76 Y103.718 E23.39352
G1 X103.245 Y104.23 E23.42975
G1 X102.789 Y104.795 E23.46597
G1 X102.398 Y105.408 E23.50225
G1 X102.077 Y106.059 E23.53846
G1 X101.934 Y106.443 E23.5589
G1 X100.33 Y108.237 E23.67897
G1 X99.876 Y108.804 E23.7152
G1 X99.488 Y109.418 E23.75144
G1 X99.169 Y110.07 E23.78765
G1 X99.051 Y110.4 E23.80514
G1 X91.697 Y110.4 E24.17203
G1 X92.727 Y109.654 E24.23548
G1 X93.409 Y109.074 E24.28014
G1 X94.161 Y108.322 E24.3332
G1 X94.741 Y107.64 E24.37787
G1 X95.337 Y106.818 E24.42852
G1 X95.805 Y106.056 E24.47314
G1 X96.28 Y105.124 E24.52533
G1 X96.622 Y104.297 E24.56997
G1 X96.942 Y103.311 E24.62169
G1 X97.15 Y102.442 E24.66627
G1 X97.31 Y101.429 E24.71744
G1 X97.381 Y100.536 E24.76213
G1 X97.381 Y99.489 E24.81436
G1 X97.31 Y98.597 E24.85901
G1 X97.15 Y97.586 E24.91007
G1 X96.942 Y96.716 E24.9547
G1 X96.622 Y95.729 E25.00647
G1 X96.28 Y94.902 E25.05111
G1 X95.807 Y93.973 E25.10312
G1 X95.339 Y93.21 E25.14778
G1 X94.731 Y92.374 E25.19935
G1 X94.151 Y91.695 E25.2439
G1 X93.421 Y90.965 E25.29541
G1 X92.74 Y90.383 E25.3401
G1 X91.664 Y89.6 E25.40649
G1 X98.65 Y89.6 E25.75502
G1 X98.65 Y90.633 E25.80656
G1 X98.69 Y91.358 E25.84279
G1 X98.809 Y92.075 E25.87905
G1 X99.007 Y92.774 E25.91529
G1 X99.28 Y93.447 E25.95153
G1 X99.625 Y94.086 E25.98776
G1 X100.297 Y95.018 E26.04508
G1 X100.95 Y95.713 E26.09266
G1 X101.502 Y96.185 E26.12889
G1 X102.103 Y96.593 E26.16513
G1 X102.745 Y96.933 E26.20138
G1 X103.42 Y97.2 E26.23759
G1 X104.361 Y97.439 E26.28603
G1 X105.758 Y97.685 E26.3568
G1 X106.264 Y97.861 E26.38352
G1 X107.396 Y98.666 E26.45282
G1 X108.01 Y99.054 E26.48906
G1 X108.663 Y99.372 E26.5253
G1 X109.347 Y99.616 E26.56153
G1 X110.054 Y99.784 E26.59778
G1 X110.775 Y99.873 E26.63403
G1 X111.619 Y99.888 E26.67614
G1 X112.344 Y99.848 E26.71237
G1 X113.061 Y99.729 E26.74863
G1 X113.76 Y99.531 E26.78487
G1 X114.433 Y99.258 E26.82111
G1 X115.192 Y98.848 E26.86414
G0 X115.238 Y98.322
G1 X116.261 Y97.586 E26.92702
G1 X116.525 Y97.437 E26.94214
G1 X116.998 Y97.278 E26.96704
G1 X118.166 Y97.213 E27.0254
G1 X123.843 Y97.213 E27.30863
G1 X123.744 Y97.522 E27.32481
G1 X123.543 Y98.546 E27.37688
G1 X123.429 Y99.377 E27.41872
G1 X123.424 Y100.36 E27.46777
G1 X123.517 Y101.569 E27.52826
G1 X123.729 Y102.532 E27.57746
G1 X123.82 Y102.813 E27.59219
G1 X118.076 Y102.813 E27.87876
G1 X116.917 Y102.744 E27.93669
G1 X116.293 Y102.458 E27.97093
G1 X115.234 Y101.698 E28.03596
G1 X114.639 Y101.321 E28.07111
G1 X114.006 Y101.013 E28.10623
G1 X113.342 Y100.779 E28.14135
G1 X112.656 Y100.622 E28.17646
G1 X111.457 Y100.52 E28.23649
G1 X110.516 Y100.574 E28.28352
G1 X109.822 Y100.693 E28.31865
G1 X109.147 Y100.891 E28.35374
G1 X108.498 Y101.163 E28.38885
G1 X107.613 Y101.69 E28.44024
G1 X106.593 Y102.419 E28.50279
G1 X105.137 Y103.228 E28.58589
G1 X104.542 Y103.604 E28.621
G1 X103.994 Y104.046 E28.65613
G1 X103.499 Y104.546 E28.69123
G1 X103.064 Y105.1 E28.72637
G1 X102.694 Y105.699 E28.76149
G1 X102.395 Y106.336 E28.7966
G1 X102.28 Y106.656 E28.81357
G1 X100.628 Y108.503 E28.93719
G1 X100.189 Y109.054 E28.97234
G1 X99.816 Y109.651 E29.00746
G1 X99.513 Y110.286 E29.04256
G1 X99.335 Y110.8 E29.0697
G1 X91.2 Y110.8 E29.47556
G1 X91.2 Y110.213 E29.50484
G1 X91.691 Y109.912 E29.53358
G1 X92.468 Y109.349 E29.58145
G1 X93.15 Y108.769 E29.62611
G1 X93.856 Y108.063 E29.67593
G1 X94.436 Y107.381 E29.72059
G1 X94.996 Y106.609 E29.76817
G1 X95.464 Y105.847 E29.81279
G1 X95.91 Y104.971 E29.86183
G1 X96.252 Y104.144 E29.90648
G1 X96.553 Y103.218 E29.95505
G1 X96.761 Y102.349 E29.99963
G1 X96.911 Y101.397 E30.04771
G1 X96.982 Y100.504 E30.09241
G1 X96.982 Y99.521 E30.14145
G1 X96.911 Y98.629 E30.18609
G1 X96.761 Y97.679 E30.23407
G1 X96.553 Y96.809 E30.2787
G1 X96.252 Y95.882 E30.32733
G1 X95.91 Y95.055 E30.37198
G1 X95.466 Y94.182 E30.42084
G1 X94.998 Y93.419 E30.4655
G1 X94.427 Y92.634 E30.51392
G1 X93.847 Y91.955 E30.55848
G1 X93.161 Y91.269 E30.60688
G1 X92.48 Y90.687 E30.65157
G1 X91.694 Y90.115 E30.70007
G1 X91.2 Y89.812 E30.72898
G1 X91.2 Y89.2 E30.75951
G1 X99.05 Y89.2 E31.15115
G1 X99.05 Y90.633 E31.22264
G1 X99.09 Y91.336 E31.25777
G1 X99.209 Y92.03 E31.2929
G1 X99.407 Y92.705 E31.328
G1 X99.679 Y93.354 E31.3631
G1 X100.024 Y93.968 E31.39824
G1 X100.611 Y94.769 E31.44779
G1 X101.242 Y95.439 E31.4937
G1 X101.78 Y95.893 E31.52882
G1 X102.365 Y96.284 E31.56393
G1 X102.991 Y96.606 E31.59905
G1 X103.65 Y96.854 E31.63418
G1 X104.43 Y97.045 E31.67424
G1 X105.846 Y97.295 E31.74598
G1 X106.339 Y97.466 E31.77201
G1 X106.603 Y97.612 E31.78706
G1 X107.627 Y98.34 E31.84975
G1 X108.223 Y98.715 E31.88488
G1 X108.858 Y99.02 E31.92002
G1 X109.523 Y99.251 E31.95514
G1 X110.21 Y99.405 E31.99027
G1 X111.384 Y99.501 E32.04903
G1 X112.322 Y99.448 E32.09591
G1 X113.016 Y99.329 E32.13104
G1 X113.691 Y99.131 E32.16613
G1 X114.34 Y98.859 E32.20124
G1 X115.238 Y98.322 E32.25344
G0 X115.005 Y97.997
G1 X116.045 Y97.249 E32.31735
G1 X116.357 Y97.072 E32.33525
G1 X116.934 Y96.88 E32.36559
G1 X118.144 Y96.813 E32.42604
G1 X124.388 Y96.813 E32.73756
G1 X124.081 Y97.878 E32.79286
G1 X123.935 Y98.623 E32.83073
G1 X123.828 Y99.413 E32.8705
G1 X123.824 Y100.362 E32.91785
G1 X123.912 Y101.507 E32.97514
G1 X124.12 Y102.446 E33.02313
G1 X124.385 Y103.213 E33.06361
G1 X118.069 Y103.213 E33.37872
G1 X116.929 Y103.145 E33.43569
G1 X116.676 Y103.072 E33.44883
G1 X116.079 Y102.798 E33.4816
G1 X115 Y102.023 E33.54788
G1 X114.425 Y101.659 E33.58183
G1 X113.811 Y101.365 E33.6158
G1 X113.166 Y101.145 E33.6498
G1 X112.501 Y101.002 E33.68373
G1 X111.445 Y100.921 E33.73657
G1 X110.539 Y100.974 E33.78185
G1 X109.869 Y101.093 E33.8158
G1 X109.217 Y101.29 E33.84978
G1 X108.593 Y101.562 E33.88374
G1 X107.846 Y102.016 E33.92735
G1 X106.808 Y102.758 E33.99101
G1 X105.332 Y103.578 E34.07524
G1 X104.757 Y103.943 E34.10922
G1 X104.229 Y104.373 E34.1432
G1 X103.755 Y104.861 E34.17714
G1 X103.341 Y105.402 E34.21112
G1 X102.994 Y105.988 E34.2451
G1 X102.631 Y106.863 E34.29236
G1 X100.926 Y108.77 E34.41998
G1 X100.503 Y109.303 E34.45393
G1 X100.145 Y109.883 E34.48794
G1 X99.858 Y110.5 E34.52189
