;FLAVOR:Marlin
;TIME:4643
;Filament used: 6.55514m
;Layer height: 0.3
;MINX:68.802
;MINY:82.9
;MINZ:0.3
;MAXX:142.586
;MAXY:117.1
;MAXZ:47.1
;Generated with Cura_SteamEngine 5.2.2
M140 S60
M105
M190 S60
M104 S185
M105
M109 S185
M82 ;absolute extrusion mode
G21 ;metric values
G90 ;absolute positioning
M82 ;set extruder to absolute mode
M107 ;start with the fan off
G28
G29
G92 E0 ;zero the extruded length again
G1 F60
M117 "please"
G92 E0
G92 E0
G1 F4800 E-6.5
;LAYER_COUNT:157
;LAYER:0
M107
G1 F600 Z1.3
G0 F1800 X79.479 Y83.88 Z1.3
;TYPE:SKIRT
G1 F600 Z0.3
G1 F4800 E0
G1 F1800 X79.897 Y83.544 E0.02676
G1 X80.36 Y83.274 E0.0535
G1 X80.858 Y83.075 E0.08025
G1 X81.38 Y82.953 E0.107
G1 X81.96 Y82.9 E0.13605
G1 X87.56 Y82.9 E0.41544
G1 X88.331 Y82.913 E0.45391
G1 X88.865 Y82.961 E0.48066
G1 X89.477 Y83.111 E0.51209
G1 X90.782 Y83.679 E0.5831
G1 X91.3 Y83.913 E0.61146
G1 X93.822 Y84.967 E0.74783
G1 X96.402 Y85.959 E0.88573
G1 X98.935 Y86.852 E1.01973
G1 X101.54 Y87.69 E1.15625
G1 X104.138 Y88.444 E1.29121
G1 X106.798 Y89.135 E1.42832
G1 X109.435 Y89.742 E1.56333
G1 X112.153 Y90.286 E1.70162
G1 X114.794 Y90.737 E1.83528
G1 X117.502 Y91.122 E1.97175
G1 X120.219 Y91.431 E2.10817
G1 X122.938 Y91.661 E2.24431
G1 X125.637 Y91.813 E2.37917
G1 X128.892 Y91.883 E2.5416
G1 X128.982 Y91.892 E2.54612
G1 X130.242 Y91.909 E2.60898
G1 X131.155 Y91.957 E2.6546
G1 X131.957 Y92.082 E2.69509
G1 X132.75 Y92.228 E2.73532
G1 X133.373 Y92.382 E2.76734
G1 X134.026 Y92.577 E2.80134
G1 X134.742 Y92.842 E2.83943
G1 X135.435 Y93.135 E2.87696
G1 X136.155 Y93.519 E2.91767
G1 X136.837 Y93.918 E2.95709
G1 X137.802 Y94.611 E3.01637
G1 X138.531 Y95.248 E3.06466
G1 X138.957 Y95.656 E3.09409
G1 X139.305 Y96.03 E3.11958
G1 X139.821 Y96.623 E3.1588
G1 X140.254 Y97.213 E3.19531
G1 X140.722 Y97.891 E3.23641
G1 X141.258 Y98.855 E3.29144
G1 X141.89 Y100.333 E3.37163
G1 X142.239 Y101.576 E3.43605
G1 X142.386 Y102.376 E3.47663
G1 X142.483 Y103.013 E3.50877
G1 X142.544 Y103.638 E3.5401
G1 X142.586 Y104.534 E3.58485
G1 X142.535 Y105.548 E3.63551
G1 X142.35 Y106.953 E3.70621
G1 X142.239 Y107.469 E3.73254
G1 X142.106 Y107.957 E3.75777
G1 X141.909 Y108.601 E3.79137
G1 X141.563 Y109.45 E3.83711
G1 X141.212 Y110.226 E3.8796
G1 X140.657 Y111.206 E3.93579
G1 X140.143 Y111.95 E3.98091
G1 X139.713 Y112.519 E4.01649
G1 X139.016 Y113.29 E4.06834
G1 X138.287 Y113.963 E4.11784
G1 X137.804 Y114.382 E4.14974
G1 X137.363 Y114.712 E4.17722
G1 X136.794 Y115.106 E4.21175
G1 X136.109 Y115.497 E4.2511
G1 X135.418 Y115.869 E4.29025
G1 X134.756 Y116.151 E4.32615
G1 X134.071 Y116.41 E4.36269
G1 X133.517 Y116.58 E4.3916
G1 X132.553 Y116.84 E4.44141
G1 X131.608 Y116.977 E4.48905
G1 X130.518 Y117.056 E4.54357
G1 X129.648 Y117.091 E4.58701
G1 X128.99 Y117.1 E4.61984
G1 X118.261 Y117.1 E5.15512
G1 X117.718 Y117.092 E5.18221
G1 X115.834 Y117.007 E5.2763
G1 X113.086 Y116.921 E5.41346
G1 X110.356 Y116.912 E5.54966
G1 X107.604 Y116.981 E5.687
G1 X105.261 Y117.089 E5.80402
G1 X104.467 Y117.1 E5.84364
G1 X73.057 Y117.1 E7.41069
G1 X72.359 Y117.09 E7.44552
G1 X71.825 Y117.042 E7.47227
G1 X71.304 Y116.916 E7.49901
G1 X70.807 Y116.713 E7.52579
G1 X70.346 Y116.439 E7.55255
G1 X69.931 Y116.1 E7.57928
G1 X69.571 Y115.702 E7.60605
G1 X69.274 Y115.256 E7.63279
G1 X69.046 Y114.77 E7.65957
G1 X68.894 Y114.256 E7.68631
G1 X68.803 Y113.516 E7.72351
G1 X68.802 Y111.118 E7.84315
G1 X68.813 Y110.44 E7.87698
G1 X68.862 Y109.906 E7.90373
G1 X69.019 Y109.269 E7.93646
G1 X70.134 Y106.789 E8.07212
G1 X71.167 Y104.317 E8.20578
G1 X72.167 Y101.718 E8.34471
G1 X73.062 Y99.185 E8.47874
G1 X73.9 Y96.575 E8.6155
G1 X74.666 Y93.942 E8.75231
G1 X75.35 Y91.311 E8.88793
G1 X75.515 Y90.641 E8.92236
G1 X75.681 Y90.132 E8.94907
G1 X75.944 Y89.616 E8.97796
G1 X76.343 Y88.967 E9.01597
G1 X77.767 Y86.579 E9.15468
G1 X78.504 Y85.26 E9.23006
G1 X78.815 Y84.718 E9.26124
G1 X79.115 Y84.274 E9.28797
G1 X79.479 Y83.88 E9.31473
G0 X79.795 Y84.133
G1 X80.196 Y83.825 E9.33996
G1 X80.64 Y83.585 E9.36514
G1 X81.117 Y83.417 E9.39037
G1 X81.909 Y83.301 E9.43031
G1 X87.614 Y83.3 E9.71493
G1 X88.324 Y83.312 E9.75036
G1 X88.827 Y83.361 E9.77557
G1 X89.546 Y83.578 E9.81304
G1 X90.617 Y84.044 E9.87131
G1 X91.117 Y84.27 E9.89869
G1 X93.673 Y85.338 E10.03689
G1 X96.262 Y86.334 E10.17528
G1 X98.827 Y87.238 E10.31097
G1 X101.402 Y88.066 E10.44591
G1 X104.04 Y88.832 E10.58296
G1 X106.705 Y89.524 E10.72033
G1 X109.346 Y90.132 E10.85553
G1 X112.072 Y90.677 E10.99422
G1 X114.747 Y91.135 E11.12962
G1 X117.433 Y91.517 E11.26498
G1 X120.176 Y91.828 E11.4027
G1 X122.915 Y92.06 E11.53984
G1 X125.636 Y92.213 E11.67581
G1 X128.884 Y92.283 E11.83789
G1 X128.97 Y92.292 E11.8422
G1 X130.236 Y92.309 E11.90537
G1 X131.112 Y92.355 E11.94913
G1 X131.895 Y92.477 E11.98867
G1 X132.676 Y92.621 E12.02829
G1 X133.271 Y92.769 E12.05888
G1 X133.911 Y92.96 E12.0922
G1 X134.598 Y93.215 E12.12876
G1 X135.266 Y93.498 E12.16495
G1 X135.967 Y93.872 E12.20459
G1 X136.612 Y94.249 E12.24186
G1 X137.555 Y94.926 E12.29978
G1 X138.259 Y95.541 E12.34642
G1 X138.796 Y96.054 E12.38347
G1 X139.421 Y96.772 E12.43096
G1 X139.867 Y97.359 E12.46774
G1 X140.378 Y98.097 E12.51252
G1 X140.9 Y99.036 E12.56612
G1 X141.439 Y100.296 E12.63449
G1 X141.624 Y100.83 E12.66269
G1 X141.854 Y101.691 E12.70715
G1 X141.991 Y102.436 E12.74494
G1 X142.105 Y103.182 E12.78259
G1 X142.153 Y103.797 E12.81337
G1 X142.186 Y104.537 E12.85032
G1 X142.137 Y105.502 E12.89853
G1 X141.956 Y106.883 E12.96802
G1 X141.822 Y107.511 E13.00005
G1 X141.529 Y108.474 E13.05027
G1 X141.236 Y109.198 E13.08924
G1 X140.863 Y110.031 E13.13477
G1 X140.324 Y110.984 E13.1894
G1 X139.879 Y111.63 E13.22853
G1 X139.418 Y112.25 E13.26708
G1 X138.736 Y113.003 E13.31776
G1 X138.015 Y113.669 E13.36673
G1 X137.355 Y114.232 E13.41001
G1 X136.588 Y114.763 E13.45655
G1 X135.839 Y115.189 E13.49954
G1 X135.246 Y115.507 E13.53311
G1 X134.508 Y115.82 E13.5731
G1 X133.952 Y116.028 E13.60272
G1 X133.413 Y116.194 E13.63086
G1 X132.476 Y116.447 E13.67928
G1 X131.579 Y116.578 E13.72451
G1 X130.502 Y116.656 E13.77838
G1 X129.643 Y116.691 E13.82127
G1 X128.985 Y116.7 E13.8541
G1 X118.267 Y116.7 E14.38882
G1 X117.626 Y116.689 E14.42081
G1 X115.822 Y116.607 E14.5109
G1 X113.099 Y116.521 E14.64682
G1 X110.348 Y116.512 E14.78407
G1 X107.621 Y116.581 E14.92016
G1 X105.36 Y116.686 E15.03309
G1 X104.461 Y116.7 E15.07794
G1 X73.063 Y116.7 E16.6444
G1 X72.365 Y116.69 E16.67922
G1 X71.862 Y116.643 E16.70443
G1 X71.372 Y116.517 E16.72967
G1 X70.908 Y116.315 E16.75492
G1 X70.482 Y116.043 E16.78013
G1 X70.104 Y115.708 E16.80533
G1 X69.784 Y115.317 E16.83054
G1 X69.529 Y114.88 E16.85578
G1 X69.346 Y114.409 E16.88099
G1 X69.239 Y113.915 E16.90621
G1 X69.203 Y113.466 E16.92868
G1 X69.202 Y111.124 E17.04552
G1 X69.213 Y110.446 E17.07935
G1 X69.262 Y109.943 E17.10457
G1 X69.405 Y109.385 E17.13331
G1 X70.49 Y106.973 E17.26526
G1 X71.551 Y104.436 E17.40245
G1 X72.543 Y101.858 E17.54026
G1 X73.437 Y99.325 E17.67427
G1 X74.278 Y96.705 E17.81155
G1 X75.049 Y94.058 E17.9491
G1 X75.737 Y91.411 E18.08555
G1 X75.903 Y90.737 E18.12018
G1 X76.111 Y90.108 E18.15323
G1 X76.685 Y89.176 E18.20784
G1 X78.11 Y86.784 E18.34675
G1 X78.85 Y85.459 E18.42246
G1 X79.161 Y84.917 E18.45364
G1 X79.447 Y84.5 E18.47887
G1 X79.795 Y84.133 E18.5041
G1 F4800 E12.0041
G1 F600 Z1.3
G0 F1800 X106.887 Y104.254 Z1.3
G1 F600 Z0.3
G1 F4800 E18.5041
G1 F1800 X107.28 Y104.506 E18.52739
G1 X107.074 Y104.634 E18.53949
G1 X106.887 Y104.254 E18.56062
G0 X106.913 Y103.796
G1 X107.561 Y104.211 E18.59901
G1 X108.142 Y104.503 E18.63145
G1 X107.585 Y104.781 E18.66251
G1 X106.88 Y105.233 E18.70429
G1 X106.719 Y104.81 E18.72687
G1 X106.372 Y104.124 E18.76522
G1 X105.956 Y103.477 E18.8036
G1 X105.53 Y102.945 E18.8376
G1 X105.976 Y103.125 E18.8616
G1 X106.913 Y103.796 E18.91909
G0 X107.146 Y103.471
G1 X107.777 Y103.873 E18.95642
G1 X108.447 Y104.206 E18.99375
G1 X109.236 Y104.497 E19.0357
G1 X108.358 Y104.837 E19.08268
G1 X107.693 Y105.18 E19.12001
G1 X107.198 Y105.498 E19.14936
G1 X106.669 Y105.871 E19.18165
G1 X106.593 Y105.593 E19.19603
G1 X106.32 Y104.897 E19.23333
G1 X105.973 Y104.234 E19.27066
G1 X105.558 Y103.611 E19.30801
G1 X105.079 Y103.037 E19.34531
G1 X104.515 Y102.495 E19.38433
G1 X104.538 Y102.475 E19.38585
G1 X105.588 Y102.536 E19.43833
G1 X106.085 Y102.711 E19.46461
G1 X107.146 Y103.471 E19.52973
G0 X107.379 Y103.145
G1 X107.992 Y103.535 E19.56597
G1 X108.644 Y103.855 E19.60221
G1 X109.327 Y104.101 E19.63843
G1 X110.034 Y104.271 E19.6747
G1 X110.754 Y104.362 E19.71091
G1 X111.636 Y104.378 E19.75492
G1 X112.361 Y104.336 E19.79115
G1 X113.077 Y104.215 E19.82738
G1 X113.775 Y104.016 E19.86359
G1 X114.448 Y103.741 E19.89986
G1 X115.21 Y103.326 E19.94315
G1 X116.45 Y102.428 E20.01953
G1 X116.717 Y102.277 E20.03484
G1 X116.995 Y102.184 E20.04946
G1 X118.449 Y102.1 E20.12212
G1 X123.32 Y102.1 E20.36514
G1 X123.171 Y102.801 E20.40089
G1 X123.06 Y103.519 E20.43714
G1 X123.027 Y104.147 E20.46851
G1 X123.024 Y104.894 E20.50578
G1 X123.061 Y105.62 E20.54205
G1 X123.27 Y106.9 E20.60676
G1 X117.814 Y106.9 E20.87896
G1 X117.139 Y106.858 E20.9127
G1 X116.807 Y106.76 E20.92997
G1 X116.507 Y106.605 E20.94681
G1 X115.486 Y105.869 E21.00961
G1 X114.874 Y105.477 E21.04587
G1 X114.223 Y105.155 E21.0821
G1 X113.541 Y104.907 E21.11831
G1 X112.835 Y104.735 E21.15456
G1 X112.115 Y104.641 E21.19078
G1 X111.262 Y104.621 E21.23335
G1 X110.537 Y104.657 E21.26957
G1 X109.82 Y104.773 E21.3058
G1 X109.12 Y104.967 E21.34204
G1 X108.445 Y105.237 E21.37831
G1 X107.699 Y105.635 E21.4205
G1 X106.438 Y106.523 E21.49744
G1 X106.193 Y105.659 E21.54225
G1 X105.92 Y104.986 E21.57848
G1 X105.575 Y104.347 E21.61471
G1 X105.161 Y103.75 E21.65095
G1 X104.685 Y103.202 E21.68717
G1 X104.151 Y102.709 E21.72343
G1 X103.883 Y102.512 E21.74002
G1 X104.397 Y102.066 E21.77397
G1 X105.657 Y102.139 E21.83694
G1 X106.174 Y102.32 E21.86427
G1 X106.406 Y102.448 E21.87749
G1 X107.379 Y103.145 E21.9372
G0 X107.612 Y102.82
G1 X108.207 Y103.197 E21.97234
G1 X108.84 Y103.504 E22.00744
G1 X109.504 Y103.737 E22.04255
G1 X110.191 Y103.893 E22.0777
G1 X111.398 Y103.992 E22.13812
G1 X112.337 Y103.936 E22.18505
G1 X113.031 Y103.815 E22.22019
G1 X113.706 Y103.616 E22.2553
G1 X114.354 Y103.342 E22.2904
G1 X115.256 Y102.799 E22.34293
G1 X116.231 Y102.093 E22.40298
G1 X116.543 Y101.916 E22.42088
G1 X116.926 Y101.788 E22.44103
G1 X118.444 Y101.7 E22.51689
G1 X123.815 Y101.7 E22.78485
G1 X123.563 Y102.884 E22.84524
G1 X123.456 Y103.58 E22.88037
G1 X123.427 Y104.149 E22.9088
G1 X123.424 Y104.896 E22.94606
G1 X123.461 Y105.599 E22.98119
G1 X123.612 Y106.51 E23.02726
G1 X123.802 Y107.3 E23.06779
G1 X117.805 Y107.3 E23.36698
G1 X117.074 Y107.254 E23.40353
G1 X116.667 Y107.135 E23.42468
G1 X116.296 Y106.946 E23.44545
G1 X115.252 Y106.193 E23.50967
G1 X114.659 Y105.815 E23.54476
G1 X114.026 Y105.506 E23.5799
G1 X113.362 Y105.271 E23.61504
G1 X112.676 Y105.112 E23.65017
G1 X111.494 Y105.009 E23.70937
G1 X110.557 Y105.058 E23.75618
G1 X109.863 Y105.173 E23.79127
G1 X109.186 Y105.367 E23.82641
G1 X108.536 Y105.637 E23.86152
G1 X107.659 Y106.152 E23.91226
G1 X106.577 Y106.914 E23.97829
G1 X106.112 Y107.14 E24.00408
G1 X105.991 Y106.403 E24.04134
G1 X105.793 Y105.728 E24.07644
G1 X105.521 Y105.079 E24.11155
G1 X105.176 Y104.465 E24.14668
G1 X104.765 Y103.894 E24.18178
G1 X104.291 Y103.373 E24.21692
G1 X103.761 Y102.909 E24.25207
G1 X103.173 Y102.507 E24.2876
G1 X103.856 Y102.015 E24.3296
G1 X104.299 Y101.612 E24.35948
G1 X104.898 Y101.695 E24.38964
G1 X105.552 Y101.733 E24.42233
G1 X106.092 Y101.853 E24.44993
G1 X106.621 Y102.11 E24.47927
G1 X107.612 Y102.82 E24.54009
G0 X107.845 Y102.495
G1 X108.421 Y102.858 E24.57406
G1 X109.035 Y103.151 E24.608
G1 X109.68 Y103.37 E24.64198
G1 X110.346 Y103.513 E24.67596
G1 X111.41 Y103.592 E24.72919
G1 X112.313 Y103.536 E24.77433
G1 X112.983 Y103.415 E24.8083
G1 X113.634 Y103.217 E24.84225
G1 X114.258 Y102.943 E24.87625
G1 X115.022 Y102.475 E24.92095
G1 X116.02 Y101.752 E24.98243
G1 X116.367 Y101.555 E25.00234
G1 X116.864 Y101.39 E25.02846
G1 X118.421 Y101.3 E25.10627
G1 X124.4 Y101.3 E25.40456
G1 X124.171 Y101.948 E25.43885
G1 X123.954 Y102.967 E25.49083
G1 X123.852 Y103.64 E25.52479
G1 X123.827 Y104.151 E25.55031
G1 X123.824 Y104.898 E25.58758
G1 X123.861 Y105.578 E25.62156
G1 X124.005 Y106.439 E25.66511
G1 X124.166 Y107.1 E25.69905
G1 X124.384 Y107.7 E25.7309
G1 X117.796 Y107.7 E26.05958
G1 X117.001 Y107.65 E26.09932
G1 X116.528 Y107.511 E26.12391
G1 X116.076 Y107.28 E26.14924
G1 X115.018 Y106.518 E26.21429
G1 X114.444 Y106.153 E26.24822
G1 X113.83 Y105.858 E26.28221
G1 X113.186 Y105.636 E26.31619
G1 X112.521 Y105.492 E26.35014
G1 X111.48 Y105.409 E26.40224
G1 X110.578 Y105.458 E26.44731
G1 X109.907 Y105.574 E26.48128
G1 X109.255 Y105.767 E26.5152
G1 X108.629 Y106.036 E26.5492
G1 X107.889 Y106.479 E26.59223
G1 X106.786 Y107.256 E26.65954
G1 X106.243 Y107.52 E26.68966
G1 X105.741 Y107.641 E26.71542
G1 X105.71 Y107.12 E26.74146
G1 X105.591 Y106.45 E26.77541
G1 X105.394 Y105.798 E26.80939
G1 X105.122 Y105.174 E26.84335
G1 X104.778 Y104.586 E26.87734
G1 X104.368 Y104.042 E26.91132
G1 X103.897 Y103.551 E26.94527
G1 X103.372 Y103.117 E26.97925
G1 X102.8 Y102.748 E27.01321
G1 X102.288 Y102.498 E27.04164
G1 X102.576 Y102.372 E27.05732
G1 X103.164 Y102.028 E27.09131
G1 X103.708 Y101.618 E27.12529
G1 X104.148 Y101.196 E27.15571
G1 X104.921 Y101.295 E27.19459
G1 X105.588 Y101.333 E27.22792
G1 X106.218 Y101.473 E27.26012
G1 X106.83 Y101.768 E27.29401
G1 X107.845 Y102.495 E27.3563
G0 X108.077 Y102.17
G1 X108.634 Y102.519 E27.38909
G1 X109.229 Y102.798 E27.42188
G1 X109.853 Y103.003 E27.45465
G1 X110.497 Y103.13 E27.4874
G1 X111.423 Y103.191 E27.53369
G1 X112.288 Y103.136 E27.57694
G1 X112.934 Y103.015 E27.60973
G1 X113.56 Y102.817 E27.64248
G1 X114.158 Y102.544 E27.67528
G1 X114.787 Y102.151 E27.71228
G1 X115.8 Y101.417 E27.77469
G1 X116.193 Y101.195 E27.79721
G1 X116.796 Y100.993 E27.82894
G1 X118.415 Y100.9 E27.90984
G1 X124.996 Y100.9 E28.23817
G1 X124.805 Y101.353 E28.2627
G1 X124.555 Y102.064 E28.3003
G1 X124.345 Y103.051 E28.35064
G1 X124.228 Y103.832 E28.39004
G1 X124.224 Y104.899 E28.44328
G1 X124.261 Y105.555 E28.47606
G1 X124.399 Y106.367 E28.51715
G1 X124.581 Y107.108 E28.55521
G1 X124.97 Y108.1 E28.60837
G1 X117.771 Y108.1 E28.96753
G1 X116.94 Y108.048 E29.00907
G1 X116.398 Y107.89 E29.03724
G1 X115.858 Y107.616 E29.06745
G1 X114.784 Y106.842 E29.1335
G1 X114.229 Y106.491 E29.16626
G1 X113.635 Y106.21 E29.19904
G1 X113.012 Y106.004 E29.23178
G1 X112.368 Y105.874 E29.26456
G1 X111.463 Y105.809 E29.30982
G1 X110.6 Y105.858 E29.35295
G1 X109.954 Y105.974 E29.38569
G1 X109.326 Y106.167 E29.41847
G1 X108.726 Y106.436 E29.45127
G1 X108.12 Y106.806 E29.4867
G1 X107.005 Y107.592 E29.55476
G1 X106.696 Y107.765 E29.57243
G1 X106.018 Y107.999 E29.60821
G1 X105.367 Y108.08 E29.64094
G1 X105.31 Y107.144 E29.68772
G1 X105.191 Y106.498 E29.72049
G1 X104.994 Y105.871 E29.75328
G1 X104.722 Y105.273 E29.78606
G1 X104.38 Y104.712 E29.81884
G1 X103.972 Y104.197 E29.85162
G1 X103.505 Y103.735 E29.88439
G1 X102.985 Y103.334 E29.91715
G1 X102.421 Y102.998 E29.9499
G1 X101.819 Y102.734 E29.9827
G1 X101.055 Y102.503 E30.02252
G1 X101.879 Y102.244 E30.06561
G1 X102.477 Y101.972 E30.09839
G1 X103.038 Y101.63 E30.13117
G1 X103.553 Y101.222 E30.16395
G1 X104.018 Y100.751 E30.19697
G1 X104.305 Y100.821 E30.2117
G1 X104.944 Y100.896 E30.2438
G1 X105.64 Y100.936 E30.27858
G1 X106.353 Y101.095 E30.31503
G1 X107.044 Y101.43 E30.35334
G1 X108.077 Y102.17 E30.41674
G0 X108.31 Y101.844
G1 X108.847 Y102.179 E30.44831
G1 X109.421 Y102.444 E30.47985
G1 X110.024 Y102.634 E30.5114
G1 X110.646 Y102.746 E30.54293
G1 X111.442 Y102.791 E30.5827
G1 X112.262 Y102.736 E30.62371
G1 X112.883 Y102.616 E30.65526
G1 X113.483 Y102.418 E30.68678
G1 X114.054 Y102.145 E30.71836
G1 X114.552 Y101.827 E30.74784
G1 X115.581 Y101.082 E30.81122
G1 X116.018 Y100.834 E30.83628
G1 X116.728 Y100.597 E30.87363
G1 X118.409 Y100.5 E30.95763
G1 X125.64 Y100.5 E31.31839
G1 X125.39 Y100.994 E31.34601
G1 X125.173 Y101.509 E31.37389
G1 X124.89 Y102.41 E31.42101
G1 X124.736 Y103.134 E31.45794
G1 X124.628 Y103.867 E31.4949
