;FLAVOR:Marlin
;TIME:2523
;Filament used: 3.79477m
;Layer height: 0.3
;MINX:67.452
;MINY:56.3
;MINZ:0.3
;MAXX:142.547
;MAXY:143.7
;MAXZ:15.9
;Generated with Cura_SteamEngine 5.3.1
M140 S60
M105
M190 S60
M104 S185
M105
M109 S185
M82 ;absolute extrusion mode
G21 ;metric values
G90 ;absolute positioning
M82 ;set extruder to absolute mode
M107 ;start with the fan off
G28
G29
G92 E0 ;zero the extruded length again
G1 F60
M117 "please"
G92 E0
G92 E0
G1 F4800 E-6.5
;LAYER_COUNT:53
;LAYER:0
M107
G1 F600 Z1.3
G0 F1800 X69.325 Y57.585 Z1.3
;TYPE:SKIRT
G1 F600 Z0.3
G1 F4800 E0
G1 F1800 X69.66 Y57.206 E0.02524
G1 X70.051 Y56.885 E0.05047
G1 X70.487 Y56.63 E0.07567
G1 X70.958 Y56.446 E0.1009
G1 X71.452 Y56.339 E0.12612
G1 X72.123 Y56.301 E0.15965
G1 X135.557 Y56.3 E3.32438
G1 X136.255 Y56.31 E3.35921
G1 X136.758 Y56.357 E3.38442
G1 X137.248 Y56.483 E3.40966
G1 X137.712 Y56.685 E3.4349
G1 X138.138 Y56.957 E3.46012
G1 X138.516 Y57.292 E3.48532
G1 X138.836 Y57.683 E3.51053
G1 X139.091 Y58.12 E3.53577
G1 X139.274 Y58.591 E3.56098
G1 X139.381 Y59.085 E3.5862
G1 X139.417 Y59.528 E3.60837
G1 X139.417 Y63.367 E3.7999
G1 X139.407 Y64.044 E3.83368
G1 X139.359 Y64.548 E3.85894
G1 X139.216 Y65.086 E3.88671
G1 X137.988 Y68.479 E4.06673
G1 X137.128 Y71.095 E4.20412
G1 X136.353 Y73.696 E4.33952
G1 X135.641 Y76.361 E4.47714
G1 X135.012 Y79.017 E4.61331
G1 X134.443 Y81.766 E4.75337
G1 X133.978 Y84.38 E4.88583
G1 X133.571 Y87.112 E5.02363
G1 X133.248 Y89.8 E5.1587
G1 X132.996 Y92.549 E5.29643
G1 X132.823 Y95.293 E5.4336
G1 X132.728 Y98.013 E5.56938
G1 X132.71 Y100.764 E5.70663
G1 X132.77 Y103.483 E5.84232
G1 X132.907 Y106.231 E5.97958
G1 X133.12 Y108.942 E6.11525
G1 X133.414 Y111.685 E6.25289
G1 X133.782 Y114.402 E6.38968
G1 X134.218 Y117.047 E6.52342
G1 X134.75 Y119.794 E6.66301
G1 X135.348 Y122.47 E6.79981
G1 X136.007 Y125.077 E6.93396
G1 X136.765 Y127.748 E7.07248
G1 X137.584 Y130.351 E7.20862
G1 X138.483 Y132.95 E7.34583
G1 X139.206 Y134.888 E7.44902
G1 X139.345 Y135.374 E7.47424
G1 X139.418 Y136.013 E7.50633
G1 X139.417 Y139.852 E7.69786
G1 X139.407 Y140.537 E7.73204
G1 X139.359 Y141.04 E7.75724
G1 X139.233 Y141.53 E7.78249
G1 X139.032 Y141.993 E7.80767
G1 X138.76 Y142.42 E7.83293
G1 X138.424 Y142.797 E7.85812
G1 X138.033 Y143.118 E7.88336
G1 X137.596 Y143.373 E7.9086
G1 X137.125 Y143.556 E7.93381
G1 X136.631 Y143.662 E7.95902
G1 X135.978 Y143.699 E7.99165
G1 X72.539 Y143.7 E11.15663
G1 X71.841 Y143.691 E11.19146
G1 X71.337 Y143.644 E11.21671
G1 X70.847 Y143.519 E11.24194
G1 X70.383 Y143.318 E11.26717
G1 X69.957 Y143.047 E11.29236
G1 X69.578 Y142.712 E11.3176
G1 X69.257 Y142.321 E11.34283
G1 X69.002 Y141.885 E11.36803
G1 X68.818 Y141.414 E11.39326
G1 X68.711 Y140.92 E11.41848
G1 X68.673 Y140.458 E11.44161
G1 X68.67 Y136.656 E11.63129
G1 X68.681 Y135.95 E11.66651
G1 X68.729 Y135.447 E11.69172
G1 X68.881 Y134.887 E11.72067
G1 X69.256 Y133.876 E11.77447
G1 X70.18 Y131.289 E11.91152
G1 X71.023 Y128.705 E12.04712
G1 X71.803 Y126.065 E12.18446
G1 X72.503 Y123.417 E12.32111
G1 X73.13 Y120.74 E12.45828
G1 X73.681 Y118.048 E12.59537
G1 X74.153 Y115.36 E12.73153
G1 X74.547 Y112.67 E12.86716
G1 X74.87 Y109.929 E13.00486
G1 X75.111 Y107.223 E13.1404
G1 X75.278 Y104.478 E13.2776
G1 X75.365 Y101.76 E13.41327
G1 X75.377 Y99.006 E13.55067
G1 X75.31 Y96.286 E13.68641
G1 X75.167 Y93.54 E13.82359
G1 X74.945 Y90.797 E13.96089
G1 X74.649 Y88.094 E14.09655
G1 X74.269 Y85.356 E14.23446
G1 X73.822 Y82.68 E14.36981
G1 X73.294 Y79.989 E14.50663
G1 X72.692 Y77.326 E14.64284
G1 X72.013 Y74.675 E14.77937
G1 X71.25 Y72.01 E14.91767
G1 X70.437 Y69.444 E15.05196
G1 X69.525 Y66.828 E15.19017
G1 X68.883 Y65.112 E15.28158
G1 X68.744 Y64.626 E15.3068
G1 X68.673 Y64.013 E15.33759
G1 X68.673 Y60.089 E15.53336
G1 X68.681 Y59.469 E15.56429
G1 X68.728 Y58.965 E15.58954
G1 X68.853 Y58.475 E15.61477
G1 X69.054 Y58.011 E15.64
G1 X69.325 Y57.585 E15.66519
G1 F4800 E9.16519
G1 F600 Z1.3
;MESH:mouth_11.stl
G0 F1800 X95.425 Y136.947 Z1.3
;TYPE:WALL-INNER
G1 F600 Z0.3
G1 F4800 E15.66519
G1 F1800 X95.15 Y136.8 E15.68075
G1 X94.917 Y136.555 E15.69761
G1 X94.801 Y136.317 E15.71082
G1 X94.753 Y136.088 E15.7225
G1 X94.75 Y64 E19.31898
G1 X94.801 Y63.683 E19.335
G1 X94.917 Y63.445 E19.34821
G1 X95.15 Y63.2 E19.36508
G1 X95.425 Y63.053 E19.38063
G1 X95.632 Y63 E19.39129
G1 X135.217 Y63 E21.3662
G1 X135.217 Y60.5 E21.49092
G1 X72.873 Y60.5 E24.60128
G1 X72.872 Y63 E24.726
G1 X92.75 Y63 E25.71772
G1 X93.075 Y63.053 E25.73415
G1 X93.35 Y63.2 E25.74971
G1 X93.583 Y63.445 E25.76658
G1 X93.699 Y63.683 E25.77978
G1 X93.75 Y64 E25.7958
G1 X93.747 Y136.088 E29.39229
G1 X93.699 Y136.317 E29.40396
G1 X93.583 Y136.555 E29.41717
G1 X93.35 Y136.8 E29.43404
G1 X93.075 Y136.947 E29.4496
G1 X92.868 Y137 E29.46026
G1 X72.871 Y137 E30.45791
G1 X72.873 Y139.5 E30.58264
G1 X135.217 Y139.5 E33.69299
G1 X135.217 Y137 E33.81772
G1 X95.75 Y137 E35.78673
G1 X95.425 Y136.947 E35.80316
G0 X92.824 Y136.9
G0 X92.824 Y136.6
G1 X72.471 Y136.6 E36.81858
G1 X72.473 Y139.9 E36.98321
G1 X135.617 Y139.9 E40.13348
G1 X135.617 Y136.6 E40.29812
G1 X95.75 Y136.6 E42.28709
G1 X95.555 Y136.568 E42.29695
G1 X95.39 Y136.48 E42.30628
G1 X95.25 Y136.333 E42.31641
G1 X95.151 Y136.053 E42.33122
G1 X95.15 Y64 E45.92596
G1 X95.18 Y63.81 E45.93556
G1 X95.25 Y63.667 E45.9435
G1 X95.39 Y63.52 E45.95363
G1 X95.676 Y63.4 E45.9691
G1 X135.617 Y63.4 E47.96177
G1 X135.617 Y60.1 E48.12641
G1 X72.473 Y60.1 E51.27667
G1 X72.472 Y63.4 E51.44131
G1 X92.75 Y63.4 E52.45298
G1 X92.945 Y63.432 E52.46284
G1 X93.11 Y63.52 E52.47217
G1 X93.25 Y63.667 E52.4823
G1 X93.32 Y63.81 E52.49024
G1 X93.35 Y64 E52.49984
G1 X93.349 Y136.053 E56.09458
G1 X93.25 Y136.333 E56.1094
G1 X93.11 Y136.48 E56.11952
G1 X92.824 Y136.6 E56.135
G0 X92.824 Y136.9
G0 X93.502 Y136.836
G0 X94.85 Y136.111
G0 X95.583 Y136.111
;TYPE:WALL-OUTER
G1 X95.55 Y136.018 E56.13992
G1 X95.55 Y64 E59.73291
G1 X95.583 Y63.889 E59.73869
G1 X95.715 Y63.802 E59.74658
G1 X136.017 Y63.8 E61.75725
G1 X136.017 Y59.7 E61.9618
G1 X72.073 Y59.7 E65.15198
G1 X72.072 Y63.8 E65.35653
G1 X92.797 Y63.8 E66.39051
G1 X92.917 Y63.889 E66.39796
G1 X92.95 Y64 E66.40374
G1 X92.95 Y136.018 E69.99673
G1 X92.917 Y136.111 E70.00165
G1 X92.785 Y136.198 E70.00954
G1 X72.071 Y136.2 E71.04297
G1 X72.073 Y140.3 E71.24751
G1 X136.017 Y140.3 E74.43769
G1 X136.017 Y136.2 E74.64224
G1 X95.703 Y136.2 E76.65352
G1 X95.583 Y136.111 E76.66097
G0 X95.55 Y136.018
G0 X95.55 Y135.916
G0 X94.85 Y135.916
G0 X94.922 Y136.828
G0 X95.268 Y137.293
;TYPE:SKIN
G1 X95.721 Y137.378 E76.68397
G1 X134.837 Y137.38 E78.63547
G1 X134.837 Y139.12 E78.72228
G1 X73.253 Y139.12 E81.79472
G1 X73.253 Y137.38 E81.88153
G1 X92.779 Y137.378 E82.85568
G1 X93.232 Y137.293 E82.87868
G1 X93.603 Y137.083 E82.89995
G1 X93.877 Y136.792 E82.91989
G1 F1374 X94.25 Y136.129 E82.96961
G1 X94.623 Y136.792 E83.01932
G1 F1800 X94.897 Y137.083 E83.03926
G1 X95.268 Y137.293 E83.06053
G0 X94.922 Y136.828
G0 X94.602 Y63.23
G1 F1228.7 X94.25 Y63.951 E83.11918
G1 X93.898 Y63.23 E83.17782
G1 F1558.4 X93.603 Y62.917 E83.2026
G1 F1800 X93.232 Y62.707 E83.22387
G1 X92.779 Y62.622 E83.24687
G1 X73.253 Y62.62 E84.22102
G1 X73.253 Y60.88 E84.30783
G1 X134.837 Y60.88 E87.38027
G1 X134.837 Y62.62 E87.46708
G1 X95.721 Y62.622 E89.41858
G1 X95.268 Y62.707 E89.44158
G1 X94.897 Y62.917 E89.46285
G1 F1558.4 X94.602 Y63.23 E89.48763
G0 F1800 X94.25 Y63.951
G1 F1111.1 X94.25 Y136.129 E95.32121
G0 F1800 X93.578 Y136.828
G0 X73.865 Y138.919
G1 X73.452 Y138.506 E95.35035
G0 X73.452 Y137.94
G1 X74.431 Y138.919 E95.41942
G0 X74.997 Y138.919
G1 X73.657 Y137.579 E95.51397
G0 X74.222 Y137.579
G1 X75.562 Y138.919 E95.60851
G0 X76.128 Y138.919
G1 X74.788 Y137.579 E95.70306
G0 X75.354 Y137.579
G1 X76.694 Y138.919 E95.7976
G0 X77.259 Y138.919
G1 X75.919 Y137.579 E95.89214
G0 X76.485 Y137.579
G1 X77.825 Y138.919 E95.98669
G0 X78.391 Y138.919
G1 X77.051 Y137.579 E96.08123
G0 X77.616 Y137.579
G1 X78.956 Y138.919 E96.17578
G0 X79.522 Y138.919
G1 X78.182 Y137.579 E96.27032
G0 X78.748 Y137.579
G1 X80.088 Y138.919 E96.36487
G0 X80.654 Y138.919
G1 X79.314 Y137.579 E96.45941
G0 X79.879 Y137.579
G1 X81.219 Y138.919 E96.55395
G0 X81.785 Y138.919
G1 X80.445 Y137.579 E96.6485
G0 X81.011 Y137.579
G1 X82.351 Y138.919 E96.74304
G0 X82.916 Y138.919
G1 X81.576 Y137.579 E96.83759
G0 X82.142 Y137.579
G1 X83.482 Y138.919 E96.93213
G0 X84.048 Y138.919
G1 X82.708 Y137.579 E97.02667
G0 X83.273 Y137.579
G1 X84.613 Y138.919 E97.12122
G0 X85.179 Y138.919
G1 X83.839 Y137.579 E97.21576
G0 X84.405 Y137.579
G1 X85.745 Y138.919 E97.31031
G0 X86.31 Y138.919
G1 X84.97 Y137.579 E97.40485
G0 X85.536 Y137.579
G1 X86.876 Y138.919 E97.4994
G0 X87.442 Y138.919
G1 X86.102 Y137.579 E97.59394
G0 X86.667 Y137.579
G1 X88.007 Y138.919 E97.68848
G0 X88.573 Y138.919
G1 X87.233 Y137.579 E97.78303
G0 X87.799 Y137.579
G1 X89.139 Y138.919 E97.87757
G0 X89.704 Y138.919
G1 X88.365 Y137.579 E97.97208
G0 X88.93 Y137.579
G1 X90.27 Y138.919 E98.06663
G0 X90.836 Y138.919
G1 X89.496 Y137.579 E98.16117
G0 X90.062 Y137.579
G1 X91.402 Y138.919 E98.25571
G0 X91.967 Y138.919
G1 X90.627 Y137.579 E98.35026
G0 X91.193 Y137.579
G1 X92.533 Y138.919 E98.4448
G0 X93.099 Y138.919
G1 X91.759 Y137.579 E98.53935
G0 X92.324 Y137.579
G1 X93.664 Y138.919 E98.63389
G0 X94.23 Y138.919
G1 X92.872 Y137.561 E98.72971
G0 X93.326 Y137.45
G1 X94.796 Y138.919 E98.83339
G0 X95.361 Y138.919
G1 X93.701 Y137.259 E98.95051
G0 X93.98 Y136.972
G1 X95.927 Y138.919 E99.08788
G0 X96.493 Y138.919
G1 X94.873 Y137.299 E99.20218
G0 X94.449 Y136.876
G1 X94.185 Y136.612 E99.22081
G0 X95.713 Y137.573
G1 X97.058 Y138.919 E99.31574
G0 X97.624 Y138.919
G1 X96.284 Y137.579 E99.41028
G0 X96.85 Y137.579
G1 X98.19 Y138.919 E99.50483
G0 X98.755 Y138.919
G1 X97.415 Y137.579 E99.59937
G0 X97.981 Y137.579
G1 X99.321 Y138.919 E99.69392
G0 X99.887 Y138.919
G1 X98.547 Y137.579 E99.78846
G0 X99.113 Y137.579
G1 X100.453 Y138.919 E99.883
G0 X101.018 Y138.919
G1 X99.678 Y137.579 E99.97755
G0 X100.244 Y137.579
G1 X101.584 Y138.919 E100.07209
G0 X102.15 Y138.919
G1 X100.81 Y137.579 E100.16664
G0 X101.375 Y137.579
G1 X102.715 Y138.919 E100.26118
G0 X103.281 Y138.919
G1 X101.941 Y137.579 E100.35573
G0 X102.507 Y137.579
G1 X103.847 Y138.919 E100.45027
G0 X104.412 Y138.919
G1 X103.072 Y137.579 E100.54481
G0 X103.638 Y137.579
G1 X104.978 Y138.919 E100.63936
G0 X105.544 Y138.919
G1 X104.204 Y137.579 E100.7339
G0 X104.769 Y137.579
G1 X106.109 Y138.919 E100.82845
G0 X106.675 Y138.919
G1 X105.335 Y137.579 E100.92299
G0 X105.901 Y137.579
G1 X107.241 Y138.919 E101.01754
G0 X107.806 Y138.919
G1 X106.466 Y137.579 E101.11208
G0 X107.032 Y137.579
G1 X108.372 Y138.919 E101.20662
G0 X108.938 Y138.919
G1 X107.598 Y137.579 E101.30117
G0 X108.164 Y137.579
G1 X109.503 Y138.919 E101.39568
G0 X110.069 Y138.919
G1 X108.729 Y137.579 E101.49022
G0 X109.295 Y137.579
G1 X110.635 Y138.919 E101.58477
G0 X111.201 Y138.919
G1 X109.861 Y137.579 E101.67931
G0 X110.426 Y137.579
G1 X111.766 Y138.919 E101.77385
G0 X112.332 Y138.919
G1 X110.992 Y137.579 E101.8684
G0 X111.558 Y137.579
G1 X112.898 Y138.919 E101.96294
G0 X113.463 Y138.919
G1 X112.123 Y137.579 E102.05749
G0 X112.689 Y137.579
G1 X114.029 Y138.919 E102.15203
G0 X114.595 Y138.919
G1 X113.255 Y137.579 E102.24658
G0 X113.82 Y137.579
G1 X115.16 Y138.919 E102.34112
G0 X115.726 Y138.919
G1 X114.386 Y137.579 E102.43566
G0 X114.952 Y137.579
G1 X116.292 Y138.919 E102.53021
G0 X116.857 Y138.919
G1 X115.517 Y137.579 E102.62475
G0 X116.083 Y137.579
G1 X117.423 Y138.919 E102.7193
G0 X117.989 Y138.919
G1 X116.649 Y137.579 E102.81384
G0 X117.214 Y137.579
G1 X118.554 Y138.919 E102.90838
G0 X119.12 Y138.919
G1 X117.78 Y137.579 E103.00293
G0 X118.346 Y137.579
G1 X119.686 Y138.919 E103.09747
G0 X120.251 Y138.919
G1 X118.912 Y137.579 E103.19198
G0 X119.477 Y137.579
G1 X120.817 Y138.919 E103.28653
G0 X121.383 Y138.919
G1 X120.043 Y137.579 E103.38107
G0 X120.609 Y137.579
G1 X121.949 Y138.919 E103.47561
G0 X122.514 Y138.919
G1 X121.174 Y137.579 E103.57016
G0 X121.74 Y137.579
G1 X123.08 Y138.919 E103.6647
G0 X123.646 Y138.919
G1 X122.306 Y137.579 E103.75925
G0 X122.871 Y137.579
G1 X124.211 Y138.919 E103.85379
G0 X124.777 Y138.919
G1 X123.437 Y137.579 E103.94834
G0 X124.003 Y137.579
G1 X125.343 Y138.919 E104.04288
G0 X125.908 Y138.919
G1 X124.568 Y137.579 E104.13742
G0 X125.134 Y137.579
G1 X126.474 Y138.919 E104.23197
G0 X127.04 Y138.919
G1 X125.7 Y137.579 E104.32651
G0 X126.265 Y137.579
G1 X127.605 Y138.919 E104.42106
G0 X128.171 Y138.919
G1 X126.831 Y137.579 E104.5156
G0 X127.397 Y137.579
G1 X128.737 Y138.919 E104.61015
G0 X129.302 Y138.919
G1 X127.962 Y137.579 E104.70469
G0 X128.528 Y137.579
G1 X129.868 Y138.919 E104.79923
G0 X130.434 Y138.919
G1 X129.094 Y137.579 E104.89378
G0 X129.66 Y137.579
G1 X131 Y138.919 E104.98832
G0 X131.565 Y138.919
G1 X130.225 Y137.579 E105.08287
G0 X130.791 Y137.579
G1 X132.131 Y138.919 E105.17741
G0 X132.697 Y138.919
G1 X131.357 Y137.579 E105.27196
G0 X131.922 Y137.579
G1 X133.262 Y138.919 E105.3665
G0 X133.828 Y138.919
G1 X132.488 Y137.579 E105.46104
G0 X133.054 Y137.579
G1 X134.394 Y138.919 E105.55559
G0 X134.637 Y138.597
G1 X133.619 Y137.579 E105.62741
G0 X134.185 Y137.579
G1 X134.637 Y138.031 E105.6593
G0 X94.922 Y136.828
G0 X94.922 Y63.172
G0 X134.261 Y62.419
G1 X132.921 Y61.079 E105.75385
G0 X132.356 Y61.079
G1 X133.696 Y62.419 E105.84839
G0 X133.13 Y62.419
G1 X131.79 Y61.079 E105.94294
G0 X131.224 Y61.079
G1 X132.564 Y62.419 E106.03748
G0 X131.999 Y62.419
G1 X130.659 Y61.079 E106.13203
G0 X130.093 Y61.079
G1 X131.433 Y62.419 E106.22657
G0 X130.867 Y62.419
G1 X129.527 Y61.079 E106.32111
G0 X128.962 Y61.079
G1 X130.302 Y62.419 E106.41566
G0 X129.736 Y62.419
G1 X128.396 Y61.079 E106.5102
G0 X127.83 Y61.079
G1 X129.17 Y62.419 E106.60475
G0 X128.605 Y62.419
G1 X127.265 Y61.079 E106.69929
G0 X126.699 Y61.079
G1 X128.039 Y62.419 E106.79384
G0 X127.473 Y62.419
G1 X126.133 Y61.079 E106.88838
G0 X125.568 Y61.079
G1 X126.907 Y62.419 E106.98289
G0 X126.342 Y62.419
G1 X125.002 Y61.079 E107.07743
G0 X124.436 Y61.079
G1 X125.776 Y62.419 E107.17198
G0 X125.21 Y62.419
G1 X123.87 Y61.079 E107.26652
G0 X123.305 Y61.079
G1 X124.645 Y62.419 E107.36107
G0 X124.079 Y62.419
G1 X122.739 Y61.079 E107.45561
G0 X122.173 Y61.079
G1 X123.513 Y62.419 E107.55015
G0 X122.948 Y62.419
G1 X121.608 Y61.079 E107.6447
G0 X121.042 Y61.079
G1 X122.382 Y62.419 E107.73924
G0 X121.816 Y62.419
G1 X120.476 Y61.079 E107.83379
G0 X119.911 Y61.079
G1 X121.251 Y62.419 E107.92833
G0 X120.685 Y62.419
G1 X119.345 Y61.079 E108.02288
G0 X118.779 Y61.079
G1 X120.119 Y62.419 E108.11742
G0 X119.554 Y62.419
G1 X118.214 Y61.079 E108.21196
G0 X117.648 Y61.079
G1 X118.988 Y62.419 E108.30651
G0 X118.422 Y62.419
G1 X117.082 Y61.079 E108.40105
G0 X116.517 Y61.079
G1 X117.857 Y62.419 E108.4956
G0 X117.291 Y62.419
G1 X115.951 Y61.079 E108.59014
G0 X115.385 Y61.079
G1 X116.725 Y62.419 E108.68468
G0 X116.159 Y62.419
G1 X114.819 Y61.079 E108.77923
G0 X114.254 Y61.079
G1 X115.594 Y62.419 E108.87377
G0 X115.028 Y62.419
G1 X113.688 Y61.079 E108.96832
G0 X113.122 Y61.079
G1 X114.462 Y62.419 E109.06286
G0 X113.897 Y62.419
G1 X112.557 Y61.079 E109.15741
G0 X111.991 Y61.079
G1 X113.331 Y62.419 E109.25195
G0 X112.765 Y62.419
G1 X111.425 Y61.079 E109.34649
G0 X110.86 Y61.079
G1 X112.2 Y62.419 E109.44104
G0 X111.634 Y62.419
G1 X110.294 Y61.079 E109.53558
G0 X109.728 Y61.079
G1 X111.068 Y62.419 E109.63013
G0 X110.503 Y62.419
G1 X109.163 Y61.079 E109.72467
G0 X108.597 Y61.079
G1 X109.937 Y62.419 E109.81922
G0 X109.371 Y62.419
G1 X108.031 Y61.079 E109.91376
G0 X107.466 Y61.079
G1 X108.806 Y62.419 E110.0083
G0 X108.24 Y62.419
G1 X106.9 Y61.079 E110.10285
G0 X106.334 Y61.079
G1 X107.674 Y62.419 E110.19739
G0 X107.108 Y62.419
G1 X105.769 Y61.079 E110.2919
G0 X105.203 Y61.079
G1 X106.543 Y62.419 E110.38645
G0 X105.977 Y62.419
G1 X104.637 Y61.079 E110.48099
G0 X104.071 Y61.079
G1 X105.411 Y62.419 E110.57553
G0 X104.846 Y62.419
G1 X103.506 Y61.079 E110.67008
G0 X102.94 Y61.079
G1 X104.28 Y62.419 E110.76462
G0 X103.714 Y62.419
G1 X102.374 Y61.079 E110.85917
G0 X101.809 Y61.079
G1 X103.149 Y62.419 E110.95371
G0 X102.583 Y62.419
G1 X101.243 Y61.079 E111.04826
