;FLAVOR:Marlin
;TIME:3669
;Filament used: 5.48837m
;Layer height: 0.3
;MINX:59.572
;MINY:56.3
;MINZ:0.3
;MAXX:153.812
;MAXY:143.7
;MAXZ:15.9
;Generated with Cura_SteamEngine 5.3.1
M140 S60
M105
M190 S60
M104 S185
M105
M109 S185
M82 ;absolute extrusion mode
G21 ;metric values
G90 ;absolute positioning
M82 ;set extruder to absolute mode
M107 ;start with the fan off
G28
G29
G92 E0 ;zero the extruded length again
G1 F60
M117 "please"
G92 E0
G92 E0
G1 F4800 E-6.5
;LAYER_COUNT:53
;LAYER:0
M107
G1 F600 Z1.3
G0 F1800 X61.82 Y57.199 Z1.3
;TYPE:SKIRT
G1 F600 Z0.3
G1 F4800 E0
G1 F1800 X62.212 Y56.879 E0.02525
G1 X62.649 Y56.625 E0.05046
G1 X63.121 Y56.443 E0.0757
G1 X63.615 Y56.338 E0.1009
G1 X64.274 Y56.301 E0.13383
G1 X127.573 Y56.3 E3.29183
G1 X128.275 Y56.31 E3.32685
G1 X128.778 Y56.357 E3.35206
G1 X129.268 Y56.483 E3.3773
G1 X129.731 Y56.685 E3.4025
G1 X130.158 Y56.956 E3.42773
G1 X130.536 Y57.292 E3.45296
G1 X130.977 Y57.87 E3.48924
G1 X131.663 Y59.019 E3.556
G1 X133.095 Y61.343 E3.69219
G1 X134.611 Y63.653 E3.83004
G1 X136.16 Y65.874 E3.96513
G1 X137.813 Y68.106 E4.1037
G1 X139.468 Y70.215 E4.23744
G1 X141.238 Y72.342 E4.3755
G1 X143.779 Y75.196 E4.56614
G1 X144.641 Y76.128 E4.62948
G1 X145.317 Y76.895 E4.68048
G1 X146.042 Y77.78 E4.73756
G1 X146.688 Y78.613 E4.79015
G1 X147.367 Y79.555 E4.84808
G1 X148.044 Y80.552 E4.90821
G1 X148.593 Y81.427 E4.95974
G1 X149.133 Y82.338 E5.01258
G1 X149.692 Y83.363 E5.07083
G1 X150.172 Y84.301 E5.12339
G1 X150.671 Y85.369 E5.18221
G1 X151.138 Y86.445 E5.24073
G1 X151.507 Y87.388 E5.29125
G1 X151.907 Y88.493 E5.34988
G1 X152.244 Y89.543 E5.40489
G1 X152.561 Y90.628 E5.46129
G1 X152.827 Y91.675 E5.51518
G1 X153.049 Y92.647 E5.56492
G1 X153.264 Y93.771 E5.62202
G1 X153.46 Y94.978 E5.68302
G1 X153.59 Y96.018 E5.73531
G1 X153.704 Y97.171 E5.79312
G1 X153.771 Y98.251 E5.8471
G1 X153.81 Y99.272 E5.89808
G1 X153.812 Y100.462 E5.95744
G1 X153.782 Y101.601 E6.01429
G1 X153.719 Y102.621 E6.06527
G1 X153.611 Y103.853 E6.12698
G1 X153.497 Y104.762 E6.17268
G1 X153.312 Y106.003 E6.23528
G1 X153.107 Y107.085 E6.29022
G1 X152.877 Y108.155 E6.34482
G1 X152.614 Y109.196 E6.39839
G1 X152.285 Y110.362 E6.45883
G1 X151.976 Y111.324 E6.50924
G1 X151.628 Y112.325 E6.56211
G1 X151.195 Y113.433 E6.62146
G1 X150.809 Y114.357 E6.67142
G1 X150.076 Y115.919 E6.75751
G1 X149.825 Y116.418 E6.78537
G1 X149.287 Y117.409 E6.84163
G1 X148.709 Y118.411 E6.89934
G1 X148.1 Y119.382 E6.95652
G1 X147.491 Y120.299 E7.01144
G1 X146.869 Y121.165 E7.06464
G1 X146.182 Y122.074 E7.12148
G1 X145.496 Y122.916 E7.17567
G1 X144.813 Y123.712 E7.22799
G1 X143.596 Y125.032 E7.31757
G1 X141.778 Y127.057 E7.45334
G1 X139.984 Y129.172 E7.5917
G1 X138.279 Y131.301 E7.72778
G1 X136.641 Y133.469 E7.86334
G1 X135.05 Y135.705 E8.00026
G1 X133.517 Y137.993 E8.13766
G1 X132.06 Y140.308 E8.27412
G1 X130.976 Y142.128 E8.37981
G1 X130.684 Y142.54 E8.405
G1 X130.33 Y142.902 E8.43026
G1 X129.924 Y143.203 E8.45548
G1 X129.476 Y143.436 E8.48067
G1 X128.996 Y143.596 E8.50591
G1 X128.239 Y143.7 E8.54404
G1 X64.69 Y143.7 E11.71451
G1 X63.992 Y143.691 E11.74933
G1 X63.488 Y143.644 E11.77459
G1 X62.998 Y143.519 E11.79982
G1 X62.534 Y143.318 E11.82505
G1 X62.108 Y143.047 E11.85023
G1 X61.729 Y142.712 E11.87547
G1 X61.408 Y142.321 E11.90071
G1 X61.153 Y141.885 E11.92591
G1 X60.969 Y141.414 E11.95114
G1 X60.862 Y140.92 E11.97635
G1 X60.824 Y140.458 E11.99948
G1 X60.821 Y136.656 E12.18916
G1 X60.832 Y135.95 E12.22439
G1 X60.88 Y135.447 E12.2496
G1 X61.032 Y134.887 E12.27855
G1 X61.407 Y133.876 E12.33235
G1 X62.331 Y131.289 E12.4694
G1 X63.174 Y128.705 E12.605
G1 X63.954 Y126.065 E12.74234
G1 X64.654 Y123.417 E12.87899
G1 X65.281 Y120.74 E13.01616
G1 X65.832 Y118.048 E13.15324
G1 X66.304 Y115.36 E13.2894
G1 X66.698 Y112.67 E13.42504
G1 X67.021 Y109.929 E13.56273
G1 X67.262 Y107.223 E13.69827
G1 X67.429 Y104.478 E13.83547
G1 X67.516 Y101.76 E13.97114
G1 X67.528 Y99.006 E14.10854
G1 X67.461 Y96.286 E14.24428
G1 X67.318 Y93.54 E14.38147
G1 X67.096 Y90.797 E14.51877
G1 X66.8 Y88.094 E14.65442
G1 X66.42 Y85.356 E14.79233
G1 X65.973 Y82.68 E14.92769
G1 X65.445 Y79.989 E15.0645
G1 X64.843 Y77.326 E15.20071
G1 X64.164 Y74.675 E15.33724
G1 X63.401 Y72.01 E15.47554
G1 X62.588 Y69.444 E15.60983
G1 X61.665 Y66.796 E15.74974
G1 X61.035 Y65.116 E15.83925
G1 X60.895 Y64.63 E15.86448
G1 X60.824 Y64.015 E15.89537
G1 X60.824 Y60.078 E16.09179
G1 X60.834 Y59.458 E16.12272
G1 X60.882 Y58.955 E16.14793
G1 X61.009 Y58.466 E16.17314
G1 X61.211 Y58.002 E16.19839
G1 X61.484 Y57.577 E16.22359
G1 X61.82 Y57.199 E16.24882
G1 F4800 E9.74882
G1 F600 Z1.3
;MESH:mouth_10.stl
G0 F1800 X88.508 Y88.777 Z1.3
;TYPE:WALL-INNER
G1 F600 Z0.3
G1 F4800 E16.24882
G1 F1800 X88.252 Y88.903 E16.26305
G1 X88.027 Y88.949 E16.27451
G1 X87.649 Y88.912 E16.29346
G1 X87.312 Y88.767 E16.31176
G1 X87.002 Y88.434 E16.33446
G1 X86.87 Y88.07 E16.35378
G1 X86.87 Y64 E17.55464
G1 X86.921 Y63.683 E17.57065
G1 X87.037 Y63.445 E17.58386
G1 X87.27 Y63.2 E17.60073
G1 X87.545 Y63.053 E17.61629
G1 X87.752 Y63 E17.62695
G1 X106.87 Y63 E18.58075
G1 X107.195 Y63.053 E18.59718
G1 X107.47 Y63.2 E18.61273
G1 X107.671 Y63.399 E18.62685
G1 X107.794 Y63.615 E18.63925
G1 X107.87 Y63.874 E18.65271
G1 X107.867 Y69.606 E18.93868
G1 X107.752 Y69.998 E18.95907
G1 X107.605 Y70.206 E18.97177
G1 X107.314 Y70.428 E18.99003
G1 X106.681 Y70.669 E19.02382
G1 X104.872 Y71.441 E19.12195
G1 X103.128 Y72.317 E19.21932
G1 X101.434 Y73.306 E19.31718
G1 X99.811 Y74.39 E19.41455
G1 X98.256 Y75.578 E19.51218
G1 X96.706 Y76.924 E19.6146
G1 X95.312 Y78.3 E19.71232
G1 X94.009 Y79.758 E19.80988
G1 X92.8 Y81.29 E19.90724
G1 X91.684 Y82.904 E20.00514
G1 X90.674 Y84.577 E20.10264
G1 X89.767 Y86.312 E20.20031
G1 X88.815 Y88.441 E20.31666
G1 X88.508 Y88.777 E20.33937
G0 X88.549 Y88.796
G0 X87.428 Y88.937
G0 X87.535 Y88.435
G1 X87.349 Y88.235 E20.35299
G1 X87.27 Y88.018 E20.36452
G1 X87.27 Y64 E21.56278
G1 X87.3 Y63.81 E21.57237
G1 X87.37 Y63.667 E21.58032
G1 X87.51 Y63.52 E21.59045
G1 X87.796 Y63.4 E21.60592
G1 X106.87 Y63.4 E22.55753
G1 X107.065 Y63.432 E22.56738
G1 X107.23 Y63.52 E22.57671
G1 X107.351 Y63.639 E22.58518
G1 X107.47 Y63.921 E22.60045
G1 X107.469 Y69.574 E22.88248
G1 X107.36 Y69.874 E22.8984
G1 X107.194 Y70.04 E22.91012
G1 X106.531 Y70.298 E22.94561
G1 X104.703 Y71.078 E23.04476
G1 X102.938 Y71.965 E23.14331
G1 X101.222 Y72.966 E23.24243
G1 X99.579 Y74.065 E23.34104
G1 X98.003 Y75.268 E23.43996
G1 X96.434 Y76.63 E23.54362
G1 X95.022 Y78.024 E23.64261
G1 X93.702 Y79.501 E23.74144
G1 X92.478 Y81.052 E23.84001
G1 X91.348 Y82.687 E23.93916
G1 X90.325 Y84.381 E24.03789
G1 X89.407 Y86.138 E24.13679
G1 X88.466 Y88.246 E24.25197
G1 X88.335 Y88.406 E24.26228
G1 X88.128 Y88.523 E24.27415
G1 X87.993 Y88.55 E24.28101
G1 X87.737 Y88.522 E24.29386
G1 X87.535 Y88.435 E24.30483
G0 X87.428 Y88.937
G0 X97.101 Y110.14
G0 X107.703 Y129.936
G0 X107.4 Y130.216
G1 X107.471 Y130.425 E24.31585
G1 X107.47 Y136.079 E24.59793
G1 X107.351 Y136.361 E24.6132
G1 X107.23 Y136.48 E24.62166
G1 X106.944 Y136.6 E24.63714
G1 X87.87 Y136.6 E25.58874
G1 X87.675 Y136.568 E25.5986
G1 X87.51 Y136.48 E25.60793
G1 X87.37 Y136.333 E25.61806
G1 X87.271 Y136.053 E25.63288
G1 X87.27 Y112.058 E26.82999
G1 X87.354 Y111.751 E26.84587
G1 X87.548 Y111.551 E26.85977
G1 X87.755 Y111.468 E26.8709
G1 X88.003 Y111.446 E26.88332
G1 X88.132 Y111.474 E26.8899
G1 X88.37 Y111.623 E26.90391
G1 X88.484 Y111.784 E26.91376
G1 X89.009 Y113.033 E26.98135
G1 X89.875 Y114.819 E27.08038
G1 X90.86 Y116.566 E27.18043
G1 X91.93 Y118.208 E27.27821
G1 X93.11 Y119.801 E27.37711
G1 X94.384 Y121.313 E27.47576
G1 X95.752 Y122.745 E27.57456
G1 X97.209 Y124.093 E27.67359
G1 X98.739 Y125.341 E27.77209
G1 X100.353 Y126.5 E27.87123
G1 X102.05 Y127.564 E27.97116
G1 X103.773 Y128.498 E28.06893
G1 X105.565 Y129.333 E28.16757
G1 X107.164 Y129.974 E28.25351
G1 X107.4 Y130.216 E28.27038
G0 X107.77 Y130.216
G0 X117.475 Y127.322
G0 X117.591 Y127.043
G1 X117.134 Y126.857 E28.29499
G1 X116.647 Y126.499 E28.32515
G1 X116.318 Y126.067 E28.35224
G1 X116.119 Y125.604 E28.37738
G1 X116.04 Y125.088 E28.40342
G1 X116.096 Y124.468 E28.43448
G1 X116.361 Y123.895 E28.46598
G1 X116.632 Y123.548 E28.48794
G1 X117.018 Y123.238 E28.51264
G1 X117.336 Y123.085 E28.53025
G1 X116.37 Y123.046 E28.57848
G1 X114.71 Y122.86 E28.66182
G1 X112.97 Y122.53 E28.75017
G1 X111.301 Y122.081 E28.8364
G1 X109.674 Y121.51 E28.92243
G1 X108.083 Y120.815 E29.00904
G1 X106.589 Y120.025 E29.09336
G1 X105.102 Y119.09 E29.18099
G1 X103.724 Y118.073 E29.26644
G1 X102.42 Y116.95 E29.35229
G1 X101.178 Y115.707 E29.43996
G1 X100.054 Y114.396 E29.52611
G1 X99.059 Y113.047 E29.60974
G1 X98.115 Y111.548 E29.69812
G1 X97.316 Y110.037 E29.7834
G1 X96.627 Y108.456 E29.86944
G1 X96.055 Y106.818 E29.956
G1 X95.603 Y105.129 E30.04323
G1 X95.287 Y103.468 E30.12758
G1 X95.096 Y101.765 E30.21308
G1 X95.03 Y99.993 E30.30154
G1 X95.096 Y98.262 E30.38797
G1 X95.282 Y96.596 E30.4716
G1 X95.613 Y94.854 E30.56006
G1 X96.055 Y93.208 E30.64509
G1 X96.633 Y91.557 E30.73236
G1 X97.307 Y90.008 E30.81664
G1 X98.115 Y88.478 E30.90296
G1 X99.048 Y86.995 E30.99038
G1 X100.065 Y85.616 E31.07586
G1 X101.209 Y84.287 E31.16335
G1 X102.419 Y83.078 E31.24868
G1 X103.747 Y81.937 E31.33603
G1 X105.119 Y80.926 E31.42106
G1 X106.573 Y80.011 E31.50677
G1 X108.094 Y79.206 E31.59262
G1 X109.715 Y78.501 E31.68081
G1 X111.303 Y77.945 E31.76475
G1 X112.99 Y77.492 E31.8519
G1 X114.709 Y77.167 E31.93918
G1 X116.378 Y76.979 E32.02297
G1 X117.333 Y76.942 E32.07065
G1 X117.012 Y76.788 E32.08842
G1 X116.628 Y76.483 E32.11288
G1 X116.355 Y76.131 E32.13511
G1 X116.091 Y75.559 E32.16654
G1 X116.035 Y74.937 E32.19769
G1 X116.097 Y74.463 E32.22154
G1 X116.314 Y73.958 E32.24897
G1 X116.625 Y73.548 E32.27464
G1 X117.132 Y73.167 E32.30628
G1 X117.637 Y72.973 E32.33327
G1 X118.13 Y72.914 E32.35804
G1 X118.686 Y72.988 E32.38602
G1 X119.193 Y73.201 E32.41346
G1 X119.615 Y73.527 E32.44006
G1 X119.939 Y73.946 E32.46649
G1 X120.162 Y74.461 E32.49449
G1 X120.225 Y74.937 E32.51844
G1 X120.176 Y75.477 E32.54549
G1 X119.983 Y75.998 E32.57321
G1 X119.632 Y76.483 E32.60308
G1 X119.248 Y76.788 E32.62755
G1 X118.927 Y76.942 E32.64531
G1 X119.898 Y76.98 E32.69379
G1 X121.551 Y77.167 E32.77678
G1 X123.29 Y77.497 E32.86509
G1 X124.932 Y77.937 E32.9499
G1 X126.557 Y78.505 E33.03578
G1 X128.136 Y79.192 E33.12169
G1 X129.688 Y80.012 E33.20927
G1 X131.164 Y80.941 E33.29628
G1 X132.522 Y81.943 E33.38047
G1 X133.854 Y83.09 E33.46817
G1 X135.082 Y84.32 E33.55488
G1 X136.195 Y85.616 E33.64011
G1 X137.212 Y86.995 E33.7256
G1 X138.128 Y88.448 E33.81129
G1 X138.952 Y90.007 E33.89926
G1 X139.643 Y91.598 E33.9858
G1 X140.204 Y93.203 E34.07063
G1 X140.657 Y94.897 E34.15811
G1 X140.972 Y96.554 E34.24226
G1 X141.167 Y98.306 E34.33021
G1 X141.231 Y100.02 E34.41578
G1 X141.166 Y101.746 E34.50195
G1 X140.976 Y103.449 E34.58744
G1 X140.656 Y105.138 E34.6732
G1 X140.208 Y106.809 E34.75951
G1 X139.627 Y108.47 E34.8473
G1 X138.945 Y110.036 E34.93252
G1 X138.138 Y111.562 E35.01864
G1 X137.221 Y113.019 E35.10453
G1 X136.178 Y114.431 E35.19211
G1 X135.061 Y115.73 E35.27758
G1 X133.84 Y116.95 E35.3637
G1 X132.536 Y118.073 E35.44955
G1 X131.157 Y119.091 E35.53507
G1 X129.665 Y120.028 E35.62296
G1 X128.15 Y120.829 E35.70846
G1 X126.565 Y121.519 E35.79471
G1 X124.944 Y122.086 E35.88038
G1 X123.269 Y122.535 E35.9669
G1 X121.55 Y122.86 E36.05418
G1 X119.881 Y123.047 E36.13797
G1 X118.932 Y123.084 E36.18535
G1 X119.252 Y123.237 E36.20304
G1 X119.664 Y123.575 E36.22963
G1 X119.91 Y123.896 E36.24981
G1 X120.174 Y124.468 E36.28124
G1 X120.23 Y125.089 E36.31235
G1 X120.161 Y125.574 E36.33679
G1 X119.91 Y126.131 E36.36727
G1 X119.562 Y126.551 E36.39448
G1 X119.148 Y126.852 E36.42001
G1 X118.692 Y127.04 E36.44462
G1 X118.211 Y127.108 E36.46886
G1 X117.591 Y127.043 E36.49996
G0 X117.475 Y127.322
G0 X107.698 Y136.828
G0 X84.944 Y136.9
G0 X84.944 Y136.6
G1 X64.622 Y136.6 E37.51383
G1 X64.624 Y139.9 E37.67847
G1 X127.633 Y139.9 E40.822
G1 X127.633 Y136.6 E40.98664
G1 X126.87 Y136.6 E41.0247
G1 X126.616 Y136.544 E41.03768
G1 X126.444 Y136.423 E41.04817
G1 X126.336 Y136.275 E41.05731
G1 X126.27 Y136.092 E41.06702
G1 X126.272 Y131.265 E41.30784
G1 X126.319 Y131.084 E41.31717
G1 X126.491 Y130.858 E41.33134
G1 X126.616 Y130.779 E41.33871
G1 X128.822 Y130.067 E41.45436
G1 X130.665 Y129.346 E41.55309
G1 X132.468 Y128.507 E41.65231
G1 X134.213 Y127.561 E41.75134
G1 X135.889 Y126.511 E41.85001
G1 X137.506 Y125.353 E41.94923
G1 X139.039 Y124.104 E42.04789
G1 X140.499 Y122.754 E42.14709
G1 X141.869 Y121.319 E42.24607
G1 X143.146 Y119.807 E42.34481
G1 X144.327 Y118.212 E42.44382
G1 X145.399 Y116.569 E42.5417
G1 X146.386 Y114.819 E42.64194
G1 X147.248 Y113.039 E42.7406
G1 X148.003 Y111.2 E42.83978
G1 X148.64 Y109.321 E42.93877
G1 X149.162 Y107.406 E43.03779
G1 X149.559 Y105.469 E43.13644
G1 X149.838 Y103.501 E43.23561
G1 X149.994 Y101.52 E43.33474
G1 X150.025 Y99.539 E43.43359
G1 X149.935 Y97.559 E43.53247
G1 X149.719 Y95.587 E43.63145
G1 X149.384 Y93.631 E43.73045
G1 X148.927 Y91.701 E43.8294
G1 X148.351 Y89.804 E43.92831
G1 X147.658 Y87.946 E44.02724
G1 X146.852 Y86.138 E44.126
G1 X145.931 Y84.375 E44.22524
G1 X144.906 Y82.677 E44.32419
G1 X143.777 Y81.047 E44.42311
G1 X142.551 Y79.493 E44.52186
G1 X141.225 Y78.012 E44.62104
G1 X139.812 Y76.618 E44.72007
G1 X138.316 Y75.315 E44.81904
G1 X136.745 Y74.109 E44.91785
G1 X135.101 Y73.006 E45.01662
G1 X133.385 Y72 E45.11586
G1 X131.616 Y71.105 E45.21477
G1 X129.699 Y70.286 E45.31877
G1 X127.926 Y69.656 E45.41264
G1 X126.61 Y69.259 E45.48122
G1 X126.356 Y69.021 E45.49859
G1 X126.272 Y68.768 E45.51189
G1 X126.27 Y63.908 E45.75435
G1 X126.336 Y63.725 E45.76406
G1 X126.444 Y63.576 E45.77324
G1 X126.616 Y63.455 E45.78373
G1 X126.87 Y63.4 E45.7967
G1 X127.633 Y63.4 E45.83476
G1 X127.633 Y60.1 E45.9994
G1 X64.624 Y60.1 E49.14293
G1 X64.623 Y63.4 E49.30757
G1 X84.87 Y63.4 E50.3177
G1 X85.065 Y63.432 E50.32756
G1 X85.23 Y63.52 E50.33689
G1 X85.37 Y63.667 E50.34701
G1 X85.44 Y63.81 E50.35496
G1 X85.47 Y64 E50.36455
G1 X85.469 Y136.053 E53.95929
G1 X85.37 Y136.333 E53.97411
G1 X85.23 Y136.48 E53.98424
G1 X84.944 Y136.6 E53.99971
G0 X84.944 Y136.9
G0 X85.698 Y136.828
G0 X86.97 Y111.546
G0 X87.01 Y111.546
G1 X87.333 Y111.213 E54.02286
G1 X87.679 Y111.076 E54.04142
G1 X88.043 Y111.048 E54.05964
G1 X88.259 Y111.095 E54.07066
G1 X88.51 Y111.22 E54.08465
G1 X88.656 Y111.342 E54.09415
G1 X88.844 Y111.612 E54.11056
G1 X89.373 Y112.868 E54.17855
G1 X90.23 Y114.633 E54.27644
G1 X91.202 Y116.358 E54.37522
G1 X92.259 Y117.979 E54.47177
G1 X93.424 Y119.553 E54.56947
G1 X94.682 Y121.045 E54.66683
G1 X96.033 Y122.459 E54.7644
G1 X97.472 Y123.791 E54.86223
G1 X98.983 Y125.023 E54.95949
G1 X100.576 Y126.168 E55.05737
G1 X102.252 Y127.218 E55.15604
G1 X103.953 Y128.141 E55.25259
G1 X105.724 Y128.966 E55.35006
G1 X107.329 Y129.605 E55.43625
G1 X107.605 Y129.819 E55.45367
G1 X107.753 Y130.028 E55.46645
G1 X107.867 Y130.419 E55.48677
G1 X107.87 Y136.126 E55.77149
G1 X107.794 Y136.385 E55.78496
G1 X107.671 Y136.601 E55.79736
G1 X107.47 Y136.8 E55.81147
G1 X107.195 Y136.947 E55.82703
G1 X106.988 Y137 E55.83769
G1 X87.87 Y137 E56.79149
G1 X87.545 Y136.947 E56.80792
G1 X87.27 Y136.8 E56.82347
G1 X87.037 Y136.555 E56.84034
G1 X86.921 Y136.317 E56.85355
G1 X86.873 Y136.088 E56.86522
G1 X86.87 Y112.058 E58.06409
G1 X87.01 Y111.546 E58.09057
G0 X86.97 Y111.546
G0 X88.372 Y110.922
G0 X116.962 Y127.045
G0 X118.135 Y127.512
G1 X117.529 Y127.446 E58.12098
G1 X116.877 Y127.184 E58.15604
G1 X116.343 Y126.768 E58.18981
G1 X115.972 Y126.268 E58.22087
G1 X115.742 Y125.738 E58.24969
G1 X115.643 Y125.138 E58.28003
G1 X115.692 Y124.499 E58.31201
G1 X115.914 Y123.875 E58.34505
G1 X116.214 Y123.432 E58.37174
G1 X114.59 Y123.246 E58.45329
G1 X112.901 Y122.925 E58.53906
G1 X111.169 Y122.458 E58.62856
G1 X109.544 Y121.889 E58.71446
G1 X107.941 Y121.191 E58.80169
G1 X106.399 Y120.377 E58.88868
G1 X104.938 Y119.461 E58.97471
G1 X103.472 Y118.383 E59.06549
G1 X102.148 Y117.244 E59.15263
G1 X100.91 Y116.006 E59.23997
G1 X99.772 Y114.684 E59.327
G1 X98.695 Y113.223 E59.41755
G1 X97.799 Y111.8 E59.50145
