;FLAVOR:Marlin
;TIME:10345
;Filament used: 16.9877m
;Layer height: 0.3
;MINX:67.8
;MINY:49.801
;MINZ:0.3
;MAXX:142.15
;MAXY:150.2
;MAXZ:58.9
;Generated with Cura_SteamEngine 5.2.2
M140 S60
M105
M190 S60
M104 S185
M105
M109 S185
M82 ;absolute extrusion mode
G21 ;metric values
G90 ;absolute positioning
M82 ;set extruder to absolute mode
M107 ;start with the fan off
G28
G29
G92 E0 ;zero the extruded length again
G1 F60
M117 "please"
G92 E0
G92 E0
G1 F4800 E-6.5
;LAYER_COUNT:195
;LAYER:0
M107
G1 F600 Z1.3
G0 F1800 X85.147 Y57.502 Z1.3
;TYPE:SKIRT
G1 F600 Z0.3
G1 F4800 E0
G1 F1800 X85.562 Y56.944 E0.03469
G1 X85.979 Y56.413 E0.06838
G1 X86.589 Y55.719 E0.11448
G1 X87.175 Y55.103 E0.15689
G1 X87.784 Y54.529 E0.19864
G1 X88.351 Y54.032 E0.23626
G1 X88.918 Y53.583 E0.27234
G1 X89.62 Y53.065 E0.31587
G1 X90.217 Y52.671 E0.35156
G1 X90.953 Y52.222 E0.39457
G1 X91.674 Y51.833 E0.43544
G1 X92.187 Y51.574 E0.46411
G1 X93.12 Y51.168 E0.51488
G1 X93.853 Y50.882 E0.55413
G1 X94.489 Y50.671 E0.58756
G1 X95.341 Y50.419 E0.63189
G1 X96.079 Y50.244 E0.66973
G1 X96.902 Y50.078 E0.71161
G1 X97.689 Y49.964 E0.75129
G1 X98.467 Y49.878 E0.79034
G1 X99.302 Y49.829 E0.83207
G1 X100.309 Y49.801 E0.88233
G1 X105.381 Y49.801 E1.13537
G1 X106.412 Y49.816 E1.18681
G1 X107.551 Y49.875 E1.24371
G1 X108.443 Y49.981 E1.28853
G1 X109.207 Y50.097 E1.32708
G1 X109.942 Y50.248 E1.36452
G1 X110.59 Y50.401 E1.39773
G1 X111.559 Y50.686 E1.44813
G1 X112.283 Y50.931 E1.48626
G1 X112.926 Y51.186 E1.52077
G1 X113.574 Y51.464 E1.55595
G1 X114.472 Y51.909 E1.60595
G1 X115.141 Y52.276 E1.64402
G1 X115.833 Y52.704 E1.68461
G1 X116.487 Y53.14 E1.72382
G1 X117.126 Y53.616 E1.76358
G1 X117.735 Y54.103 E1.80248
G1 X118.281 Y54.589 E1.83895
G1 X118.897 Y55.175 E1.88136
G1 X119.471 Y55.784 E1.92312
G1 X119.968 Y56.351 E1.96073
G1 X120.417 Y56.918 E1.99682
G1 X120.935 Y57.62 E2.04034
G1 X121.329 Y58.217 E2.07603
G1 X121.778 Y58.953 E2.11904
G1 X122.167 Y59.674 E2.15991
G1 X122.426 Y60.187 E2.18858
G1 X122.832 Y61.12 E2.23935
G1 X123.118 Y61.853 E2.2786
G1 X123.356 Y62.574 E2.31648
G1 X123.581 Y63.341 E2.35636
G1 X123.756 Y64.08 E2.39425
G1 X123.922 Y64.902 E2.43609
G1 X124.036 Y65.688 E2.47571
G1 X124.122 Y66.466 E2.51476
G1 X124.171 Y67.302 E2.55654
G1 X124.199 Y68.312 E2.60695
G1 X124.2 Y69.977 E2.69002
G1 X124.24 Y72.775 E2.82962
G1 X124.355 Y75.492 E2.9653
G1 X124.55 Y78.238 E3.10264
G1 X124.818 Y80.942 E3.2382
G1 X125.166 Y83.666 E3.37521
G1 X125.591 Y86.366 E3.51157
G1 X126.091 Y89.056 E3.64808
G1 X126.658 Y91.703 E3.78313
G1 X127.328 Y94.427 E3.92308
G1 X128.041 Y97.018 E4.05715
G1 X128.851 Y99.665 E4.19526
G1 X129.726 Y102.26 E4.33188
G1 X130.662 Y104.797 E4.46679
G1 X131.696 Y107.373 E4.60528
G1 X132.781 Y109.866 E4.74092
G1 X133.947 Y112.351 E4.87787
G1 X135.173 Y114.788 E5.01397
G1 X136.467 Y117.185 E5.14987
G1 X137.851 Y119.584 E5.28805
G1 X139.863 Y122.813 E5.47786
G1 X140.298 Y123.484 E5.51775
G1 X140.726 Y124.225 E5.56044
G1 X141.034 Y124.819 E5.59383
G1 X141.454 Y125.815 E5.64775
G1 X141.83 Y127.073 E5.71326
G1 X141.982 Y127.848 E5.75266
G1 X142.056 Y128.388 E5.77985
G1 X142.134 Y129.316 E5.82631
G1 X142.15 Y129.866 E5.85377
G1 X142.124 Y130.611 E5.89096
G1 X142.055 Y131.694 E5.9451
G1 X141.934 Y132.414 E5.98152
G1 X141.768 Y133.12 E6.0177
G1 X141.549 Y133.899 E6.05808
G1 X141.359 Y134.436 E6.08649
G1 X141.068 Y135.119 E6.12353
G1 X140.776 Y135.702 E6.15606
G1 X140.393 Y136.389 E6.1953
G1 X139.876 Y137.147 E6.24108
G1 X139.442 Y137.724 E6.2771
G1 X139.035 Y138.192 E6.30804
G1 X138.524 Y138.731 E6.3451
G1 X138.155 Y139.07 E6.3701
G1 X137.591 Y139.549 E6.40701
G1 X137.165 Y139.869 E6.4336
G1 X136.563 Y140.288 E6.47019
G1 X135.778 Y140.735 E6.51526
G1 X135.06 Y141.108 E6.55562
G1 X134.093 Y141.496 E6.6076
G1 X133.237 Y141.755 E6.65222
G1 X132.534 Y141.936 E6.68844
G1 X132.008 Y142.037 E6.71516
G1 X129.804 Y142.423 E6.82679
G1 X127.13 Y142.963 E6.96289
G1 X124.442 Y143.588 E7.10057
G1 X121.773 Y144.287 E7.23822
G1 X119.168 Y145.048 E7.37362
G1 X116.577 Y145.887 E7.50949
G1 X113.965 Y146.814 E7.64777
G1 X111.456 Y147.785 E7.78199
G1 X107.633 Y149.422 E7.98947
G1 X106.579 Y149.901 E8.04723
G1 X106.103 Y150.073 E8.07248
G1 X105.279 Y150.2 E8.11408
G1 X85.661 Y150.2 E9.09282
G1 X84.96 Y150.19 E9.1278
G1 X84.457 Y150.143 E9.153
G1 X83.967 Y150.017 E9.17824
G1 X83.504 Y149.815 E9.20345
G1 X82.969 Y149.475 E9.23507
G1 X82.26 Y148.779 E9.28464
G1 X81.283 Y147.788 E9.35407
G1 X79.281 Y145.87 E9.49239
G1 X77.267 Y144.046 E9.62795
G1 X75.163 Y142.248 E9.76602
G1 X73.043 Y140.537 E9.90194
G1 X72.094 Y139.805 E9.96174
G1 X71.554 Y139.368 E9.99639
G1 X70.839 Y138.676 E10.04604
G1 X70.4 Y138.183 E10.07897
G1 X69.812 Y137.401 E10.12778
G1 X69.154 Y136.339 E10.19011
G1 X68.722 Y135.402 E10.24159
G1 X68.487 Y134.818 E10.27299
G1 X68.287 Y134.199 E10.30545
G1 X68.071 Y133.412 E10.34616
G1 X67.88 Y132.226 E10.40609
G1 X67.822 Y131.316 E10.45159
G1 X67.8 Y130.149 E10.50982
G1 X67.8 Y129.297 E10.55233
G1 X67.809 Y128.693 E10.58246
G1 X67.849 Y127.84 E10.62507
G1 X68.049 Y126.639 E10.68581
G1 X68.207 Y126.022 E10.71758
G1 X68.541 Y125.079 E10.7675
G1 X68.871 Y124.293 E10.81002
G1 X69.084 Y123.83 E10.83545
G1 X70.477 Y121.296 E10.97972
G1 X71.736 Y118.842 E11.11732
G1 X72.918 Y116.37 E11.25402
G1 X74.019 Y113.886 E11.38958
G1 X75.064 Y111.343 E11.52674
G1 X76.037 Y108.766 E11.66417
G1 X76.928 Y106.188 E11.80025
G1 X77.738 Y103.614 E11.93487
G1 X78.502 Y100.919 E12.07463
G1 X79.169 Y98.279 E12.21048
G1 X79.758 Y95.641 E12.34533
G1 X80.284 Y92.928 E12.4832
G1 X80.729 Y90.222 E12.62002
G1 X81.097 Y87.512 E12.75646
G1 X81.388 Y84.789 E12.89308
G1 X81.602 Y82.07 E13.02915
G1 X81.739 Y79.321 E13.16647
G1 X81.801 Y75.863 E13.33902
G1 X81.801 Y68.627 E13.70003
G1 X81.816 Y67.587 E13.75192
G1 X81.875 Y66.449 E13.80877
G1 X81.981 Y65.557 E13.85358
G1 X82.097 Y64.793 E13.89214
G1 X82.248 Y64.058 E13.92957
G1 X82.401 Y63.41 E13.96279
G1 X82.686 Y62.441 E14.01318
G1 X82.931 Y61.717 E14.05131
G1 X83.186 Y61.074 E14.08582
G1 X83.464 Y60.426 E14.121
G1 X83.908 Y59.53 E14.17089
G1 X84.276 Y58.858 E14.20912
G1 X84.703 Y58.168 E14.2496
G1 X85.147 Y57.502 E14.28953
G1 F4800 E7.78953
G1 F600 Z1.3
G0 F1800 X115.582 Y130.004 Z1.3
G1 F600 Z0.3
G1 F4800 E14.28953
G1 F1800 X116.183 Y129.62 E14.32511
G1 X117.207 Y128.883 E14.38806
G1 X117.627 Y128.813 E14.4093
G1 X121.892 Y128.813 E14.62208
G1 X121.854 Y129.084 E14.63573
G1 X121.825 Y129.725 E14.66775
G1 X121.822 Y130.381 E14.70047
G1 X121.864 Y131.213 E14.74204
G1 X118.2 Y131.213 E14.92483
G1 X117.24 Y131.158 E14.97281
G1 X116.195 Y130.402 E15.03716
G1 X115.582 Y130.004 E15.07362
G0 X115.335 Y129.694
G1 X115.949 Y129.296 E15.11012
G1 X117.018 Y128.526 E15.17585
G1 X117.591 Y128.413 E15.20499
G1 X122.351 Y128.413 E15.44247
G1 X122.251 Y129.139 E15.47903
G1 X122.225 Y129.727 E15.50839
G1 X122.222 Y130.383 E15.54112
G1 X122.259 Y131.151 E15.57948
G1 X122.327 Y131.613 E15.60278
G1 X118.194 Y131.613 E15.80897
G1 X117.188 Y131.555 E15.85925
G1 X116.922 Y131.421 E15.87411
G1 X115.961 Y130.726 E15.93328
G1 X115.315 Y130.309 E15.97164
G1 X114.722 Y130.007 E16.00484
G1 X115.335 Y129.694 E16.03918
G0 X115.223 Y129.295
G1 X115.716 Y128.971 E16.06861
G1 X116.826 Y128.173 E16.13681
G1 X117.025 Y128.101 E16.14737
G1 X117.555 Y128.013 E16.17417
G1 X122.809 Y128.013 E16.4363
G1 X122.648 Y129.193 E16.49571
G1 X122.625 Y129.729 E16.52248
G1 X122.622 Y130.385 E16.55521
G1 X122.659 Y131.132 E16.59252
G1 X122.79 Y132.013 E16.63696
G1 X118.171 Y132.013 E16.8674
G1 X117.122 Y131.953 E16.91982
G1 X116.707 Y131.759 E16.94267
G1 X115.727 Y131.05 E17.00302
G1 X115.098 Y130.645 E17.04034
G1 X114.429 Y130.309 E17.07769
G1 X113.596 Y129.997 E17.12207
G1 X113.866 Y129.922 E17.13605
G1 X114.561 Y129.645 E17.17338
G1 X115.223 Y129.295 E17.21074
G0 X115.223 Y128.833
G1 X116.636 Y127.816 E17.29759
G1 X116.937 Y127.711 E17.3135
G1 X117.525 Y127.613 E17.34324
G1 X123.318 Y127.613 E17.63225
G1 X123.141 Y128.526 E17.67865
G1 X123.027 Y129.384 E17.72183
G1 X123.022 Y130.387 E17.77187
G1 X123.059 Y131.112 E17.80809
G1 X123.191 Y131.996 E17.85268
G1 X123.31 Y132.413 E17.87432
G1 X118.166 Y132.413 E18.13095
G1 X117.053 Y132.349 E18.18657
G1 X116.845 Y132.29 E18.19736
G1 X116.481 Y132.09 E18.21808
G1 X115.492 Y131.375 E18.27896
G1 X114.881 Y130.982 E18.31521
G1 X114.23 Y130.659 E18.35146
G1 X113.548 Y130.409 E18.3877
G1 X112.843 Y130.236 E18.42392
G1 X112.123 Y130.142 E18.46015
G1 X111.244 Y130.122 E18.50401
G1 X110.518 Y130.16 E18.54028
G1 X109.801 Y130.278 E18.57653
G1 X109.102 Y130.473 E18.61274
G1 X108.428 Y130.745 E18.649
G1 X107.665 Y131.155 E18.69221
G1 X106.362 Y132.089 E18.77219
G1 X105.834 Y132.341 E18.80138
G1 X104.315 Y132.619 E18.87843
G1 X103.608 Y132.789 E18.9147
G1 X102.925 Y133.036 E18.95094
G1 X102.273 Y133.356 E18.98717
G1 X101.661 Y133.746 E19.02338
G1 X101.094 Y134.201 E19.05965
G1 X100.315 Y135.011 E19.11571
G1 X99.746 Y135.775 E19.16324
G1 X99.379 Y136.401 E19.19944
G1 X99.083 Y137.065 E19.23571
G1 X98.862 Y137.757 E19.27195
G1 X98.718 Y138.469 E19.3082
G1 X98.65 Y139.417 E19.35561
G1 X98.65 Y140.4 E19.40466
G1 X91.6 Y140.4 E19.75638
G1 X91.6 Y139.295 E19.81151
G1 X91.56 Y138.57 E19.84774
G1 X91.441 Y137.853 E19.884
G1 X91.243 Y137.154 E19.92024
G1 X90.97 Y136.481 E19.95647
G1 X90.625 Y135.842 E19.9927
G1 X90.211 Y135.245 E20.02895
G1 X89.543 Y134.487 E20.07936
G1 X88.844 Y133.862 E20.12614
G1 X88.253 Y133.439 E20.1624
G1 X87.619 Y133.085 E20.19862
G1 X86.95 Y132.802 E20.23486
G1 X86.254 Y132.594 E20.2711
G1 X85.539 Y132.464 E20.30736
G1 X84.718 Y132.413 E20.3484
G1 X78.969 Y132.413 E20.63522
G1 X78.499 Y132.309 E20.65923
G1 X78.208 Y132.15 E20.67578
G1 X77.962 Y131.938 E20.69198
G1 X77.788 Y131.684 E20.70734
G1 X77.665 Y131.366 E20.72435
G1 X77.6 Y130.796 E20.75297
G1 X77.6 Y128.864 E20.84936
G1 X77.795 Y128.33 E20.87772
G1 X77.988 Y128.054 E20.89452
G1 X78.199 Y127.871 E20.90846
G1 X78.488 Y127.725 E20.92461
G1 X78.857 Y127.613 E20.94385
G1 X84.718 Y127.613 E21.23626
G1 X85.443 Y127.573 E21.27248
G1 X86.16 Y127.454 E21.30874
G1 X86.859 Y127.256 E21.34499
G1 X87.532 Y126.983 E21.38122
G1 X88.171 Y126.638 E21.41745
G1 X88.768 Y126.224 E21.4537
G1 X89.526 Y125.556 E21.5041
G1 X90.151 Y124.857 E21.55088
G1 X90.574 Y124.266 E21.58714
G1 X90.928 Y123.632 E21.62337
G1 X91.211 Y122.963 E21.65961
G1 X91.419 Y122.267 E21.69585
G1 X91.549 Y121.552 E21.73211
G1 X91.6 Y120.731 E21.77315
G1 X91.6 Y120.3 E21.79465
G1 X99.018 Y120.3 E22.16473
G1 X99.28 Y120.945 E22.19947
G1 X99.625 Y121.584 E22.2357
G1 X100.039 Y122.181 E22.27194
G1 X100.515 Y122.729 E22.30815
G1 X101.452 Y123.548 E22.37024
G1 X102.089 Y123.965 E22.40823
G1 X102.596 Y124.848 E22.45902
G1 X102.992 Y125.457 E22.49527
G1 X103.453 Y126.018 E22.53149
G1 X103.972 Y126.526 E22.56772
G1 X104.544 Y126.974 E22.60397
G1 X105.162 Y127.356 E22.64022
G1 X105.681 Y127.61 E22.66905
G1 X106.356 Y127.932 E22.70636
G1 X107.424 Y128.685 E22.77155
G1 X108.039 Y129.071 E22.80778
G1 X108.694 Y129.386 E22.84404
G1 X109.379 Y129.628 E22.88028
G1 X110.086 Y129.792 E22.91649
G1 X110.807 Y129.879 E22.95272
G1 X111.659 Y129.89 E22.99523
G1 X112.384 Y129.846 E23.03147
G1 X113.1 Y129.723 E23.06772
G1 X113.798 Y129.522 E23.10395
G1 X114.47 Y129.246 E23.1402
G1 X115.223 Y128.833 E23.18305
G0 X115.248 Y128.322
G1 X116.44 Y127.465 E23.25629
G1 X116.845 Y127.321 E23.27773
G1 X117.49 Y127.213 E23.31036
G1 X123.822 Y127.213 E23.62627
G1 X123.693 Y127.766 E23.6546
G1 X123.534 Y128.601 E23.697
G1 X123.426 Y129.417 E23.73807
G1 X123.422 Y130.389 E23.78656
G1 X123.459 Y131.092 E23.82168
G1 X123.586 Y131.924 E23.86367
G1 X123.838 Y132.813 E23.90977
G1 X118.16 Y132.813 E24.19305
G1 X116.984 Y132.745 E24.25182
G1 X116.715 Y132.669 E24.26576
G1 X116.264 Y132.426 E24.29132
G1 X115.258 Y131.699 E24.35325
G1 X114.665 Y131.319 E24.38838
G1 X114.033 Y131.01 E24.42348
G1 X113.369 Y130.773 E24.45866
G1 X112.684 Y130.614 E24.49374
G1 X111.482 Y130.509 E24.55393
G1 X110.54 Y130.56 E24.601
G1 X109.846 Y130.678 E24.63612
G1 X109.169 Y130.873 E24.67127
G1 X108.52 Y131.144 E24.70636
G1 X107.615 Y131.683 E24.75891
G1 X106.574 Y132.429 E24.8228
G1 X106.073 Y132.668 E24.8505
G1 X105.726 Y132.767 E24.8685
G1 X104.387 Y133.013 E24.93642
G1 X103.703 Y133.179 E24.97154
G1 X103.042 Y133.421 E25.00665
G1 X102.413 Y133.737 E25.04177
G1 X101.823 Y134.122 E25.07692
G1 X101.282 Y134.572 E25.11203
G1 X100.613 Y135.278 E25.16055
G1 X100.068 Y136.013 E25.2062
G1 X99.715 Y136.623 E25.24136
G1 X99.434 Y137.268 E25.27646
G1 X99.228 Y137.941 E25.31158
G1 X99.1 Y138.634 E25.34674
G1 X99.05 Y139.417 E25.38588
G1 X99.05 Y140.8 E25.45488
G1 X91.2 Y140.8 E25.84652
G1 X91.2 Y139.295 E25.9216
G1 X91.16 Y138.592 E25.95673
G1 X91.041 Y137.898 E25.99186
G1 X90.843 Y137.223 E26.02696
G1 X90.571 Y136.574 E26.06206
G1 X90.226 Y135.96 E26.0972
G1 X89.815 Y135.389 E26.1323
G1 X89.245 Y134.756 E26.1748
G1 X88.577 Y134.16 E26.21946
G1 X88.002 Y133.754 E26.25458
G1 X87.384 Y133.416 E26.28972
G1 X86.733 Y133.149 E26.32482
G1 X86.055 Y132.959 E26.35995
G1 X85.36 Y132.846 E26.39508
G1 X84.718 Y132.813 E26.42715
G1 X78.931 Y132.813 E26.71587
G1 X78.553 Y132.744 E26.73504
G1 X78.196 Y132.61 E26.75406
G1 X77.975 Y132.475 E26.76698
G1 X77.663 Y132.206 E26.78753
G1 X77.431 Y131.866 E26.80807
G1 X77.273 Y131.454 E26.83008
G1 X77.2 Y130.805 E26.86267
G1 X77.2 Y128.828 E26.9613
G1 X77.435 Y128.152 E26.99701
G1 X77.685 Y127.791 E27.01891
G1 X78.12 Y127.451 E27.04646
G1 X78.691 Y127.245 E27.07674
G1 X79.131 Y127.213 E27.09875
G1 X84.718 Y127.213 E27.37749
G1 X85.421 Y127.173 E27.41262
G1 X86.115 Y127.054 E27.44775
G1 X86.79 Y126.856 E27.48284
G1 X87.439 Y126.584 E27.51795
G1 X88.053 Y126.239 E27.55309
G1 X88.624 Y125.828 E27.58819
G1 X89.257 Y125.258 E27.63068
G1 X89.853 Y124.59 E27.67535
G1 X90.259 Y124.015 E27.71046
G1 X90.597 Y123.397 E27.74561
G1 X90.864 Y122.746 E27.78071
G1 X91.054 Y122.068 E27.81584
G1 X91.167 Y121.373 E27.85097
G1 X91.2 Y120.731 E27.88304
G1 X91.2 Y119.9 E27.9245
G1 X99.318 Y119.9 E28.32951
G1 X99.407 Y120.203 E28.34526
G1 X99.679 Y120.852 E28.38037
G1 X100.024 Y121.466 E28.41551
G1 X100.435 Y122.037 E28.45061
G1 X100.909 Y122.558 E28.48575
G1 X101.705 Y123.236 E28.53791
G1 X102.389 Y123.683 E28.57868
G1 X102.943 Y124.648 E28.63419
G1 X103.328 Y125.238 E28.66934
G1 X103.777 Y125.78 E28.70445
G1 X104.285 Y126.268 E28.7396
G1 X104.844 Y126.695 E28.77469
G1 X105.554 Y127.119 E28.81595
G1 X106.454 Y127.512 E28.86494
G1 X107.654 Y128.358 E28.93819
G1 X108.252 Y128.731 E28.97336
G1 X108.887 Y129.033 E29.00844
G1 X109.553 Y129.262 E29.04357
G1 X110.241 Y129.413 E29.07872
G1 X111.422 Y129.505 E29.13781
G1 X112.36 Y129.446 E29.1847
G1 X113.053 Y129.324 E29.21981
G1 X113.728 Y129.123 E29.25495
G1 X114.375 Y128.847 E29.29004
G1 X115.248 Y128.322 E29.34086
G0 X115.015 Y127.997
G1 X116.242 Y127.113 E29.41631
G1 X116.758 Y126.93 E29.44363
G1 X117.46 Y126.813 E29.47913
G1 X124.386 Y126.813 E29.82467
G1 X124.146 Y127.528 E29.8623
G1 X123.927 Y128.676 E29.9206
G1 X123.826 Y129.448 E29.95945
G1 X123.822 Y130.39 E30.00645
G1 X123.859 Y131.07 E30.04042
G1 X124.023 Y132.005 E30.08778
G1 X124.28 Y132.912 E30.13481
G1 X124.392 Y133.213 E30.15084
G1 X118.137 Y133.213 E30.4629
G1 X116.924 Y133.143 E30.52352
G1 X116.575 Y133.044 E30.54161
G1 X116.044 Y132.762 E30.57161
G1 X115.023 Y132.023 E30.63449
G1 X114.449 Y131.657 E30.66845
G1 X113.836 Y131.361 E30.70242
G1 X113.192 Y131.139 E30.7364
G1 X112.527 Y130.994 E30.77036
G1 X111.469 Y130.909 E30.82331
G1 X110.562 Y130.96 E30.86863
G1 X109.891 Y131.078 E30.90262
G1 X109.239 Y131.273 E30.93657
G1 X108.614 Y131.544 E30.97056
G1 X107.848 Y132.008 E31.01524
G1 X106.796 Y132.762 E31.07981
G1 X106.199 Y133.049 E31.11286
G1 X105.829 Y133.155 E31.13206
G1 X104.459 Y133.406 E31.20155
G1 X103.798 Y133.568 E31.2355
G1 X103.16 Y133.806 E31.26948
G1 X102.554 Y134.118 E31.30348
G1 X101.989 Y134.498 E31.33745
G1 X101.473 Y134.942 E31.37141
G1 X100.907 Y135.551 E31.41289
G1 X100.39 Y136.252 E31.45635
G1 X100.052 Y136.843 E31.49032
G1 X99.787 Y137.47 E31.52428
G1 X99.596 Y138.124 E31.55827
G1 X99.483 Y138.795 E31.59221
G1 X99.45 Y139.417 E31.62329
G1 X99.45 Y141.2 E31.71224
