;FLAVOR:Marlin
;TIME:725
;Filament used: 0.95975m
;Layer height: 0.3
;MINX:83
;MINY:90
;MINZ:0.3
;MAXX:127
;MAXY:110
;MAXZ:15.9
;Generated with Cura_SteamEngine 5.3.1
M140 S60
M105
M190 S60
M104 S185
M105
M109 S185
M82 ;absolute extrusion mode
G21 ;metric values
G90 ;absolute positioning
M82 ;set extruder to absolute mode
M107 ;start with the fan off
G28
G29
G92 E0 ;zero the extruded length again
G1 F60
M117 "please"
G92 E0
G92 E0
G1 F4800 E-6.5
;LAYER_COUNT:53
;LAYER:0
M107
G1 F600 Z1.3
G0 F1800 X84.789 Y91.704 Z1.3
;TYPE:SKIRT
G1 F600 Z0.3
G1 F4800 E0
G1 F1800 X85.18 Y91.383 E0.02524
G1 X85.617 Y91.128 E0.05048
G1 X86.088 Y90.944 E0.07571
G1 X86.582 Y90.838 E0.10092
G1 X87.027 Y90.801 E0.12319
G1 X122.339 Y90.8 E1.88492
G1 X123.037 Y90.81 E1.91974
G1 X123.54 Y90.857 E1.94495
G1 X124.03 Y90.983 E1.97019
G1 X124.494 Y91.185 E1.99544
G1 X124.92 Y91.457 E2.02065
G1 X125.298 Y91.792 E2.04585
G1 X125.618 Y92.183 E2.07106
G1 X125.873 Y92.62 E2.0963
G1 X126.056 Y93.091 E2.12151
G1 X126.163 Y93.585 E2.14673
G1 X126.199 Y94.24 E2.17945
G1 X126.2 Y105.304 E2.73144
G1 X126.191 Y106.031 E2.76771
G1 X126.145 Y106.534 E2.79291
G1 X126.02 Y107.024 E2.81814
G1 X125.819 Y107.488 E2.84337
G1 X125.548 Y107.915 E2.8686
G1 X125.213 Y108.294 E2.89384
G1 X124.823 Y108.615 E2.91904
G1 X124.387 Y108.871 E2.94426
G1 X123.916 Y109.054 E2.96947
G1 X123.422 Y109.162 E2.9947
G1 X122.76 Y109.199 E3.02778
G1 X87.666 Y109.2 E4.77862
G1 X86.968 Y109.191 E4.81345
G1 X86.464 Y109.144 E4.8387
G1 X85.974 Y109.019 E4.86393
G1 X85.51 Y108.818 E4.88916
G1 X85.084 Y108.547 E4.91435
G1 X84.705 Y108.212 E4.93959
G1 X84.384 Y107.821 E4.96483
G1 X84.129 Y107.385 E4.99002
G1 X83.945 Y106.914 E5.01525
G1 X83.838 Y106.42 E5.04047
G1 X83.801 Y105.967 E5.06315
G1 X83.8 Y94.631 E5.6287
G1 X83.809 Y93.966 E5.66188
G1 X83.856 Y93.462 E5.68713
G1 X83.982 Y92.973 E5.71233
G1 X84.183 Y92.509 E5.73756
G1 X84.454 Y92.082 E5.76279
G1 X84.789 Y91.704 E5.78799
G0 X84.535 Y91.395
G1 X84.978 Y91.038 E5.81637
G1 X85.471 Y90.755 E5.84473
G1 X85.942 Y90.571 E5.86996
G1 X86.549 Y90.439 E5.90095
G1 X86.994 Y90.402 E5.92323
G1 X122.345 Y90.4 E7.6869
G1 X123.043 Y90.41 E7.72172
G1 X123.64 Y90.47 E7.75166
G1 X124.19 Y90.616 E7.78005
G1 X124.654 Y90.818 E7.80529
G1 X125.135 Y91.12 E7.83363
G1 X125.608 Y91.539 E7.86515
G1 X125.928 Y91.93 E7.89036
G1 X126.246 Y92.475 E7.92184
G1 X126.429 Y92.946 E7.94705
G1 X126.554 Y93.5 E7.97539
G1 X126.599 Y94.24 E8.01237
G1 X126.6 Y105.309 E8.56461
G1 X126.591 Y106.036 E8.60088
G1 X126.533 Y106.633 E8.63081
G1 X126.408 Y107.123 E8.65603
G1 X126.157 Y107.702 E8.68752
G1 X125.848 Y108.18 E8.71591
G1 X125.467 Y108.603 E8.74432
G1 X125.026 Y108.96 E8.77262
G1 X124.59 Y109.216 E8.79785
G1 X124.061 Y109.427 E8.82626
G1 X123.507 Y109.553 E8.85461
G1 X122.76 Y109.599 E8.89195
G1 X87.661 Y109.6 E10.64304
G1 X86.963 Y109.591 E10.67787
G1 X86.365 Y109.532 E10.70785
G1 X85.875 Y109.407 E10.73308
G1 X85.351 Y109.185 E10.76147
G1 X84.819 Y108.847 E10.79291
G1 X84.44 Y108.512 E10.81815
G1 X84.075 Y108.075 E10.84656
G1 X83.756 Y107.531 E10.87802
G1 X83.572 Y107.06 E10.90325
G1 X83.439 Y106.453 E10.93425
G1 X83.402 Y106 E10.95692
G1 X83.4 Y94.626 E11.52437
G1 X83.409 Y93.961 E11.55755
G1 X83.469 Y93.362 E11.58759
G1 X83.615 Y92.814 E11.61588
G1 X83.845 Y92.295 E11.6442
G1 X84.116 Y91.868 E11.66944
G1 X84.535 Y91.395 E11.70096
G0 X84.259 Y91.104
G1 X84.779 Y90.691 E11.73409
G1 X85.325 Y90.382 E11.76539
G1 X85.796 Y90.198 E11.79062
G1 X86.516 Y90.04 E11.82739
G1 X86.961 Y90.003 E11.84967
G1 X122.351 Y90 E13.61529
G1 X123.049 Y90.01 E13.65011
G1 X123.743 Y90.083 E13.68493
G1 X124.293 Y90.229 E13.71332
G1 X124.814 Y90.451 E13.74157
G1 X125.348 Y90.781 E13.77289
G1 X125.918 Y91.286 E13.81088
G1 X126.238 Y91.677 E13.83609
G1 X126.619 Y92.33 E13.87381
G1 X126.802 Y92.801 E13.89902
G1 X126.944 Y93.412 E13.93031
G1 X126.999 Y94.24 E13.97171
G1 X127 Y105.314 E14.5242
G1 X126.991 Y106.041 E14.56047
G1 X126.921 Y106.732 E14.59512
G1 X126.796 Y107.222 E14.62035
G1 X126.511 Y107.892 E14.65667
G1 X126.145 Y108.448 E14.68988
G1 X125.719 Y108.914 E14.72138
G1 X125.229 Y109.305 E14.75266
G1 X124.738 Y109.588 E14.78093
G1 X124.209 Y109.799 E14.80935
G1 X123.596 Y109.943 E14.84076
G1 X122.76 Y109.999 E14.88256
G1 X87.656 Y110 E16.63391
G1 X86.958 Y109.991 E16.66873
G1 X86.266 Y109.92 E16.70344
G1 X85.776 Y109.795 E16.72867
G1 X85.136 Y109.523 E16.76336
G1 X84.604 Y109.185 E16.79481
G1 X84.175 Y108.812 E16.82317
G1 X83.747 Y108.306 E16.85623
G1 X83.383 Y107.677 E16.89249
G1 X83.181 Y107.146 E16.92083
G1 X83.04 Y106.486 E16.9545
G1 X83.003 Y106.033 E16.97718
G1 X83 Y94.621 E17.54653
G1 X83.011 Y93.921 E17.58145
G1 X83.082 Y93.259 E17.61467
G1 X83.228 Y92.711 E17.64297
G1 X83.479 Y92.133 E17.6744
G1 X83.778 Y91.654 E17.70257
G1 X84.259 Y91.104 E17.73903
G1 F4800 E11.23903
G1 F600 Z1.3
G0 F1800 X87.2 Y94.2 Z1.3
G1 F600 Z0.3
G1 F4800 E17.73903
G1 F1800 X122.8 Y94.2 E19.51512
G1 X122.8 Y105.8 E20.09384
G1 X87.2 Y105.8 E21.86994
G1 X87.2 Y94.2 E22.44866
G0 X87.6 Y94.6
G1 X122.4 Y94.6 E24.18484
G1 X122.4 Y105.4 E24.72366
G1 X87.6 Y105.4 E26.45983
G1 X87.6 Y94.6 E26.99865
G0 X88 Y95
G1 X103.595 Y95 E27.77669
G1 X102.927 Y95.23 E27.81193
G1 X102.752 Y95.31 E27.82153
G1 X102.062 Y95.709 E27.8613
G1 X101.908 Y95.819 E27.87074
G1 X101.3 Y96.346 E27.91088
G1 X101.168 Y96.485 E27.92045
G1 X100.677 Y97.111 E27.96014
G1 X100.575 Y97.269 E27.96952
G1 X100.21 Y97.976 E28.00922
G1 X100.139 Y98.154 E28.01878
G1 X99.913 Y98.926 E28.05891
G1 X99.878 Y99.11 E28.06825
G1 X99.801 Y99.903 E28.108
G1 X99.801 Y100.097 E28.11768
G1 X99.878 Y100.89 E28.15743
G1 X99.913 Y101.074 E28.16677
G1 X100.139 Y101.846 E28.20691
G1 X100.21 Y102.024 E28.21647
G1 X100.575 Y102.731 E28.25616
G1 X100.677 Y102.889 E28.26554
G1 X101.168 Y103.515 E28.30524
G1 X101.3 Y103.654 E28.3148
G1 X101.908 Y104.181 E28.35494
G1 X102.062 Y104.291 E28.36438
G1 X102.752 Y104.69 E28.40415
G1 X102.927 Y104.77 E28.41375
G1 X103.595 Y105 E28.449
G1 X88 Y105 E29.22703
G1 X88 Y95 E29.72594
G0 X88.4 Y95.4
G1 X101.81 Y95.4 E30.39496
G1 X101.646 Y95.517 E30.40501
G1 X101.038 Y96.044 E30.44516
G1 X100.853 Y96.238 E30.45853
G1 X100.362 Y96.864 E30.49822
G1 X100.22 Y97.086 E30.51137
G1 X99.855 Y97.793 E30.55106
G1 X99.755 Y98.042 E30.56445
G1 X99.529 Y98.814 E30.60458
G1 X99.48 Y99.072 E30.61769
G1 X99.403 Y99.865 E30.65743
G1 X99.403 Y100.135 E30.6709
G1 X99.48 Y100.928 E30.71065
G1 X99.529 Y101.186 E30.72376
G1 X99.755 Y101.958 E30.76389
G1 X99.855 Y102.207 E30.77727
G1 X100.22 Y102.914 E30.81697
G1 X100.362 Y103.136 E30.83012
G1 X100.853 Y103.762 E30.86981
G1 X101.038 Y103.956 E30.88318
G1 X101.646 Y104.483 E30.92333
G1 X101.81 Y104.6 E30.93338
G1 X88.4 Y104.6 E31.6024
G1 X88.4 Y95.4 E32.06139
G0 X88.8 Y95.8
G1 X100.721 Y95.8 E32.65613
G1 X100.539 Y95.991 E32.6693
G1 X100.048 Y96.617 E32.70899
G1 X99.865 Y96.902 E32.72589
G1 X99.5 Y97.609 E32.76558
G1 X99.372 Y97.929 E32.78278
G1 X99.146 Y98.701 E32.82291
G1 X99.081 Y99.033 E32.83979
G1 X99.004 Y99.826 E32.87954
G1 X99.004 Y100.174 E32.8969
G1 X99.081 Y100.967 E32.93665
G1 X99.146 Y101.299 E32.95352
G1 X99.372 Y102.071 E32.99366
G1 X99.5 Y102.391 E33.01085
G1 X99.865 Y103.098 E33.05055
G1 X100.048 Y103.383 E33.06744
G1 X100.539 Y104.009 E33.10714
G1 X100.721 Y104.2 E33.1203
G1 X88.8 Y104.2 E33.71504
G1 X88.8 Y95.8 E34.13412
G0 X89.2 Y96.2
G1 X99.866 Y96.2 E34.66625
G1 X99.733 Y96.37 E34.67701
G1 X99.509 Y96.719 E34.6977
G1 X99.144 Y97.426 E34.7374
G1 X98.988 Y97.817 E34.7584
G1 X98.762 Y98.589 E34.79853
G1 X98.683 Y98.994 E34.81912
G1 X98.606 Y99.787 E34.85887
G1 X98.606 Y100.213 E34.88012
G1 X98.683 Y101.006 E34.91987
G1 X98.762 Y101.411 E34.94046
G1 X98.988 Y102.183 E34.98059
G1 X99.144 Y102.574 E35.00159
G1 X99.509 Y103.281 E35.04129
G1 X99.733 Y103.63 E35.06198
G1 X99.866 Y103.8 E35.07275
G1 X89.2 Y103.8 E35.60487
G1 X89.2 Y96.2 E35.98404
G0 X89.6 Y96.6
G1 X99.12 Y96.6 E36.45899
G1 X98.789 Y97.242 E36.49503
G1 X98.604 Y97.705 E36.51991
G1 X98.378 Y98.477 E36.56004
G1 X98.285 Y98.956 E36.58438
G1 X98.208 Y99.749 E36.62413
G1 X98.208 Y100.251 E36.64917
G1 X98.285 Y101.044 E36.68892
G1 X98.378 Y101.523 E36.71327
G1 X98.604 Y102.295 E36.7534
G1 X98.789 Y102.758 E36.77827
G1 X99.12 Y103.4 E36.81431
G1 X89.6 Y103.4 E37.28926
G1 X89.6 Y96.6 E37.62852
G0 X90 Y97
G1 X98.463 Y97 E38.05074
G1 X98.433 Y97.059 E38.05404
G1 X98.22 Y97.592 E38.08268
G1 X97.994 Y98.364 E38.12281
G1 X97.887 Y98.917 E38.15091
G1 X97.81 Y99.71 E38.19066
G1 X97.81 Y100.29 E38.2196
G1 X97.887 Y101.083 E38.25934
G1 X97.994 Y101.636 E38.28744
G1 X98.22 Y102.408 E38.32758
G1 X98.433 Y102.941 E38.35621
G1 X98.463 Y103 E38.35952
G1 X90 Y103 E38.78174
G1 X90 Y97 E39.08108
G0 X90.4 Y97.4
G1 X97.868 Y97.4 E39.45366
G1 X97.836 Y97.48 E39.45796
G1 X97.61 Y98.252 E39.49809
G1 X97.489 Y98.878 E39.5299
G1 X97.412 Y99.671 E39.56965
G1 X97.412 Y100.329 E39.60247
G1 X97.489 Y101.122 E39.64222
G1 X97.61 Y101.748 E39.67403
G1 X97.836 Y102.52 E39.71416
G1 X97.868 Y102.6 E39.71846
G1 X90.4 Y102.6 E40.09104
G1 X90.4 Y97.4 E40.35047
G0 X90.8 Y97.8
G1 X97.325 Y97.8 E40.676
G1 X97.226 Y98.139 E40.69362
G1 X97.091 Y98.84 E40.72924
G1 X97.014 Y99.633 E40.76899
G1 X97.014 Y100.367 E40.80561
G1 X97.091 Y101.16 E40.84536
G1 X97.226 Y101.861 E40.88097
G1 X97.325 Y102.2 E40.89859
G1 X90.8 Y102.2 E41.22413
G1 X90.8 Y97.8 E41.44364
G0 X91.2 Y98.2
G1 X96.809 Y98.2 E41.72348
G1 X96.693 Y98.801 E41.75401
G1 X96.616 Y99.594 E41.79376
G1 X96.616 Y100.406 E41.83427
G1 X96.693 Y101.199 E41.87402
G1 X96.809 Y101.8 E41.90456
G1 X91.2 Y101.8 E42.18439
G1 X91.2 Y98.2 E42.364
G0 X91.6 Y98.6
G1 X96.326 Y98.6 E42.59978
G1 X96.295 Y98.762 E42.60801
G1 X96.218 Y99.555 E42.64776
G1 X96.218 Y100.445 E42.69216
G1 X96.295 Y101.238 E42.73191
G1 X96.326 Y101.4 E42.74014
G1 X91.6 Y101.4 E42.97592
G1 X91.6 Y98.6 E43.11561
G0 X92 Y99
G1 X95.869 Y99 E43.30864
G1 X95.819 Y99.517 E43.33455
G1 X95.798 Y100.149 E43.3661
G1 X95.819 Y100.483 E43.3828
G1 X95.869 Y101 E43.40871
G1 X92 Y101 E43.60173
G1 X92 Y99 E43.70151
G0 X92.4 Y99.4
G1 X95.429 Y99.4 E43.85263
G1 X95.421 Y99.478 E43.85654
G1 X95.398 Y100.135 E43.88934
G1 X95.421 Y100.522 E43.90868
G1 X95.429 Y100.6 E43.91259
G1 X92.4 Y100.6 E44.06371
G1 X92.4 Y99.4 E44.12358
G0 X92.8 Y99.8
G1 X95.009 Y99.8 E44.23379
G1 X94.997 Y100.12 E44.24976
G1 X95.002 Y100.2 E44.25376
G1 X92.8 Y100.2 E44.36362
G1 X92.8 Y99.8 E44.38358
G1 F4800 E37.88358
G1 F600 Z1.3
G0 F1800 X100.199 Y99.942 Z1.3
G1 F600 Z0.3
G1 F4800 E44.38358
G1 F1800 X100.199 Y100.058 E44.38936
G1 X100.276 Y100.851 E44.42911
G1 X100.297 Y100.962 E44.43475
G1 X100.523 Y101.734 E44.47488
G1 X100.566 Y101.84 E44.48059
G1 X100.931 Y102.547 E44.52028
G1 X100.992 Y102.642 E44.52592
G1 X101.483 Y103.268 E44.56561
G1 X101.562 Y103.351 E44.57133
G1 X102.17 Y103.878 E44.61147
G1 X102.263 Y103.944 E44.61716
G1 X102.953 Y104.343 E44.65692
G1 X103.058 Y104.391 E44.66268
G1 X103.816 Y104.652 E44.70268
G1 X103.925 Y104.679 E44.70828
G1 X104.709 Y104.792 E44.7478
G1 X104.824 Y104.797 E44.75354
G1 X105.631 Y104.758 E44.79385
G1 X105.743 Y104.742 E44.79949
G1 X106.515 Y104.556 E44.83911
G1 X106.624 Y104.519 E44.84485
G1 X107.352 Y104.186 E44.88479
G1 X107.45 Y104.128 E44.89047
G1 X108.099 Y103.665 E44.93025
G1 X108.185 Y103.592 E44.93588
G1 X108.74 Y103.012 E44.97593
G1 X108.811 Y102.921 E44.98168
G1 X109.24 Y102.253 E45.02129
G1 X109.292 Y102.151 E45.027
G1 X109.589 Y101.407 E45.06697
G1 X109.621 Y101.299 E45.07259
G1 X109.773 Y100.512 E45.11258
G1 X109.784 Y100.398 E45.11829
G1 X109.784 Y99.602 E45.15801
G1 X109.773 Y99.488 E45.16372
G1 X109.621 Y98.701 E45.20371
G1 X109.589 Y98.593 E45.20933
G1 X109.292 Y97.849 E45.2493
G1 X109.24 Y97.747 E45.25501
G1 X108.811 Y97.079 E45.29461
G1 X108.74 Y96.988 E45.30037
G1 X108.185 Y96.408 E45.34042
G1 X108.099 Y96.335 E45.34605
G1 X107.45 Y95.872 E45.38582
G1 X107.352 Y95.814 E45.39151
G1 X106.624 Y95.481 E45.43145
G1 X106.515 Y95.444 E45.43719
G1 X105.743 Y95.258 E45.47681
G1 X105.631 Y95.242 E45.48245
G1 X104.824 Y95.203 E45.52276
G1 X104.709 Y95.208 E45.5285
G1 X103.925 Y95.321 E45.56802
G1 X103.816 Y95.348 E45.57362
G1 X103.058 Y95.609 E45.61362
G1 X102.953 Y95.657 E45.61938
G1 X102.263 Y96.056 E45.65914
G1 X102.17 Y96.122 E45.66483
G1 X101.562 Y96.649 E45.70497
G1 X101.483 Y96.732 E45.71069
G1 X100.992 Y97.358 E45.75038
G1 X100.931 Y97.453 E45.75602
G1 X100.566 Y98.16 E45.79571
G1 X100.523 Y98.266 E45.80142
G1 X100.297 Y99.038 E45.84155
G1 X100.276 Y99.149 E45.84719
G1 X100.199 Y99.942 E45.88693
G0 X100.597 Y99.981
G1 X100.597 Y100.019 E45.88883
G1 X100.674 Y100.812 E45.92858
G1 X100.681 Y100.849 E45.93046
G1 X100.907 Y101.621 E45.97059
G1 X100.921 Y101.657 E45.97252
G1 X101.286 Y102.364 E46.01221
G1 X101.307 Y102.395 E46.01408
G1 X101.798 Y103.021 E46.05377
G1 X101.824 Y103.049 E46.05568
G1 X102.432 Y103.576 E46.09582
G1 X102.463 Y103.598 E46.09772
G1 X103.153 Y103.997 E46.13748
G1 X103.188 Y104.013 E46.1394
G1 X103.946 Y104.274 E46.1794
G1 X103.982 Y104.283 E46.18125
G1 X104.766 Y104.396 E46.22077
G1 X104.805 Y104.398 E46.22272
G1 X105.612 Y104.359 E46.26302
G1 X105.649 Y104.353 E46.26489
G1 X106.421 Y104.167 E46.30451
G1 X106.457 Y104.155 E46.3064
G1 X107.185 Y103.822 E46.34634
G1 X107.218 Y103.803 E46.34824
G1 X107.867 Y103.34 E46.38802
G1 X107.896 Y103.315 E46.38993
G1 X108.451 Y102.735 E46.42998
G1 X108.474 Y102.705 E46.43186
G1 X108.903 Y102.037 E46.47147
G1 X108.921 Y102.003 E46.47339
G1 X109.218 Y101.259 E46.51336
G1 X109.228 Y101.223 E46.51522
G1 X109.38 Y100.436 E46.55521
G1 X109.384 Y100.398 E46.55712
G1 X109.384 Y99.602 E46.59683
G1 X109.38 Y99.564 E46.59874
G1 X109.228 Y98.777 E46.63872
G1 X109.218 Y98.741 E46.64059
G1 X108.921 Y97.997 E46.68056
G1 X108.903 Y97.963 E46.68247
G1 X108.474 Y97.295 E46.72208
G1 X108.451 Y97.265 E46.72397
G1 X107.896 Y96.685 E46.76402
G1 X107.867 Y96.66 E46.76593
G1 X107.218 Y96.197 E46.8057
G1 X107.185 Y96.178 E46.8076
G1 X106.457 Y95.845 E46.84754
G1 X106.421 Y95.833 E46.84943
G1 X105.649 Y95.647 E46.88905
G1 X105.612 Y95.641 E46.89092
G1 X104.805 Y95.602 E46.93123
G1 X104.766 Y95.604 E46.93318
G1 X103.982 Y95.717 E46.9727
G1 X103.946 Y95.726 E46.97455
G1 X103.188 Y95.987 E47.01454
G1 X103.153 Y96.003 E47.01646
G1 X102.463 Y96.402 E47.05623
G1 X102.432 Y96.424 E47.05813
G1 X101.824 Y96.951 E47.09827
G1 X101.798 Y96.979 E47.10017
G1 X101.307 Y97.605 E47.13987
G1 X101.286 Y97.636 E47.14173
G1 X100.921 Y98.343 E47.18143
G1 X100.907 Y98.379 E47.18336
G1 X100.681 Y99.151 E47.22349
G1 X100.674 Y99.188 E47.22537
G1 X100.597 Y99.981 E47.26512
G1 F4800 E40.76512
G1 F600 Z1.3
G0 F1800 X106.38 Y95 Z1.3
G1 F600 Z0.3
G1 F4800 E47.26512
G1 F1800 X122 Y95 E48.0444
G1 X122 Y105 E48.5433
G1 X106.38 Y105 E49.32259
G1 X106.608 Y104.945 E49.33429
G1 X106.79 Y104.882 E49.3439
G1 X107.518 Y104.549 E49.38384
G1 X107.683 Y104.454 E49.39334
G1 X108.332 Y103.991 E49.43311
G1 X108.474 Y103.868 E49.44248
G1 X109.029 Y103.288 E49.48253
G1 X109.147 Y103.137 E49.49209
G1 X109.576 Y102.469 E49.5317
G1 X109.664 Y102.3 E49.54121
G1 X109.961 Y101.556 E49.58117
G1 X110.014 Y101.375 E49.59058
G1 X110.166 Y100.588 E49.63057
G1 X110.184 Y100.398 E49.64009
G1 X110.184 Y99.602 E49.67981
G1 X110.166 Y99.412 E49.68933
G1 X110.014 Y98.625 E49.72932
G1 X109.961 Y98.444 E49.73873
G1 X109.664 Y97.7 E49.77869
G1 X109.576 Y97.531 E49.7882
G1 X109.147 Y96.863 E49.82781
G1 X109.029 Y96.712 E49.83737
G1 X108.474 Y96.132 E49.87742
G1 X108.332 Y96.009 E49.88679
G1 X107.683 Y95.546 E49.92656
G1 X107.518 Y95.451 E49.93606
G1 X106.79 Y95.118 E49.976
G1 X106.608 Y95.055 E49.98561
G1 X106.38 Y95 E49.99731
G1 F4800 E43.49731
G1 F600 Z1.3
G0 F1800 X108.167 Y95.4 Z1.3
G1 F600 Z0.3
G1 F4800 E49.99731
G1 F1800 X121.6 Y95.4 E50.66749
G1 X121.6 Y104.6 E51.12648
G1 X108.167 Y104.6 E51.79665
G1 X108.564 Y104.317 E51.82097
G1 X108.763 Y104.145 E51.8341
G1 X109.318 Y103.565 E51.87415
G1 X109.484 Y103.354 E51.88754
G1 X109.913 Y102.686 E51.92715
G1 X110.035 Y102.448 E51.94049
G1 X110.332 Y101.704 E51.98046
G1 X110.407 Y101.45 E51.99367
G1 X110.559 Y100.663 E52.03366
G1 X110.584 Y100.398 E52.04694
G1 X110.584 Y99.602 E52.08665
G1 X110.559 Y99.337 E52.09993
