;FLAVOR:Marlin
;TIME:8288
;Filament used: 13.2162m
;Layer height: 0.3
;MINX:66.231
;MINY:52.8
;MINZ:0.3
;MAXX:142.293
;MAXY:147.2
;MAXZ:43.9
;Generated with Cura_SteamEngine 5.3.1
M140 S60
M105
M190 S60
M104 S185
M105
M109 S185
M82 ;absolute extrusion mode
G21 ;metric values
G90 ;absolute positioning
M82 ;set extruder to absolute mode
M107 ;start with the fan off
G28
G29
G92 E0 ;zero the extruded length again
G1 F60
M117 "please"
G92 E0
G92 E0
G1 F4800 E-6.5
;LAYER_COUNT:143
;LAYER:0
M107
G1 F600 Z1.3
G0 F1800 X67.646 Y86.352 Z1.3
;TYPE:SKIRT
G1 F600 Z0.3
G1 F4800 E0
G1 F1800 X68.395 Y85.845 E0.04512
G1 X69.203 Y85.321 E0.09317
G1 X69.647 Y85.08 E0.11837
G1 X70.15 Y84.906 E0.14493
G1 X71.461 Y84.57 E0.21245
G1 X74.088 Y83.85 E0.34834
G1 X76.696 Y83.056 E0.48435
G1 X79.312 Y82.178 E0.62202
G1 X81.878 Y81.236 E0.75839
G1 X84.432 Y80.214 E0.89563
G1 X86.937 Y79.129 E1.03183
G1 X89.392 Y77.982 E1.16702
G1 X91.871 Y76.737 E1.30542
G1 X94.273 Y75.446 E1.44147
G1 X96.675 Y74.065 E1.5797
G1 X99.097 Y72.579 E1.72146
G1 X101.385 Y71.085 E1.85779
G1 X103.615 Y69.534 E1.99331
G1 X105.841 Y67.892 E2.13131
G1 X107.99 Y66.212 E2.2674
G1 X110.097 Y64.465 E2.40395
G1 X112.164 Y62.651 E2.54115
G1 X114.162 Y60.797 E2.67714
G1 X116.1 Y58.89 E2.81278
G1 X118.005 Y56.909 E2.9499
G1 X119.892 Y54.831 E3.08994
G1 X120.712 Y53.903 E3.15172
G1 X121.075 Y53.552 E3.17691
G1 X121.49 Y53.262 E3.20217
G1 X121.945 Y53.042 E3.22739
G1 X122.429 Y52.895 E3.25262
G1 X123.042 Y52.823 E3.28341
G1 X124.144 Y52.8 E3.33841
G1 X128.72 Y52.8 E3.5667
G1 X129.419 Y52.81 E3.60158
G1 X129.922 Y52.857 E3.62678
G1 X130.412 Y52.983 E3.65203
G1 X130.876 Y53.185 E3.67727
G1 X131.302 Y53.457 E3.70249
G1 X131.68 Y53.792 E3.72769
G1 X132 Y54.183 E3.75289
G1 X132.299 Y54.696 E3.78252
G1 X133.469 Y57.872 E3.95138
G1 X134.497 Y60.425 E4.08869
G1 X135.593 Y62.941 E4.2256
G1 X136.752 Y65.407 E4.36154
G1 X137.99 Y67.857 E4.49849
G1 X139.275 Y70.235 E4.63335
G1 X140.668 Y72.644 E4.77218
G1 X141.279 Y73.636 E4.8303
G1 X141.712 Y74.36 E4.87239
G1 X141.937 Y74.813 E4.89763
G1 X142.087 Y75.295 E4.92281
G1 X142.175 Y75.982 E4.95736
G1 X142.176 Y80.343 E5.17494
G1 X142.161 Y81.301 E5.22274
G1 X141.568 Y84.726 E5.39615
G1 X141.186 Y87.413 E5.53156
G1 X140.873 Y90.177 E5.67033
G1 X140.644 Y92.862 E5.80477
G1 X140.49 Y95.606 E5.94189
G1 X140.413 Y98.357 E6.07919
G1 X140.413 Y101.076 E6.21484
G1 X140.492 Y103.832 E6.3524
G1 X140.647 Y106.573 E6.48936
G1 X140.88 Y109.289 E6.62536
G1 X141.187 Y111.991 E6.76103
G1 X141.575 Y114.71 E6.89806
G1 X142.223 Y118.375 E7.08374
G1 X142.271 Y118.867 E7.10841
G1 X142.293 Y119.969 E7.1634
G1 X142.293 Y123.339 E7.33153
G1 X142.283 Y124.042 E7.3666
G1 X142.236 Y124.545 E7.39181
G1 X142.11 Y125.035 E7.41705
G1 X141.81 Y125.67 E7.45208
G1 X141.258 Y126.568 E7.50467
G1 X140.997 Y126.977 E7.52888
G1 X139.569 Y129.366 E7.66774
G1 X138.245 Y131.73 E7.80291
G1 X136.973 Y134.161 E7.9398
G1 X135.77 Y136.626 E8.07664
G1 X134.639 Y139.117 E8.21313
G1 X133.579 Y141.648 E8.35003
G1 X132.526 Y144.372 E8.49573
G1 X132.258 Y145.098 E8.53434
G1 X132.046 Y145.557 E8.55956
G1 X131.764 Y145.977 E8.5848
G1 X131.42 Y146.347 E8.61
G1 X131.022 Y146.659 E8.63524
G1 X130.579 Y146.904 E8.66049
G1 X130.104 Y147.076 E8.68569
G1 X129.607 Y147.171 E8.71094
G1 X129.023 Y147.199 E8.74011
G1 X123.538 Y147.2 E9.01376
G1 X122.836 Y147.19 E9.04878
G1 X122.333 Y147.143 E9.07399
G1 X121.843 Y147.017 E9.09923
G1 X121.38 Y146.815 E9.12443
G1 X120.953 Y146.544 E9.14966
G1 X120.576 Y146.209 E9.17482
G1 X120.019 Y145.63 E9.21491
G1 X118.092 Y143.677 E9.35179
G1 X116.128 Y141.797 E9.48743
G1 X114.087 Y139.951 E9.62472
G1 X111.991 Y138.159 E9.7623
G1 X109.865 Y136.445 E9.89855
G1 X107.705 Y134.802 E10.03394
G1 X105.464 Y133.193 E10.17158
G1 X103.206 Y131.668 E10.30752
G1 X100.88 Y130.191 E10.44498
G1 X98.536 Y128.795 E10.58109
G1 X96.142 Y127.458 E10.71789
G1 X93.725 Y126.198 E10.85388
G1 X91.244 Y124.992 E10.9915
G1 X88.771 Y123.875 E11.12688
G1 X86.231 Y122.813 E11.26424
G1 X83.643 Y121.816 E11.4026
G1 X81.132 Y120.929 E11.53546
G1 X78.357 Y120.038 E11.68087
G1 X77.89 Y119.845 E11.70608
G1 X77.458 Y119.582 E11.73131
G1 X77.073 Y119.254 E11.75654
G1 X76.694 Y118.809 E11.78571
G1 X75.683 Y117.106 E11.88451
G1 X73.976 Y114.359 E12.04587
G1 X73.571 Y113.731 E12.08315
G1 X73.331 Y113.286 E12.10837
G1 X73.147 Y112.738 E12.13721
G1 X72.912 Y111.751 E12.18783
G1 X72.227 Y109.037 E12.32748
G1 X71.486 Y106.417 E12.46332
G1 X70.658 Y103.78 E12.60121
G1 X69.774 Y101.218 E12.73642
G1 X68.808 Y98.657 E12.87298
G1 X67.772 Y96.127 E13.00938
G1 X66.883 Y94.106 E13.11953
G1 X66.524 Y93.312 E13.163
G1 X66.353 Y92.836 E13.18823
G1 X66.259 Y92.34 E13.21342
G1 X66.232 Y91.759 E13.24244
G1 X66.231 Y89.656 E13.34736
G1 X66.241 Y88.955 E13.38233
G1 X66.288 Y88.452 E13.40754
G1 X66.414 Y87.962 E13.43278
G1 X66.616 Y87.499 E13.45798
G1 X66.888 Y87.072 E13.48324
G1 X67.223 Y86.694 E13.50844
G1 X67.646 Y86.352 E13.53558
G1 F4800 E7.03558
G1 F600 Z1.3
G0 F1800 X69.631 Y89.195 Z1.3
G1 F600 Z0.3
G1 F4800 E13.53558
G1 F1800 X69.699 Y89.195 E13.53897
G1 X69.798 Y89.169 E13.54408
G1 X70.512 Y88.764 E13.58503
G1 X70.535 Y88.749 E13.5864
G1 X71.053 Y88.352 E13.61896
G1 X71.128 Y88.2 E13.62741
G1 X82.608 Y88.192 E14.20015
G1 X82.643 Y88.189 E14.20191
G1 X83.663 Y88.009 E14.25358
G1 X83.696 Y88 E14.25529
G1 X84.675 Y87.647 E14.30721
G1 X84.706 Y87.633 E14.30891
G1 X85.801 Y87.01 E14.37176
G1 X86.71 Y86.649 E14.42055
G1 X86.854 Y86.618 E14.4279
G1 X89.663 Y86.613 E14.56804
G1 X90.549 Y86.893 E14.6144
G1 X91.044 Y87.123 E14.64163
G1 X91.058 Y87.129 E14.64239
G1 X91.757 Y87.39 E14.67962
G1 X91.786 Y87.399 E14.68113
G1 X92.287 Y87.505 E14.70668
G1 X92.304 Y87.508 E14.70754
G1 X93.012 Y87.594 E14.74312
G1 X93.045 Y87.595 E14.74477
G1 X94.01 Y87.553 E14.79296
G1 X94.043 Y87.549 E14.79462
G1 X94.919 Y87.361 E14.83932
G1 X94.94 Y87.355 E14.84041
G1 X95.628 Y87.128 E14.87655
G1 X95.65 Y87.119 E14.87774
G1 X96.242 Y86.841 E14.91037
G1 X97.26 Y86.379 E14.96614
G1 X97.304 Y86.352 E14.96872
G1 X97.682 Y86.042 E14.99311
G1 X97.71 Y86.014 E14.99508
G1 X97.964 Y85.703 E15.01512
G1 X97.986 Y85.67 E15.01709
G1 X98.172 Y85.319 E15.03691
G1 X98.189 Y85.275 E15.03927
G1 X98.349 Y84.654 E15.07126
G1 X98.355 Y84.604 E15.07377
G1 X98.355 Y81.7 E15.21865
G1 X98.423 Y81.7 E15.22205
G1 X98.542 Y81.661 E15.22829
G1 X99.171 Y81.197 E15.26729
G1 X99.207 Y81.162 E15.26979
G1 X99.455 Y80.857 E15.2894
G1 X99.477 Y80.824 E15.29138
G1 X99.665 Y80.465 E15.3116
G1 X99.679 Y80.433 E15.31334
G1 X99.765 Y80.164 E15.32743
G1 X99.772 Y80.128 E15.32926
G1 X99.853 Y79.476 E15.36204
G1 X99.855 Y79.451 E15.36329
G1 X99.855 Y76.2 E15.52549
G1 X103.646 Y76.2 E15.71462
G1 X103.646 Y76.231 E15.71617
G1 X103.688 Y76.354 E15.72265
G1 X103.79 Y76.485 E15.73093
G1 X103.79 Y76.8 E15.74665
G1 X102.946 Y76.8 E15.78876
G1 X102.827 Y76.839 E15.795
G1 X102.746 Y77 E15.804
G1 X102.746 Y89 E16.40268
G1 X102.785 Y89.119 E16.40893
G1 X102.946 Y89.2 E16.41792
G1 X103.79 Y89.2 E16.46003
G1 X103.79 Y89.7 E16.48497
G1 X103.829 Y89.819 E16.49122
G1 X103.99 Y89.9 E16.50021
G1 X104.1 Y89.9 E16.5057
G1 X104.1 Y123.8 E18.19698
G1 X99.902 Y123.8 E18.40641
G1 X99.891 Y118.727 E18.65951
G1 X99.89 Y118.707 E18.66051
G1 X99.813 Y117.955 E18.69822
G1 X99.809 Y117.933 E18.69934
G1 X99.713 Y117.491 E18.7219
G1 X99.707 Y117.469 E18.72304
G1 X99.466 Y116.76 E18.7604
G1 X99.446 Y116.718 E18.76272
G1 X99.069 Y116.117 E18.79811
G1 X99.049 Y116.09 E18.79979
G1 X98.673 Y115.668 E18.82799
G1 X98.639 Y115.637 E18.83029
G1 X98.004 Y115.192 E18.86897
G1 X97.985 Y115.18 E18.87009
G1 X97.605 Y114.973 E18.89168
G1 X97.583 Y114.963 E18.89289
G1 X96.89 Y114.685 E18.93014
G1 X96.877 Y114.68 E18.93083
G1 X95.647 Y114.287 E18.99525
G1 X94.679 Y113.775 E19.04989
G1 X94.653 Y113.764 E19.0513
G1 X93.92 Y113.498 E19.0902
G1 X93.899 Y113.492 E19.09129
G1 X93.289 Y113.345 E19.12259
G1 X93.265 Y113.34 E19.12382
G1 X92.466 Y113.246 E19.16395
G1 X92.433 Y113.245 E19.1656
G1 X91.546 Y113.291 E19.20991
G1 X91.506 Y113.297 E19.21193
G1 X90.785 Y113.483 E19.24908
G1 X90.764 Y113.49 E19.25018
G1 X89.941 Y113.801 E19.29408
G1 X89.909 Y113.816 E19.29584
G1 X89.261 Y114.203 E19.33349
G1 X89.245 Y114.215 E19.33449
G1 X88.763 Y114.574 E19.36448
G1 X88.741 Y114.592 E19.36589
G1 X88.378 Y114.952 E19.3914
G1 X88.363 Y114.969 E19.39253
G1 X87.911 Y115.53 E19.42847
G1 X87.899 Y115.546 E19.42947
G1 X87.515 Y116.14 E19.46476
G1 X87.498 Y116.172 E19.46657
G1 X87.238 Y116.8 E19.50048
G1 X79.528 Y116.8 E19.88513
G1 X79.523 Y115.755 E19.93727
G1 X79.52 Y115.724 E19.93882
G1 X79.391 Y114.916 E19.97964
G1 X79.385 Y114.888 E19.98107
G1 X79.136 Y114.091 E20.02273
G1 X79.12 Y114.054 E20.02474
G1 X78.699 Y113.297 E20.06795
G1 X78.674 Y113.262 E20.0701
G1 X78.36 Y112.904 E20.09386
G1 X78.331 Y112.877 E20.09584
G1 X77.607 Y112.328 E20.14117
G1 X77.583 Y112.312 E20.1426
G1 X77.238 Y112.121 E20.16228
G1 X77.219 Y112.112 E20.16333
G1 X76.615 Y111.857 E20.19604
G1 X76.564 Y111.843 E20.19868
G1 X76.451 Y111.828 E20.20436
G1 X76.429 Y99.197 E20.83453
G1 X76.429 Y99.189 E20.83493
G1 X76.395 Y98.298 E20.87941
G1 X76.393 Y98.278 E20.88041
G1 X76.308 Y97.683 E20.9104
G1 X76.303 Y97.658 E20.91167
G1 X76.137 Y97.056 E20.94283
G1 X76.13 Y97.036 E20.94388
G1 X75.927 Y96.518 E20.97164
G1 X75.921 Y96.504 E20.9724
G1 X75.621 Y95.879 E21.00699
G1 X75.6 Y95.845 E21.00898
G1 X75.043 Y95.113 E21.05487
G1 X75.03 Y95.098 E21.05586
G1 X74.764 Y94.813 E21.07531
G1 X74.75 Y94.799 E21.0763
G1 X74.143 Y94.264 E21.11667
G1 X74.115 Y94.243 E21.11841
G1 X73.379 Y93.796 E21.16137
G1 X73.372 Y93.792 E21.16177
G1 X72.147 Y93.115 E21.2316
G1 X72.117 Y93.102 E21.23323
G1 X71.3 Y92.812 E21.27649
G1 X71.233 Y92.8 E21.27988
G1 X71.125 Y92.8 E21.28527
G1 X71.055 Y92.655 E21.2933
G1 X70.544 Y92.253 E21.32574
G1 X70.52 Y92.237 E21.32718
G1 X69.809 Y91.827 E21.36813
G1 X69.709 Y91.8 E21.37329
G1 X69.631 Y91.8 E21.37718
G1 X69.631 Y89.195 E21.50715
G0 X70.031 Y89.497
G1 X70.709 Y89.112 E21.54605
G1 X70.778 Y89.066 E21.55018
G1 X71.296 Y88.669 E21.58274
G1 X71.358 Y88.6 E21.58737
G1 X82.608 Y88.592 E22.14864
G1 X82.712 Y88.583 E22.15385
G1 X83.732 Y88.403 E22.20552
G1 X83.832 Y88.376 E22.21069
G1 X84.811 Y88.023 E22.26261
G1 X84.904 Y87.98 E22.26772
G1 X85.969 Y87.374 E22.32885
G1 X86.83 Y87.032 E22.37507
G1 X86.896 Y87.018 E22.37844
G1 X89.603 Y87.013 E22.51349
G1 X90.397 Y87.263 E22.55502
G1 X90.875 Y87.486 E22.58134
G1 X90.918 Y87.504 E22.58366
G1 X91.617 Y87.765 E22.62089
G1 X91.703 Y87.79 E22.62536
G1 X92.204 Y87.896 E22.6509
G1 X92.256 Y87.905 E22.65354
G1 X92.964 Y87.991 E22.68912
G1 X93.062 Y87.994 E22.69401
G1 X94.027 Y87.952 E22.7422
G1 X94.127 Y87.94 E22.74722
G1 X95.003 Y87.752 E22.79192
G1 X95.065 Y87.735 E22.79513
G1 X95.753 Y87.508 E22.83128
G1 X95.82 Y87.481 E22.83488
G1 X96.414 Y87.202 E22.86762
G1 X97.425 Y86.743 E22.92301
G1 X97.557 Y86.661 E22.93077
G1 X97.935 Y86.351 E22.95516
G1 X98.02 Y86.267 E22.96112
G1 X98.274 Y85.956 E22.98115
G1 X98.339 Y85.857 E22.98706
G1 X98.525 Y85.506 E23.00688
G1 X98.576 Y85.375 E23.01389
G1 X98.736 Y84.754 E23.04589
G1 X98.755 Y84.604 E23.05343
G1 X98.755 Y81.996 E23.18354
G1 X98.779 Y81.983 E23.1849
G1 X99.408 Y81.519 E23.2239
G1 X99.518 Y81.415 E23.23145
G1 X99.766 Y81.11 E23.25106
G1 X99.832 Y81.009 E23.25708
G1 X100.02 Y80.65 E23.2773
G1 X100.06 Y80.555 E23.28244
G1 X100.146 Y80.286 E23.29653
G1 X100.169 Y80.177 E23.30209
G1 X100.25 Y79.525 E23.33487
G1 X100.255 Y79.451 E23.33857
G1 X100.255 Y76.6 E23.48081
G1 X102.509 Y76.6 E23.59326
G1 X102.412 Y76.726 E23.60119
G1 X102.346 Y77 E23.61525
G1 X102.346 Y89 E24.21394
G1 X102.386 Y89.215 E24.22485
G1 X102.499 Y89.401 E24.2357
G1 X102.672 Y89.534 E24.24659
G1 X102.946 Y89.6 E24.26065
G1 X103.39 Y89.6 E24.2828
G1 X103.39 Y89.7 E24.28779
G1 X103.43 Y89.915 E24.2987
G1 X103.543 Y90.101 E24.30956
G1 X103.7 Y90.222 E24.31945
G1 X103.7 Y123.4 E25.97471
G1 X100.301 Y123.4 E26.14428
G1 X100.291 Y118.726 E26.37747
G1 X100.288 Y118.666 E26.38047
G1 X100.211 Y117.914 E26.41818
G1 X100.2 Y117.848 E26.42152
G1 X100.104 Y117.406 E26.44409
G1 X100.086 Y117.34 E26.4475
G1 X99.845 Y116.631 E26.48486
G1 X99.785 Y116.505 E26.49182
G1 X99.408 Y115.904 E26.52722
G1 X99.348 Y115.824 E26.5322
G1 X98.972 Y115.402 E26.5604
G1 X98.868 Y115.31 E26.56733
G1 X98.233 Y114.865 E26.60602
G1 X98.176 Y114.829 E26.60938
G1 X97.796 Y114.622 E26.63097
G1 X97.732 Y114.592 E26.63449
G1 X97.039 Y114.314 E26.67175
G1 X96.999 Y114.299 E26.67388
G1 X95.8 Y113.916 E26.73667
G1 X94.866 Y113.422 E26.78939
G1 X94.79 Y113.388 E26.79354
G1 X94.057 Y113.122 E26.83244
G1 X93.993 Y113.103 E26.83577
G1 X93.383 Y112.956 E26.86708
G1 X93.312 Y112.943 E26.87068
G1 X92.513 Y112.849 E26.91082
G1 X92.412 Y112.846 E26.91586
G1 X91.525 Y112.892 E26.96017
G1 X91.406 Y112.91 E26.96617
G1 X90.685 Y113.096 E27.00332
G1 X90.623 Y113.116 E27.00657
G1 X89.8 Y113.427 E27.05047
G1 X89.704 Y113.473 E27.05578
G1 X89.056 Y113.86 E27.09343
G1 X89.006 Y113.894 E27.09645
G1 X88.524 Y114.253 E27.12643
G1 X88.46 Y114.308 E27.13064
G1 X88.097 Y114.668 E27.15615
G1 X88.052 Y114.718 E27.15951
G1 X87.6 Y115.279 E27.19545
G1 X87.563 Y115.329 E27.19855
G1 X87.179 Y115.923 E27.23384
G1 X87.129 Y116.019 E27.23924
G1 X86.971 Y116.4 E27.25982
G1 X79.926 Y116.4 E27.61129
G1 X79.923 Y115.753 E27.64357
G1 X79.915 Y115.661 E27.64818
G1 X79.786 Y114.853 E27.689
G1 X79.767 Y114.769 E27.6933
G1 X79.518 Y113.972 E27.73496
G1 X79.469 Y113.859 E27.7411
G1 X79.048 Y113.102 E27.78432
G1 X78.975 Y112.998 E27.79066
G1 X78.661 Y112.64 E27.81441
G1 X78.573 Y112.558 E27.82041
G1 X77.849 Y112.009 E27.86574
G1 X77.777 Y111.962 E27.87003
G1 X77.432 Y111.771 E27.88971
G1 X77.374 Y111.743 E27.89292
G1 X76.85 Y111.522 E27.92129
G1 X76.829 Y99.196 E28.53624
G1 X76.829 Y99.174 E28.53734
G1 X76.795 Y98.283 E28.58182
G1 X76.789 Y98.221 E28.58493
G1 X76.704 Y97.626 E28.61492
G1 X76.688 Y97.552 E28.61869
G1 X76.522 Y96.95 E28.64985
G1 X76.503 Y96.89 E28.65299
G1 X76.3 Y96.372 E28.68075
G1 X76.282 Y96.331 E28.68298
G1 X75.982 Y95.706 E28.71757
G1 X75.918 Y95.603 E28.72362
G1 X75.361 Y94.871 E28.76951
G1 X75.323 Y94.825 E28.77248
G1 X75.057 Y94.54 E28.79193
G1 X75.015 Y94.499 E28.79486
G1 X74.408 Y93.964 E28.83523
G1 X74.322 Y93.901 E28.84055
G1 X73.586 Y93.454 E28.88351
G1 X73.565 Y93.442 E28.88471
G1 X72.34 Y92.765 E28.95454
G1 X72.251 Y92.725 E28.95941
G1 X71.434 Y92.435 E29.00266
G1 X71.363 Y92.423 E29.00625
G1 X71.302 Y92.34 E29.01139
G1 X70.791 Y91.938 E29.04383
G1 X70.72 Y91.89 E29.04811
G1 X70.031 Y91.493 E29.08778
G1 X70.031 Y89.497 E29.18736
G0 X70.431 Y89.729
G1 X70.906 Y89.46 E29.21459
G1 X71.021 Y89.384 E29.22147
G1 X71.523 Y89 E29.253
G1 X82.609 Y88.992 E29.80609
G1 X82.782 Y88.977 E29.81475
G1 X83.802 Y88.797 E29.86642
G1 X83.967 Y88.753 E29.87494
G1 X84.946 Y88.4 E29.92686
G1 X85.102 Y88.328 E29.93544
G1 X86.151 Y87.731 E29.99565
G1 X86.939 Y87.418 E30.03795
G1 X89.54 Y87.413 E30.16772
G1 X90.254 Y87.638 E30.20507
G1 X90.706 Y87.849 E30.22995
G1 X90.778 Y87.879 E30.23384
G1 X91.477 Y88.14 E30.27107
G1 X91.62 Y88.181 E30.27849
G1 X92.121 Y88.287 E30.30404
G1 X92.207 Y88.302 E30.3084
G1 X92.915 Y88.388 E30.34398
G1 X93.079 Y88.394 E30.35216
G1 X94.044 Y88.352 E30.40035
G1 X94.211 Y88.331 E30.40875
G1 X95.087 Y88.143 E30.45345
G1 X95.19 Y88.115 E30.45878
G1 X95.878 Y87.888 E30.49492
G1 X95.99 Y87.843 E30.50094
G1 X96.572 Y87.57 E30.53301
G1 X97.59 Y87.108 E30.58879
G1 X97.811 Y86.97 E30.60179
G1 X98.189 Y86.66 E30.62618
G1 X98.33 Y86.52 E30.63609
G1 X98.584 Y86.209 E30.65612
G1 X98.693 Y86.044 E30.66599
G1 X98.879 Y85.693 E30.68581
G1 X98.963 Y85.475 E30.69746
G1 X99.123 Y84.854 E30.72945
G1 X99.155 Y84.604 E30.74203
G1 X99.155 Y82.203 E30.86182
G1 X99.646 Y81.841 E30.89225
G1 X99.828 Y81.667 E30.90481
G1 X100.076 Y81.362 E30.92442
G1 X100.186 Y81.195 E30.9344
G1 X100.374 Y80.836 E30.95462
G1 X100.441 Y80.677 E30.96323
G1 X100.527 Y80.408 E30.97732
G1 X100.566 Y80.226 E30.9866
G1 X100.647 Y79.574 E31.01938
G1 X100.655 Y79.451 E31.02553
G1 X100.655 Y77 E31.14781
G1 X101.946 Y77 E31.21222
G1 X101.946 Y89 E31.8109
G1 X101.986 Y89.279 E31.82496
G1 X102.102 Y89.536 E31.83903
