;FLAVOR:Marlin
;TIME:4642
;Filament used: 6.55504m
;Layer height: 0.3
;MINX:68.802
;MINY:82.9
;MINZ:0.3
;MAXX:142.593
;MAXY:117.1
;MAXZ:47.1
;Generated with Cura_SteamEngine 5.2.2
M140 S60
M105
M190 S60
M104 S185
M105
M109 S185
M82 ;absolute extrusion mode
G21 ;metric values
G90 ;absolute positioning
M82 ;set extruder to absolute mode
M107 ;start with the fan off
G28
G29
G92 E0 ;zero the extruded length again
G1 F60
M117 "please"
G92 E0
G92 E0
G1 F4800 E-6.5
;LAYER_COUNT:157
;LAYER:0
M107
G1 F600 Z1.3
G0 F1800 X79.479 Y83.88 Z1.3
;TYPE:SKIRT
G1 F600 Z0.3
G1 F4800 E0
G1 F1800 X79.897 Y83.544 E0.02676
G1 X80.36 Y83.274 E0.0535
G1 X80.858 Y83.075 E0.08025
G1 X81.38 Y82.953 E0.107
G1 X81.96 Y82.9 E0.13605
G1 X87.56 Y82.9 E0.41544
G1 X88.331 Y82.913 E0.45391
G1 X88.865 Y82.961 E0.48066
G1 X89.477 Y83.111 E0.51209
G1 X90.782 Y83.679 E0.5831
G1 X91.3 Y83.913 E0.61146
G1 X93.822 Y84.967 E0.74783
G1 X96.402 Y85.959 E0.88573
G1 X98.935 Y86.852 E1.01973
G1 X101.54 Y87.69 E1.15625
G1 X104.138 Y88.444 E1.29121
G1 X106.798 Y89.135 E1.42832
G1 X109.435 Y89.742 E1.56333
G1 X112.153 Y90.286 E1.70162
G1 X114.794 Y90.737 E1.83528
G1 X117.502 Y91.122 E1.97175
G1 X120.219 Y91.431 E2.10817
G1 X122.938 Y91.661 E2.24431
G1 X125.638 Y91.813 E2.37922
G1 X128.793 Y91.881 E2.53666
G1 X128.908 Y91.892 E2.54243
G1 X130.125 Y91.909 E2.60315
G1 X130.798 Y91.939 E2.63676
G1 X131.479 Y92.003 E2.67088
G1 X131.984 Y92.084 E2.6964
G1 X132.663 Y92.209 E2.73085
G1 X133.305 Y92.365 E2.76381
G1 X134.173 Y92.62 E2.80894
G1 X135.023 Y92.957 E2.85456
G1 X135.513 Y93.185 E2.88152
G1 X136.484 Y93.712 E2.93664
G1 X137.243 Y94.221 E2.98223
G1 X137.807 Y94.624 E3.01682
G1 X138.348 Y95.087 E3.05234
G1 X138.885 Y95.576 E3.08858
G1 X139.598 Y96.343 E3.14082
G1 X139.914 Y96.742 E3.16622
G1 X140.507 Y97.567 E3.21691
G1 X141.027 Y98.448 E3.26794
G1 X141.277 Y98.899 E3.29367
G1 X141.591 Y99.586 E3.33135
G1 X141.856 Y100.267 E3.36781
G1 X142.015 Y100.772 E3.39423
G1 X142.27 Y101.691 E3.44181
G1 X142.422 Y102.518 E3.48376
G1 X142.525 Y103.266 E3.52143
G1 X142.593 Y104.222 E3.56924
G1 X142.547 Y105.212 E3.61869
G1 X142.494 Y105.845 E3.65038
G1 X142.399 Y106.562 E3.68646
G1 X142.274 Y107.33 E3.72528
G1 X142.095 Y108.001 E3.75993
G1 X141.909 Y108.605 E3.79146
G1 X141.627 Y109.339 E3.83069
G1 X141.375 Y109.919 E3.86224
G1 X141.059 Y110.511 E3.89572
G1 X140.724 Y111.098 E3.92944
G1 X140.288 Y111.735 E3.96795
G1 X139.866 Y112.312 E4.00361
G1 X139.427 Y112.826 E4.03734
G1 X138.96 Y113.339 E4.07195
G1 X138.291 Y113.955 E4.11732
G1 X137.581 Y114.558 E4.16379
G1 X136.802 Y115.102 E4.21119
G1 X135.91 Y115.609 E4.26238
G1 X135.192 Y115.975 E4.30259
G1 X134.218 Y116.364 E4.35491
G1 X133.333 Y116.629 E4.401
G1 X132.673 Y116.805 E4.43508
G1 X131.993 Y116.927 E4.46955
G1 X131.32 Y117.021 E4.50345
G1 X130.797 Y117.063 E4.52963
G1 X130.266 Y117.085 E4.55614
G1 X129.345 Y117.1 E4.60209
G1 X118.489 Y117.1 E5.1437
G1 X117.651 Y117.087 E5.18552
G1 X114.134 Y116.938 E5.36114
G1 X111.41 Y116.903 E5.49705
G1 X108.677 Y116.944 E5.63341
G1 X105.325 Y117.087 E5.8008
G1 X104.481 Y117.1 E5.84291
G1 X73.057 Y117.1 E7.41066
G1 X72.359 Y117.09 E7.44549
G1 X71.825 Y117.042 E7.47224
G1 X71.304 Y116.916 E7.49898
G1 X70.807 Y116.713 E7.52576
G1 X70.346 Y116.439 E7.55252
G1 X69.931 Y116.1 E7.57925
G1 X69.571 Y115.702 E7.60603
G1 X69.274 Y115.256 E7.63276
G1 X69.046 Y114.77 E7.65954
G1 X68.894 Y114.256 E7.68628
G1 X68.803 Y113.516 E7.72348
G1 X68.802 Y111.13 E7.84252
G1 X68.813 Y110.441 E7.8769
G1 X68.862 Y109.906 E7.9037
G1 X69.016 Y109.275 E7.9361
G1 X70.134 Y106.789 E8.0721
G1 X71.167 Y104.317 E8.20576
G1 X72.167 Y101.718 E8.34469
G1 X73.063 Y99.181 E8.47892
G1 X73.9 Y96.575 E8.61548
G1 X74.666 Y93.942 E8.75229
G1 X75.35 Y91.311 E8.88791
G1 X75.515 Y90.641 E8.92234
G1 X75.681 Y90.132 E8.94905
G1 X75.944 Y89.616 E8.97794
G1 X76.343 Y88.967 E9.01595
G1 X77.767 Y86.579 E9.15466
G1 X78.504 Y85.26 E9.23004
G1 X78.815 Y84.718 E9.26122
G1 X79.115 Y84.274 E9.28795
G1 X79.479 Y83.88 E9.31471
G0 X79.795 Y84.133
G1 X80.196 Y83.825 E9.33994
G1 X80.64 Y83.585 E9.36512
G1 X81.117 Y83.417 E9.39035
G1 X81.909 Y83.301 E9.43028
G1 X87.614 Y83.3 E9.71491
G1 X88.324 Y83.312 E9.75034
G1 X88.827 Y83.361 E9.77555
G1 X89.546 Y83.578 E9.81302
G1 X90.617 Y84.044 E9.87129
G1 X91.117 Y84.27 E9.89866
G1 X93.673 Y85.338 E10.03687
G1 X96.262 Y86.334 E10.17526
G1 X98.827 Y87.238 E10.31095
G1 X101.402 Y88.066 E10.44589
G1 X104.04 Y88.832 E10.58294
G1 X106.705 Y89.524 E10.7203
G1 X109.346 Y90.132 E10.85551
G1 X112.072 Y90.677 E10.9942
G1 X114.747 Y91.135 E11.1296
G1 X117.433 Y91.517 E11.26495
G1 X120.176 Y91.828 E11.40268
G1 X122.915 Y92.06 E11.53982
G1 X125.636 Y92.213 E11.67578
G1 X128.785 Y92.281 E11.83293
G1 X128.894 Y92.292 E11.83839
G1 X130.12 Y92.309 E11.89956
G1 X130.668 Y92.332 E11.92693
G1 X131.416 Y92.398 E11.96439
G1 X131.995 Y92.492 E11.99365
G1 X132.7 Y92.622 E12.02942
G1 X133.317 Y92.784 E12.06124
G1 X134.049 Y93.001 E12.09934
G1 X135.084 Y93.408 E12.15482
G1 X136.282 Y94.058 E12.22282
G1 X137.02 Y94.553 E12.26715
G1 X137.56 Y94.939 E12.30027
G1 X138.088 Y95.391 E12.33495
G1 X138.601 Y95.857 E12.36952
G1 X139.424 Y96.747 E12.43
G1 X140.174 Y97.789 E12.49405
G1 X140.73 Y98.734 E12.54875
G1 X141.115 Y99.467 E12.59006
G1 X141.478 Y100.398 E12.63991
G1 X141.667 Y101.008 E12.67177
G1 X141.882 Y101.792 E12.71233
G1 X142.085 Y102.895 E12.76828
G1 X142.157 Y103.707 E12.80895
G1 X142.186 Y104.374 E12.84226
G1 X142.154 Y105.088 E12.87792
G1 X142.097 Y105.792 E12.91316
G1 X141.94 Y106.959 E12.9719
G1 X141.749 Y107.755 E13.01274
G1 X141.482 Y108.63 E13.05838
G1 X141.021 Y109.732 E13.11798
G1 X140.706 Y110.323 E13.15139
G1 X140.386 Y110.883 E13.18357
G1 X139.965 Y111.499 E13.22079
G1 X139.546 Y112.072 E13.25621
G1 X139.131 Y112.557 E13.28805
G1 X138.679 Y113.054 E13.32157
G1 X137.936 Y113.735 E13.37185
G1 X137.328 Y114.247 E13.41151
G1 X136.584 Y114.767 E13.4568
G1 X135.5 Y115.383 E13.519
G1 X134.828 Y115.688 E13.55582
G1 X134.087 Y115.986 E13.59566
G1 X133.331 Y116.214 E13.63506
G1 X132.708 Y116.381 E13.66724
G1 X132.02 Y116.517 E13.70222
G1 X131.286 Y116.623 E13.73922
G1 X130.779 Y116.663 E13.7646
G1 X130.259 Y116.685 E13.79056
G1 X129.338 Y116.7 E13.83652
G1 X118.494 Y116.7 E14.37753
G1 X117.759 Y116.69 E14.4142
G1 X114.156 Y116.539 E14.59411
G1 X111.409 Y116.503 E14.73117
G1 X108.652 Y116.545 E14.86874
G1 X105.319 Y116.687 E15.03517
G1 X104.475 Y116.7 E15.07728
G1 X73.063 Y116.7 E16.64443
G1 X72.365 Y116.69 E16.67926
G1 X71.862 Y116.643 E16.70447
G1 X71.372 Y116.517 E16.72971
G1 X70.908 Y116.315 E16.75495
G1 X70.482 Y116.043 E16.78017
G1 X70.104 Y115.708 E16.80537
G1 X69.784 Y115.317 E16.83058
G1 X69.529 Y114.88 E16.85582
G1 X69.346 Y114.409 E16.88103
G1 X69.239 Y113.915 E16.90625
G1 X69.203 Y113.466 E16.92872
G1 X69.202 Y111.136 E17.04496
G1 X69.213 Y110.447 E17.07934
G1 X69.261 Y109.944 E17.10455
G1 X69.406 Y109.383 E17.13346
G1 X70.49 Y106.973 E17.2653
G1 X71.551 Y104.436 E17.40249
G1 X72.543 Y101.858 E17.5403
G1 X73.437 Y99.325 E17.67431
G1 X74.278 Y96.705 E17.81159
G1 X75.049 Y94.058 E17.94914
G1 X75.737 Y91.411 E18.08559
G1 X75.903 Y90.737 E18.12022
G1 X76.111 Y90.108 E18.15327
G1 X76.685 Y89.176 E18.20788
G1 X78.11 Y86.784 E18.34679
G1 X78.85 Y85.459 E18.4225
G1 X79.161 Y84.917 E18.45368
G1 X79.447 Y84.5 E18.47891
G1 X79.795 Y84.133 E18.50414
G1 F4800 E12.00414
G1 F600 Z1.3
G0 F1800 X106.886 Y104.251 Z1.3
G1 F600 Z0.3
G1 F4800 E18.50414
G1 F1800 X107.281 Y104.505 E18.52757
G1 X107.074 Y104.634 E18.53974
G1 X106.886 Y104.251 E18.56102
G0 X106.917 Y103.797
G1 X107.565 Y104.211 E18.59939
G1 X108.144 Y104.501 E18.63169
G1 X107.588 Y104.779 E18.66271
G1 X106.88 Y105.233 E18.70467
G1 X106.719 Y104.81 E18.72725
G1 X106.372 Y104.124 E18.7656
G1 X105.956 Y103.477 E18.80398
G1 X105.529 Y102.945 E18.83801
G1 X105.966 Y103.117 E18.86144
G1 X106.917 Y103.797 E18.91977
G0 X107.15 Y103.471
G1 X107.781 Y103.873 E18.95709
G1 X108.451 Y104.206 E18.99442
G1 X109.237 Y104.496 E19.03622
G1 X108.361 Y104.835 E19.08308
G1 X107.696 Y105.178 E19.12041
G1 X107.196 Y105.5 E19.15008
G1 X106.669 Y105.872 E19.18226
G1 X106.593 Y105.593 E19.19669
G1 X106.32 Y104.897 E19.23399
G1 X105.973 Y104.234 E19.27132
G1 X105.558 Y103.611 E19.30867
G1 X105.079 Y103.037 E19.34597
G1 X104.515 Y102.495 E19.38499
G1 X104.544 Y102.471 E19.38687
G1 X105.442 Y102.525 E19.43175
G1 X105.808 Y102.604 E19.45043
G1 X106.186 Y102.781 E19.47126
G1 X107.15 Y103.471 E19.5304
G0 X107.383 Y103.146
G1 X107.996 Y103.535 E19.56662
G1 X108.648 Y103.855 E19.60286
G1 X109.332 Y104.101 E19.63912
G1 X110.038 Y104.271 E19.67535
G1 X110.759 Y104.362 E19.71161
G1 X111.622 Y104.378 E19.75467
G1 X112.347 Y104.338 E19.7909
G1 X113.064 Y104.219 E19.82716
G1 X113.763 Y104.021 E19.8634
G1 X114.436 Y103.748 E19.89964
G1 X115.192 Y103.34 E19.94249
G1 X116.521 Y102.385 E20.02414
G1 X116.811 Y102.243 E20.04025
G1 X117.18 Y102.136 E20.05942
G1 X117.836 Y102.1 E20.0922
G1 X123.322 Y102.1 E20.36589
G1 X123.15 Y102.967 E20.40999
G1 X123.05 Y103.686 E20.44621
G1 X123.027 Y104.207 E20.47223
G1 X123.024 Y104.866 E20.5051
G1 X123.061 Y105.591 E20.54132
G1 X123.176 Y106.382 E20.5812
G1 X123.301 Y106.9 E20.60779
G1 X118.014 Y106.9 E20.87155
G1 X117.133 Y106.851 E20.91558
G1 X116.587 Y106.663 E20.94439
G1 X115.506 Y105.879 E21.01101
G1 X114.896 Y105.486 E21.04721
G1 X114.246 Y105.162 E21.08344
G1 X113.564 Y104.911 E21.1197
G1 X112.859 Y104.736 E21.15594
G1 X112.139 Y104.641 E21.19217
G1 X111.265 Y104.619 E21.23579
G1 X110.54 Y104.655 E21.27201
G1 X109.823 Y104.771 E21.30824
G1 X109.123 Y104.965 E21.34448
G1 X108.448 Y105.235 E21.38075
G1 X107.696 Y105.636 E21.42327
G1 X106.438 Y106.525 E21.50012
G1 X106.193 Y105.659 E21.54502
G1 X105.92 Y104.986 E21.58125
G1 X105.575 Y104.347 E21.61748
G1 X105.161 Y103.75 E21.65373
G1 X104.685 Y103.202 E21.68994
G1 X104.151 Y102.709 E21.7262
G1 X103.883 Y102.513 E21.74277
G1 X104.402 Y102.061 E21.7771
G1 X105.487 Y102.126 E21.83133
G1 X105.949 Y102.228 E21.85494
G1 X106.395 Y102.439 E21.87955
G1 X107.383 Y103.146 E21.94016
G0 X107.616 Y102.821
G1 X108.211 Y103.197 E21.97528
G1 X108.844 Y103.504 E22.01038
G1 X109.509 Y103.736 E22.04551
G1 X110.195 Y103.892 E22.08061
G1 X111.385 Y103.992 E22.14019
G1 X112.325 Y103.938 E22.18717
G1 X113.019 Y103.819 E22.22229
G1 X113.694 Y103.621 E22.25739
G1 X114.343 Y103.349 E22.2925
G1 X115.24 Y102.813 E22.34463
G1 X116.302 Y102.05 E22.40987
G1 X116.675 Y101.866 E22.43062
G1 X117.11 Y101.739 E22.45323
G1 X117.832 Y101.7 E22.4893
G1 X123.834 Y101.7 E22.78874
G1 X123.704 Y102.223 E22.81563
G1 X123.543 Y103.044 E22.85737
G1 X123.429 Y103.875 E22.89922
G1 X123.424 Y104.868 E22.94876
G1 X123.461 Y105.571 E22.98388
G1 X123.618 Y106.512 E23.03147
G1 X123.812 Y107.3 E23.07196
G1 X118.01 Y107.3 E23.36142
G1 X117.063 Y107.248 E23.40874
G1 X116.707 Y107.142 E23.42727
G1 X116.259 Y106.92 E23.45222
G1 X115.271 Y106.203 E23.51312
G1 X114.679 Y105.823 E23.54822
G1 X114.048 Y105.512 E23.58331
G1 X113.385 Y105.274 E23.61846
G1 X112.699 Y105.114 E23.6536
G1 X111.5 Y105.007 E23.71366
G1 X110.56 Y105.056 E23.76062
G1 X109.866 Y105.171 E23.79571
G1 X109.189 Y105.365 E23.83085
G1 X108.539 Y105.635 E23.86596
G1 X107.657 Y106.153 E23.91699
G1 X106.598 Y106.901 E23.98168
G1 X106.112 Y107.136 E24.00861
G1 X105.991 Y106.403 E24.04568
G1 X105.793 Y105.728 E24.08077
G1 X105.521 Y105.079 E24.11588
G1 X105.176 Y104.465 E24.15102
G1 X104.765 Y103.894 E24.18611
G1 X104.291 Y103.373 E24.22125
G1 X103.761 Y102.909 E24.2564
G1 X103.173 Y102.507 E24.29193
G1 X103.856 Y102.015 E24.33393
G1 X104.303 Y101.608 E24.36409
G1 X104.89 Y101.69 E24.39366
G1 X105.531 Y101.728 E24.4257
G1 X106.077 Y101.849 E24.4536
G1 X106.607 Y102.099 E24.48283
G1 X107.616 Y102.821 E24.54473
G0 X107.848 Y102.495
G1 X108.424 Y102.858 E24.5787
G1 X109.039 Y103.151 E24.61269
G1 X109.684 Y103.37 E24.64667
G1 X110.35 Y103.512 E24.68064
G1 X111.398 Y103.591 E24.73308
G1 X112.302 Y103.538 E24.77825
G1 X112.972 Y103.419 E24.8122
G1 X113.624 Y103.222 E24.84618
G1 X114.248 Y102.95 E24.88015
G1 X115.007 Y102.488 E24.92448
G1 X116.086 Y101.713 E24.99075
G1 X116.539 Y101.489 E25.01597
G1 X117.057 Y101.341 E25.04284
G1 X117.81 Y101.3 E25.08047
G1 X124.391 Y101.3 E25.40879
G1 X124.152 Y102.012 E25.44626
G1 X123.935 Y103.121 E25.50264
G1 X123.828 Y103.912 E25.54246
G1 X123.824 Y104.87 E25.59026
G1 X123.861 Y105.549 E25.62418
G1 X124.011 Y106.439 E25.66921
G1 X124.175 Y107.1 E25.70319
G1 X124.396 Y107.7 E25.73509
G1 X117.988 Y107.7 E26.05479
G1 X116.998 Y107.645 E26.10425
G1 X116.567 Y107.517 E26.12668
G1 X116.045 Y107.258 E26.15576
G1 X115.037 Y106.527 E26.21788
G1 X114.463 Y106.16 E26.25187
G1 X113.85 Y105.863 E26.28585
G1 X113.207 Y105.64 E26.31981
G1 X112.542 Y105.493 E26.35378
G1 X111.485 Y105.407 E26.40669
G1 X110.581 Y105.456 E26.45186
G1 X109.91 Y105.572 E26.48583
G1 X109.258 Y105.765 E26.51975
G1 X108.632 Y106.034 E26.55375
G1 X107.888 Y106.48 E26.59702
G1 X106.816 Y107.237 E26.6625
G1 X106.219 Y107.524 E26.69554
G1 X105.741 Y107.647 E26.72017
G1 X105.71 Y107.12 E26.74651
G1 X105.591 Y106.45 E26.78046
G1 X105.394 Y105.798 E26.81444
G1 X105.122 Y105.174 E26.8484
G1 X104.778 Y104.586 E26.88238
G1 X104.368 Y104.042 E26.91637
G1 X103.897 Y103.551 E26.95031
G1 X103.372 Y103.117 E26.9843
G1 X102.8 Y102.748 E27.01826
G1 X102.288 Y102.498 E27.04668
G1 X102.576 Y102.372 E27.06237
G1 X103.164 Y102.028 E27.09635
G1 X103.708 Y101.618 E27.13034
G1 X104.152 Y101.192 E27.16104
G1 X104.913 Y101.291 E27.19932
G1 X105.575 Y101.33 E27.23241
G1 X106.209 Y101.471 E27.26481
G1 X106.826 Y101.764 E27.29889
G1 X107.848 Y102.495 E27.36158
G0 X108.081 Y102.17
G1 X108.638 Y102.519 E27.39437
G1 X109.233 Y102.798 E27.42716
G1 X109.857 Y103.002 E27.45991
G1 X110.501 Y103.13 E27.49267
G1 X111.414 Y103.191 E27.53832
G1 X112.278 Y103.138 E27.5815
G1 X112.924 Y103.019 E27.61427
G1 X113.551 Y102.822 E27.64706
G1 X114.149 Y102.55 E27.67984
G1 X114.773 Y102.163 E27.71647
G1 X115.866 Y101.378 E27.78361
G1 X116.403 Y101.112 E27.81351
G1 X116.977 Y100.945 E27.84333
G1 X117.808 Y100.9 E27.88485
G1 X124.981 Y100.9 E28.24271
G1 X124.775 Y101.409 E28.27011
G1 X124.54 Y102.115 E28.30723
G1 X124.328 Y103.198 E28.36229
G1 X124.228 Y103.945 E28.39989
G1 X124.224 Y104.871 E28.44609
G1 X124.261 Y105.527 E28.47887
G1 X124.405 Y106.366 E28.52134
G1 X124.592 Y107.118 E28.56
G1 X124.988 Y108.1 E28.61282
G1 X117.983 Y108.1 E28.9623
G1 X116.925 Y108.042 E29.01517
G1 X116.261 Y107.843 E29.04975
G1 X115.828 Y107.596 E29.07462
G1 X114.802 Y106.851 E29.13788
G1 X114.247 Y106.498 E29.17069
G1 X113.654 Y106.215 E29.20347
G1 X113.032 Y106.006 E29.23621
G1 X112.388 Y105.874 E29.26901
G1 X111.467 Y105.807 E29.31508
G1 X110.603 Y105.856 E29.35825
G1 X109.957 Y105.972 E29.391
G1 X109.329 Y106.165 E29.42377
G1 X108.729 Y106.434 E29.45658
G1 X108.118 Y106.807 E29.49229
G1 X107.026 Y107.578 E29.55898
G1 X106.701 Y107.76 E29.57757
G1 X105.955 Y108.017 E29.61693
G1 X105.367 Y108.081 E29.64644
G1 X105.31 Y107.144 E29.69327
G1 X105.191 Y106.498 E29.72605
G1 X104.994 Y105.871 E29.75883
G1 X104.722 Y105.273 E29.79161
G1 X104.38 Y104.712 E29.82439
G1 X103.972 Y104.197 E29.85717
G1 X103.505 Y103.735 E29.88994
G1 X102.985 Y103.334 E29.9227
G1 X102.421 Y102.998 E29.95546
G1 X101.819 Y102.734 E29.98825
G1 X101.055 Y102.503 E30.02807
G1 X101.879 Y102.244 E30.07116
G1 X102.477 Y101.972 E30.10394
G1 X103.038 Y101.63 E30.13672
G1 X103.553 Y101.222 E30.1695
G1 X104.021 Y100.748 E30.20273
G1 X104.306 Y100.817 E30.21736
G1 X104.937 Y100.892 E30.24906
G1 X105.629 Y100.933 E30.28365
G1 X106.343 Y101.092 E30.32014
G1 X107.035 Y101.422 E30.35839
G1 X108.081 Y102.17 E30.42254
G0 X108.314 Y101.845
G1 X108.85 Y102.179 E30.45405
G1 X109.424 Y102.443 E30.48557
G1 X110.028 Y102.633 E30.51716
G1 X110.65 Y102.745 E30.54869
G1 X111.432 Y102.79 E30.58777
G1 X112.253 Y102.738 E30.62881
G1 X112.874 Y102.619 E30.66036
G1 X113.474 Y102.422 E30.69187
G1 X114.046 Y102.151 E30.72344
G1 X114.54 Y101.838 E30.75262
G1 X115.657 Y101.036 E30.82122
G1 X116.283 Y100.73 E30.85599
G1 X116.9 Y100.55 E30.88805
G1 X117.804 Y100.5 E30.93322
G1 X125.638 Y100.5 E31.32406
G1 X125.321 Y101.12 E31.3588
