;FLAVOR:Marlin
;TIME:2952
;Filament used: 4.5334m
;Layer height: 0.3
;MINX:74.325
;MINY:87.4
;MINZ:0.3
;MAXX:139.46
;MAXY:112.6
;MAXZ:39
;Generated with Cura_SteamEngine 5.2.2
M140 S60
M105
M190 S60
M104 S185
M105
M109 S185
M82 ;absolute extrusion mode
G21 ;metric values
G90 ;absolute positioning
M82 ;set extruder to absolute mode
M107 ;start with the fan off
G28
G29
G92 E0 ;zero the extruded length again
G1 F60
M117 "please"
G92 E0
G92 E0
G1 F4800 E-6.5
;LAYER_COUNT:130
;LAYER:0
M107
G1 F600 Z1.3
G0 F1800 X78.62 Y88.427 Z1.3
;TYPE:SKIRT
G1 F600 Z0.3
G1 F4800 E0
G1 F1800 X79.031 Y88.083 E0.02674
G1 X79.489 Y87.805 E0.05347
G1 X79.984 Y87.597 E0.08026
G1 X80.504 Y87.465 E0.10702
G1 X81.064 Y87.411 E0.13509
G1 X81.687 Y87.4 E0.16618
G1 X101.48 Y87.4 E1.15365
G1 X102.265 Y87.413 E1.19282
G1 X105.39 Y87.546 E1.34887
G1 X108.134 Y87.589 E1.48579
G1 X110.847 Y87.556 E1.62115
G1 X112.878 Y87.468 E1.72257
G1 X113.003 Y87.472 E1.72881
G1 X114.328 Y87.413 E1.79498
G1 X115.186 Y87.4 E1.83779
G1 X126.789 Y87.4 E2.41667
G1 X127.91 Y87.455 E2.47266
G1 X128.693 Y87.552 E2.51202
G1 X129.493 Y87.695 E2.55257
G1 X130.175 Y87.862 E2.5876
G1 X130.919 Y88.08 E2.62628
G1 X131.821 Y88.439 E2.67471
G1 X132.621 Y88.798 E2.71846
G1 X133.558 Y89.329 E2.77219
G1 X134.574 Y90.045 E2.8342
G1 X135.577 Y90.891 E2.89966
G1 X136.36 Y91.737 E2.95717
G1 X136.717 Y92.149 E2.98437
G1 X137.112 Y92.686 E3.01763
G1 X137.505 Y93.256 E3.05217
G1 X137.886 Y93.928 E3.09071
G1 X138.195 Y94.509 E3.12354
G1 X138.46 Y95.108 E3.15622
G1 X138.766 Y95.866 E3.197
G1 X138.963 Y96.498 E3.23003
G1 X139.162 Y97.206 E3.26672
G1 X139.267 Y97.769 E3.29529
G1 X139.364 Y98.463 E3.33025
G1 X139.46 Y99.585 E3.38643
G1 X139.422 Y100.638 E3.439
G1 X139.376 Y101.374 E3.47579
G1 X139.249 Y102.221 E3.51852
G1 X139.131 Y102.827 E3.54932
G1 X139.005 Y103.32 E3.57471
G1 X138.804 Y104.009 E3.61052
G1 X138.388 Y105.061 E3.66696
G1 X137.975 Y105.925 E3.71473
G1 X137.612 Y106.574 E3.75183
G1 X137.073 Y107.366 E3.79963
G1 X136.627 Y107.96 E3.83669
G1 X135.933 Y108.76 E3.88952
G1 X135.341 Y109.313 E3.92994
G1 X134.737 Y109.845 E3.9701
G1 X133.963 Y110.407 E4.01782
G1 X133.486 Y110.718 E4.04623
G1 X133.031 Y110.977 E4.07235
G1 X132.424 Y111.301 E4.10667
G1 X131.779 Y111.596 E4.14206
G1 X131.137 Y111.856 E4.17662
G1 X129.822 Y112.252 E4.24513
G1 X128.53 Y112.483 E4.31061
G1 X127.371 Y112.581 E4.36864
G1 X126.237 Y112.6 E4.42522
G1 X115.58 Y112.6 E4.9569
G1 X114.804 Y112.588 E4.99562
G1 X111.501 Y112.443 E5.16057
G1 X108.832 Y112.397 E5.29375
G1 X106.082 Y112.428 E5.43095
G1 X102.191 Y112.59 E5.62524
G1 X101.455 Y112.6 E5.66197
G1 X80.781 Y112.6 E6.6934
G1 X80.08 Y112.59 E6.72837
G1 X79.545 Y112.542 E6.75517
G1 X79.024 Y112.416 E6.78191
G1 X78.528 Y112.213 E6.80865
G1 X78.067 Y111.939 E6.83541
G1 X77.633 Y111.591 E6.86316
G1 X76.863 Y110.829 E6.91721
G1 X76.399 Y110.35 E6.95048
G1 X76.056 Y109.938 E6.97722
G1 X75.777 Y109.48 E7.00398
G1 X75.57 Y108.985 E7.03075
G1 X75.439 Y108.465 E7.0575
G1 X75.386 Y107.91 E7.08532
G1 X75.375 Y107.288 E7.11635
G1 X75.375 Y93.806 E7.78897
G1 X75.385 Y93.104 E7.824
G1 X75.433 Y92.57 E7.85075
G1 X75.559 Y92.048 E7.87754
G1 X75.762 Y91.552 E7.90428
G1 X76.036 Y91.091 E7.93103
G1 X76.407 Y90.632 E7.96047
G1 X78.135 Y88.898 E8.08261
G1 X78.62 Y88.427 E8.11634
G0 X78.899 Y88.714
G1 X79.288 Y88.392 E8.14153
G1 X79.723 Y88.135 E8.16674
G1 X80.194 Y87.949 E8.192
G1 X80.796 Y87.816 E8.22276
G1 X81.687 Y87.8 E8.26722
G1 X101.474 Y87.8 E9.2544
G1 X102.159 Y87.81 E9.28857
G1 X105.367 Y87.945 E9.44876
G1 X108.133 Y87.989 E9.58678
G1 X110.869 Y87.955 E9.72329
G1 X112.895 Y87.868 E9.82446
G1 X113.003 Y87.872 E9.82985
G1 X114.335 Y87.813 E9.89637
G1 X115.193 Y87.8 E9.93918
G1 X126.783 Y87.8 E10.51741
G1 X127.889 Y87.854 E10.57265
G1 X128.499 Y87.926 E10.6033
G1 X129.544 Y88.11 E10.65623
G1 X130.642 Y88.4 E10.71289
G1 X131.662 Y88.806 E10.76766
G1 X132.432 Y89.151 E10.80976
G1 X133.341 Y89.665 E10.86185
G1 X134.325 Y90.359 E10.92193
G1 X134.98 Y90.911 E10.96466
G1 X135.496 Y91.392 E10.99986
G1 X136.25 Y92.206 E11.05521
G1 X136.723 Y92.829 E11.09424
G1 X137.164 Y93.465 E11.13285
G1 X137.538 Y94.126 E11.17074
G1 X137.836 Y94.687 E11.20243
G1 X138.089 Y95.258 E11.23359
G1 X138.342 Y95.884 E11.26728
G1 X138.551 Y96.514 E11.30039
G1 X138.774 Y97.304 E11.34134
G1 X138.872 Y97.829 E11.36799
G1 X138.965 Y98.497 E11.40164
G1 X139.058 Y99.604 E11.45706
G1 X139.023 Y100.614 E11.50748
G1 X138.979 Y101.324 E11.54297
G1 X138.855 Y102.15 E11.58464
G1 X138.709 Y102.907 E11.6231
G1 X138.427 Y103.873 E11.67331
G1 X138.021 Y104.901 E11.72845
G1 X137.626 Y105.729 E11.77422
G1 X137.269 Y106.366 E11.81065
G1 X136.81 Y107.045 E11.85154
G1 X136.416 Y107.592 E11.88517
G1 X135.638 Y108.489 E11.94441
G1 X134.994 Y109.088 E11.98829
G1 X134.485 Y109.535 E12.02209
G1 X133.821 Y110.018 E12.06305
G1 X133.288 Y110.37 E12.09492
G1 X132.753 Y110.673 E12.12559
G1 X132.133 Y111.003 E12.16063
G1 X131.629 Y111.226 E12.18813
G1 X131.006 Y111.478 E12.22166
G1 X130.263 Y111.703 E12.26039
G1 X129.589 Y111.887 E12.29524
G1 X128.818 Y112.027 E12.33434
G1 X128.251 Y112.106 E12.3629
G1 X127.345 Y112.182 E12.40826
G1 X126.291 Y112.2 E12.46085
G1 X115.586 Y112.2 E12.99493
G1 X114.919 Y112.191 E13.02821
G1 X111.561 Y112.044 E13.1959
G1 X108.799 Y111.998 E13.33371
G1 X106.062 Y112.029 E13.47027
G1 X102.185 Y112.19 E13.66386
G1 X101.449 Y112.2 E13.70058
G1 X80.786 Y112.2 E14.73147
G1 X80.085 Y112.19 E14.76644
G1 X79.582 Y112.143 E14.79165
G1 X79.092 Y112.017 E14.81689
G1 X78.629 Y111.815 E14.84209
G1 X78.202 Y111.543 E14.86735
G1 X77.874 Y111.269 E14.88867
G1 X77.151 Y110.55 E14.93954
G1 X76.687 Y110.071 E14.97281
G1 X76.365 Y109.682 E14.99801
G1 X76.108 Y109.246 E15.02326
G1 X75.923 Y108.775 E15.0485
G1 X75.791 Y108.172 E15.0793
G1 X75.775 Y107.288 E15.12341
G1 X75.775 Y93.811 E15.79578
G1 X75.785 Y93.109 E15.8308
G1 X75.832 Y92.606 E15.85601
G1 X75.958 Y92.116 E15.88125
G1 X76.16 Y91.653 E15.90645
G1 X76.431 Y91.226 E15.93168
G1 X76.711 Y90.893 E15.95339
G1 X78.414 Y89.185 E16.07372
G1 X78.899 Y88.714 E16.10745
G1 F4800 E9.60745
G1 F600 Z1.3
G0 F1800 X118.912 Y98.4 Z1.3
G1 F600 Z0.3
G1 F4800 E16.10745
G1 F1800 X119.223 Y98.4 E16.12297
G1 X119.142 Y98.911 E16.14878
G1 X119.1 Y99.673 E16.18685
G1 X119.098 Y100.305 E16.21838
G1 X119.185 Y101.6 E16.28314
G1 X118.914 Y101.6 E16.29666
G1 X118.975 Y100.496 E16.35182
G1 X118.975 Y99.533 E16.39986
G1 X118.912 Y98.4 E16.45648
G0 X118.489 Y98
G1 X119.691 Y98 E16.51645
G1 X119.537 Y98.974 E16.56564
G1 X119.5 Y99.674 E16.60061
G1 X119.498 Y100.306 E16.63214
G1 X119.563 Y101.279 E16.6808
G1 X119.662 Y102 E16.7171
G1 X118.49 Y102 E16.77558
G1 X118.575 Y100.476 E16.85173
G1 X118.575 Y99.536 E16.89862
G1 X118.489 Y98 E16.97537
G0 X118.107 Y98.324
G1 X118.025 Y97.6 E17.01173
G1 X120.199 Y97.6 E17.12019
G1 X120.045 Y98.319 E17.15687
G1 X119.933 Y99.036 E17.19308
G1 X119.9 Y99.675 E17.225
G1 X119.898 Y100.307 E17.25653
G1 X119.959 Y101.225 E17.30243
G1 X120.038 Y101.801 E17.33144
G1 X120.154 Y102.4 E17.36188
G1 X118.026 Y102.4 E17.46804
G1 X118.108 Y101.673 E17.50454
G1 X118.175 Y100.472 E17.56455
G1 X118.175 Y99.541 E17.611
G1 X118.107 Y98.324 E17.67181
G0 X117.707 Y98.346
G1 X117.629 Y97.654 E17.70656
G1 X117.552 Y97.2 E17.72953
G1 X120.727 Y97.2 E17.88793
G1 X120.59 Y97.685 E17.91307
G1 X120.437 Y98.402 E17.94965
G1 X120.329 Y99.098 E17.98479
G1 X120.3 Y99.676 E18.01366
G1 X120.298 Y100.308 E18.04519
G1 X120.356 Y101.17 E18.0883
G1 X120.435 Y101.746 E18.1173
G1 X120.57 Y102.437 E18.15243
G1 X120.694 Y102.8 E18.17156
G1 X117.554 Y102.8 E18.32822
G1 X117.632 Y102.337 E18.35164
G1 X117.708 Y101.65 E18.38613
G1 X117.775 Y100.449 E18.44614
G1 X117.775 Y99.563 E18.49034
G1 X117.707 Y98.346 E18.55115
G0 X117.308 Y98.368
G1 X117.235 Y97.721 E18.58364
G1 X117.079 Y96.8 E18.63024
G1 X121.254 Y96.8 E18.83853
G1 X120.981 Y97.769 E18.88876
G1 X120.828 Y98.486 E18.92533
G1 X120.725 Y99.159 E18.9593
G1 X120.7 Y99.678 E18.98522
G1 X120.698 Y100.31 E19.01676
G1 X120.752 Y101.116 E19.05706
G1 X120.831 Y101.692 E19.08606
G1 X120.963 Y102.36 E19.12003
G1 X121.251 Y103.2 E19.16434
G1 X117.08 Y103.2 E19.37243
G1 X117.237 Y102.27 E19.41948
G1 X117.309 Y101.628 E19.45171
G1 X117.375 Y100.445 E19.51082
G1 X117.375 Y99.567 E19.55463
G1 X117.308 Y98.368 E19.61454
G0 X116.909 Y98.391
G1 X116.841 Y97.788 E19.64481
G1 X116.605 Y96.4 E19.71506
G1 X121.837 Y96.4 E19.97608
G1 X121.562 Y97.179 E20.0173
G1 X121.372 Y97.852 E20.05219
G1 X121.219 Y98.569 E20.08876
G1 X121.101 Y99.351 E20.12822
G1 X121.098 Y100.311 E20.17611
G1 X121.148 Y101.062 E20.21366
G1 X121.227 Y101.638 E20.24267
G1 X121.356 Y102.282 E20.27544
G1 X121.62 Y103.046 E20.31576
G1 X121.859 Y103.6 E20.34587
G1 X116.607 Y103.6 E20.60789
G1 X116.843 Y102.204 E20.67852
G1 X116.91 Y101.606 E20.70854
G1 X116.975 Y100.441 E20.76676
G1 X116.975 Y99.572 E20.81011
G1 X116.909 Y98.391 E20.86912
G0 X116.509 Y98.413
G1 X116.446 Y97.855 E20.89714
G1 X116.269 Y96.813 E20.94987
G1 X116.085 Y96 E20.99146
G1 X122.455 Y96 E21.30926
G1 X122.143 Y96.735 E21.34909
G1 X121.939 Y97.312 E21.37963
G1 X121.763 Y97.936 E21.41197
G1 X121.61 Y98.653 E21.44855
G1 X121.501 Y99.394 E21.48592
G1 X121.498 Y100.312 E21.53171
G1 X121.544 Y101.007 E21.56646
G1 X121.623 Y101.583 E21.59547
G1 X121.749 Y102.203 E21.62703
G1 X121.987 Y102.887 E21.66317
G1 X122.302 Y103.616 E21.70279
G1 X122.504 Y104 E21.72443
G1 X116.086 Y104 E22.04463
G1 X116.272 Y103.18 E22.08658
G1 X116.448 Y102.137 E22.13935
G1 X116.51 Y101.583 E22.16716
G1 X116.575 Y100.418 E22.22537
G1 X116.575 Y99.594 E22.26648
G1 X116.509 Y98.413 E22.32549
G0 X116.11 Y98.435
G1 X116.052 Y97.922 E22.35125
G1 X115.875 Y96.88 E22.40398
G1 X115.76 Y96.377 E22.42972
G1 X115.536 Y95.6 E22.47007
G1 X123.173 Y95.6 E22.85108
G1 X122.724 Y96.382 E22.89607
G1 X122.52 Y96.869 E22.92241
G1 X122.316 Y97.446 E22.95294
G1 X122.154 Y98.019 E22.98265
G1 X122.001 Y98.736 E23.01923
G1 X121.901 Y99.427 E23.05406
G1 X121.898 Y100.313 E23.09826
G1 X121.941 Y100.953 E23.13026
G1 X122.02 Y101.529 E23.15927
G1 X122.141 Y102.123 E23.18951
G1 X122.354 Y102.729 E23.22156
G1 X122.669 Y103.458 E23.26118
G1 X122.995 Y104.077 E23.29608
G1 X123.198 Y104.4 E23.31512
G1 X115.539 Y104.4 E23.69722
G1 X115.763 Y103.62 E23.73771
G1 X115.878 Y103.113 E23.76365
G1 X116.054 Y102.07 E23.81642
G1 X116.111 Y101.561 E23.84197
G1 X116.168 Y100.539 E23.89304
G1 X116.176 Y99.616 E23.93909
G1 X116.11 Y98.435 E23.9981
G0 X115.696 Y98.215
G1 X115.442 Y96.714 E24.07405
G1 X115.005 Y95.2 E24.15267
G1 X123.983 Y95.2 E24.60058
G1 X123.755 Y95.482 E24.61868
G1 X123.359 Y96.078 E24.65438
G1 X123.003 Y96.702 E24.69022
G1 X122.693 Y97.579 E24.73662
G1 X122.545 Y98.102 E24.76374
G1 X122.392 Y98.819 E24.80032
G1 X122.301 Y99.466 E24.83291
G1 X122.298 Y100.315 E24.87527
G1 X122.337 Y100.899 E24.90447
G1 X122.416 Y101.475 E24.93348
G1 X122.534 Y102.042 E24.96237
G1 X122.722 Y102.57 E24.99033
G1 X123.037 Y103.299 E25.02995
G1 X123.334 Y103.864 E25.0618
G1 X123.65 Y104.368 E25.09148
G1 X123.964 Y104.8 E25.11812
G1 X115.008 Y104.797 E25.56494
G1 X115.443 Y103.284 E25.64348
G1 X115.7 Y101.764 E25.72039
G1 X115.775 Y100.283 E25.79437
G1 X115.768 Y99.496 E25.83364
G1 X115.696 Y98.215 E25.89765
G0 X115.301 Y98.278
G1 X115.05 Y96.803 E25.97229
G1 X114.698 Y95.581 E26.03574
G1 X114.401 Y94.8 E26.07742
G1 X124.877 Y94.8 E26.60007
G1 X124.535 Y95.15 E26.62449
G1 X124.088 Y95.703 E26.65996
G1 X123.692 Y96.299 E26.69566
G1 X123.364 Y96.879 E26.72891
G1 X122.989 Y97.94 E26.78505
G1 X122.784 Y98.903 E26.83417
G1 X122.7 Y99.684 E26.87336
G1 X122.698 Y100.316 E26.90489
G1 X122.733 Y100.844 E26.93129
G1 X122.812 Y101.42 E26.96029
G1 X122.957 Y102.105 E26.99523
G1 X123.404 Y103.14 E27.05147
G1 X123.672 Y103.652 E27.0803
G1 X123.988 Y104.156 E27.10998
G1 X124.358 Y104.659 E27.14113
G1 X124.894 Y105.2 E27.17913
G1 X115.025 Y105.2 E27.6715
G1 X114.417 Y105.164 E27.70188
G1 X114.701 Y104.417 E27.74175
G1 X115.053 Y103.195 E27.8052
G1 X115.3 Y101.728 E27.87942
G1 X115.369 Y100.495 E27.94103
G1 X115.375 Y99.73 E27.97919
G1 X115.301 Y98.278 E28.05173
G0 X114.903 Y98.322
G1 X114.66 Y96.893 E28.12405
G1 X114.261 Y95.508 E28.19595
G1 X113.82 Y94.444 E28.25342
G1 X114.561 Y94.4 E28.29045
G1 X125.95 Y94.4 E28.85865
G1 X125.291 Y94.949 E28.90144
G1 X124.821 Y95.43 E28.93499
G1 X124.421 Y95.924 E28.9667
G1 X124.025 Y96.52 E29.0024
G1 X123.727 Y97.053 E29.03287
G1 X123.374 Y98.052 E29.08573
G1 X123.175 Y98.986 E29.13337
G1 X123.1 Y99.685 E29.16845
G1 X123.097 Y100.551 E29.21165
G1 X123.209 Y101.366 E29.25269
G1 X123.345 Y101.997 E29.2849
G1 X123.771 Y102.982 E29.33844
G1 X124.011 Y103.439 E29.36419
G1 X124.327 Y103.943 E29.39387
G1 X124.795 Y104.532 E29.4314
G1 X125.333 Y105.074 E29.4695
G1 X125.948 Y105.6 E29.50988
G1 X115.019 Y105.6 E30.05513
G1 X113.831 Y105.53 E30.1145
G1 X114.262 Y104.495 E30.17043
G1 X114.664 Y103.096 E30.24305
G1 X114.902 Y101.686 E30.31439
G1 X114.97 Y100.472 E30.37506
G1 X114.975 Y99.73 E30.41208
G1 X114.903 Y98.322 E30.48241
G0 X114.503 Y98.356
G1 X114.27 Y96.981 E30.55199
G1 X113.884 Y95.641 E30.62156
G1 X113.414 Y94.507 E30.6828
G1 X113.229 Y94.134 E30.70357
G1 X113.747 Y94.048 E30.72977
G1 X114.555 Y94 E30.77015
G1 X127.03 Y94 E31.39253
G1 X127.445 Y94.035 E31.41331
G1 X126.602 Y94.464 E31.4605
G1 X126.049 Y94.836 E31.49375
G1 X125.577 Y95.228 E31.52436
G1 X125.107 Y95.709 E31.55791
G1 X124.754 Y96.146 E31.58594
G1 X124.358 Y96.742 E31.62164
G1 X124.091 Y97.225 E31.64917
G1 X123.759 Y98.167 E31.699
G1 X123.566 Y99.07 E31.74507
G1 X123.5 Y99.687 E31.77603
G1 X123.497 Y100.527 E31.81794
G1 X123.605 Y101.312 E31.85747
G1 X123.731 Y101.882 E31.8866
G1 X124.23 Y103.035 E31.94928
G1 X124.666 Y103.731 E31.99025
G1 X125.079 Y104.25 E32.02334
G1 X125.795 Y104.971 E32.07403
G1 X126.479 Y105.463 E32.11607
G1 X127.003 Y105.764 E32.14622
G1 X127.462 Y105.97 E32.17132
G1 X126.979 Y106 E32.19546
G1 X115.012 Y106 E32.7925
G1 X113.464 Y105.909 E32.86986
G1 X113.229 Y105.868 E32.88176
G1 X113.408 Y105.506 E32.90191
G1 X113.885 Y104.359 E32.96389
G1 X114.271 Y103.017 E33.03355
G1 X114.504 Y101.635 E33.10347
G1 X114.575 Y100.283 E33.17102
G1 X114.575 Y99.73 E33.19861
G1 X114.503 Y98.356 E33.26725
G0 X114.106 Y98.409
G1 X113.878 Y97.07 E33.33502
G1 X113.504 Y95.772 E33.40241
G1 X112.989 Y94.526 E33.46967
G1 X112.628 Y93.872 E33.50694
G1 X112.972 Y93.772 E33.52481
G1 X113.713 Y93.648 E33.5623
G1 X114.531 Y93.6 E33.60318
G1 X127.273 Y93.6 E34.23888
G1 X128.311 Y93.775 E34.29139
G1 X129.046 Y93.981 E34.32948
G1 X128.745 Y94.028 E34.34468
G1 X127.92 Y94.258 E34.3874
G1 X127.008 Y94.673 E34.43739
G1 X126.272 Y95.168 E34.48164
G1 X125.863 Y95.508 E34.50818
G1 X125.393 Y95.989 E34.54173
G1 X125.087 Y96.367 E34.56599
G1 X124.691 Y96.963 E34.60169
G1 X124.406 Y97.535 E34.63358
G1 X124.144 Y98.275 E34.67274
G1 X123.957 Y99.153 E34.71753
G1 X123.9 Y99.688 E34.74437
G1 X123.897 Y100.502 E34.78498
G1 X124.001 Y101.257 E34.823
G1 X124.116 Y101.764 E34.84894
G1 X124.584 Y102.846 E34.90775
G1 X125.005 Y103.518 E34.94732
G1 X125.363 Y103.969 E34.97604
G1 X126.053 Y104.664 E35.0249
G1 X126.712 Y105.138 E35.0654
G1 X127.166 Y105.399 E35.09153
G1 X127.986 Y105.766 E35.13635
G1 X129.011 Y106.032 E35.18918
G1 X128.271 Y106.244 E35.22759
G1 X127.518 Y106.367 E35.26565
G1 X126.989 Y106.4 E35.29209
G1 X115.006 Y106.4 E35.88993
G1 X113.277 Y106.299 E35.97634
G1 X112.637 Y106.114 E36.00957
G1 X112.987 Y105.479 E36.04575
G1 X113.507 Y104.228 E36.11334
G1 X113.881 Y102.927 E36.18087
G1 X114.106 Y101.597 E36.24817
G1 X114.171 Y100.428 E36.30658
G1 X114.175 Y99.73 E36.3414
G1 X114.106 Y98.409 E36.4074
G0 X113.707 Y98.45
G1 X113.488 Y97.161 E36.47263
G1 X113.126 Y95.901 E36.53803
G1 X112.628 Y94.7 E36.6029
G1 X112.051 Y93.656 E36.66241
G1 X112.282 Y93.556 E36.67497
G1 X112.888 Y93.38 E36.70645
G1 X113.663 Y93.251 E36.74565
G1 X114.524 Y93.2 E36.78868
G1 X127.052 Y93.2 E37.4137
G1 X127.466 Y93.227 E37.4344
G1 X128.4 Y93.384 E37.48165
G1 X129.079 Y93.575 E37.51684
G1 X129.852 Y93.896 E37.5586
G1 X130.546 Y94.279 E37.59815
G1 X130.643 Y94.349 E37.60411
G1 X130.13 Y94.308 E37.62979
G1 X129.371 Y94.333 E37.66768
G1 X128.852 Y94.413 E37.69388
