;FLAVOR:Marlin
;TIME:8942
;Filament used: 14.37m
;Layer height: 0.3
;MINX:68.074
;MINY:46.8
;MINZ:0.3
;MAXX:141.926
;MAXY:153.2
;MAXZ:45.1
;Generated with Cura_SteamEngine 5.2.2
M140 S60
M105
M190 S60
M104 S185
M105
M109 S185
M82 ;absolute extrusion mode
G21 ;metric values
G90 ;absolute positioning
M82 ;set extruder to absolute mode
M107 ;start with the fan off
G28
G29
G92 E0 ;zero the extruded length again
G1 F60
M117 "please"
G92 E0
G92 E0
G1 F4800 E-6.5
;LAYER_COUNT:147
;LAYER:0
M107
G1 F600 Z1.3
G0 F1800 X69.458 Y86.38 Z1.3
;TYPE:SKIRT
G1 F600 Z0.3
G1 F4800 E0
G1 F1800 X69.946 Y86.095 E0.02819
G1 X70.707 Y85.801 E0.0689
G1 X73.286 Y84.762 E0.20761
G1 X75.801 Y83.665 E0.3445
G1 X78.256 Y82.512 E0.47982
G1 X80.687 Y81.283 E0.61572
G1 X83.125 Y79.965 E0.75399
G1 X85.489 Y78.597 E0.89025
G1 X87.844 Y77.144 E1.02831
G1 X90.082 Y75.677 E1.16181
G1 X92.359 Y74.088 E1.30034
G1 X94.557 Y72.46 E1.4368
G1 X96.7 Y70.778 E1.57271
G1 X98.811 Y69.021 E1.70974
G1 X100.87 Y67.206 E1.84667
G1 X102.894 Y65.32 E1.9847
G1 X103.703 Y64.543 E2.04066
G1 X104.793 Y63.759 E2.10764
G1 X107.008 Y62.119 E2.24514
G1 X109.157 Y60.432 E2.38145
G1 X111.287 Y58.659 E2.51971
G1 X113.307 Y56.878 E2.65407
G1 X115.337 Y54.985 E2.79254
G1 X117.248 Y53.099 E2.9265
G1 X119.174 Y51.087 E3.06545
G1 X121.035 Y49.03 E3.20384
G1 X122.019 Y47.904 E3.27845
G1 X122.38 Y47.551 E3.30364
G1 X122.793 Y47.259 E3.32887
G1 X123.247 Y47.036 E3.35411
G1 X123.73 Y46.887 E3.37933
G1 X124.414 Y46.801 E3.41372
G1 X126.916 Y46.8 E3.53854
G1 X127.617 Y46.81 E3.57352
G1 X128.12 Y46.857 E3.59873
G1 X128.61 Y46.983 E3.62397
G1 X129.073 Y47.185 E3.64917
G1 X129.5 Y47.457 E3.67443
G1 X129.878 Y47.792 E3.69963
G1 X130.279 Y48.282 E3.73121
G1 X130.714 Y49.115 E3.7781
G1 X131.416 Y50.504 E3.85574
G1 X132.721 Y52.913 E3.99243
G1 X134.083 Y55.265 E4.12803
G1 X135.538 Y57.625 E4.26635
G1 X137.032 Y59.9 E4.40213
G1 X138.585 Y62.123 E4.53742
G1 X140.2 Y64.306 E4.6729
G1 X140.778 Y65.064 E4.72045
G1 X141.051 Y65.489 E4.74565
G1 X141.255 Y65.951 E4.77085
G1 X141.383 Y66.441 E4.79612
G1 X141.443 Y67.022 E4.82526
G1 X141.443 Y69.347 E4.94125
G1 X141.431 Y70.063 E4.97698
G1 X141.372 Y70.667 E5.00726
G1 X140.534 Y73.553 E5.15719
G1 X139.85 Y76.181 E5.29267
G1 X139.229 Y78.887 E5.43118
G1 X138.692 Y81.563 E5.56735
G1 X138.23 Y84.258 E5.70376
G1 X137.849 Y86.937 E5.83876
G1 X137.541 Y89.652 E5.97508
G1 X137.306 Y92.42 E6.11367
G1 X137.152 Y95.137 E6.24944
G1 X137.075 Y97.885 E6.3866
G1 X137.075 Y100.605 E6.5223
G1 X137.154 Y103.359 E6.65975
G1 X137.31 Y106.107 E6.79707
G1 X137.54 Y108.812 E6.93251
G1 X137.848 Y111.518 E7.06839
G1 X138.236 Y114.24 E7.20556
G1 X138.697 Y116.929 E7.34167
G1 X139.239 Y119.63 E7.47911
G1 X139.853 Y122.301 E7.61584
G1 X140.53 Y124.9 E7.74983
G1 X141.319 Y127.612 E7.89075
G1 X141.768 Y129.039 E7.96538
G1 X141.882 Y129.532 E7.99063
G1 X141.925 Y130.014 E8.01477
G1 X141.926 Y132.337 E8.13066
G1 X141.916 Y133.041 E8.16579
G1 X141.869 Y133.545 E8.19104
G1 X141.743 Y134.034 E8.21624
G1 X141.541 Y134.498 E8.24148
G1 X141.235 Y134.969 E8.26951
G1 X140.475 Y135.939 E8.33098
G1 X140.051 Y136.466 E8.36473
G1 X138.397 Y138.648 E8.50133
G1 X136.815 Y140.86 E8.63701
G1 X135.273 Y143.152 E8.77483
G1 X133.82 Y145.449 E8.91043
G1 X132.409 Y147.825 E9.04829
G1 X131.063 Y150.247 E9.18653
G1 X130.39 Y151.502 E9.25758
G1 X130.117 Y151.927 E9.28278
G1 X129.78 Y152.304 E9.30801
G1 X129.388 Y152.624 E9.33325
G1 X128.95 Y152.877 E9.35849
G1 X128.478 Y153.058 E9.38371
G1 X127.984 Y153.163 E9.40891
G1 X127.323 Y153.199 E9.44193
G1 X125.084 Y153.2 E9.55364
G1 X124.381 Y153.19 E9.58871
G1 X123.878 Y153.143 E9.61392
G1 X123.388 Y153.017 E9.63916
G1 X122.925 Y152.815 E9.66436
G1 X122.498 Y152.544 E9.68959
G1 X122.024 Y152.103 E9.72189
G1 X120.028 Y149.832 E9.87273
G1 X118.143 Y147.809 E10.01068
G1 X116.232 Y145.875 E10.14633
G1 X114.266 Y143.994 E10.28208
G1 X112.225 Y142.148 E10.41937
G1 X110.113 Y140.342 E10.55801
G1 X108.02 Y138.655 E10.69213
G1 X105.831 Y136.99 E10.82934
G1 X103.719 Y135.468 E10.95922
G1 X103.18 Y134.966 E10.99596
G1 X101.137 Y133.118 E11.1334
G1 X99.062 Y131.346 E11.26954
G1 X96.945 Y129.638 E11.40524
G1 X94.76 Y127.975 E11.54223
G1 X92.545 Y126.387 E11.67821
G1 X90.27 Y124.85 E11.81518
G1 X87.929 Y123.364 E11.95352
G1 X85.617 Y121.987 E12.08777
G1 X83.219 Y120.648 E12.2248
G1 X80.744 Y119.357 E12.36406
G1 X79.735 Y118.849 E12.42042
G1 X79.303 Y118.586 E12.44566
G1 X78.918 Y118.259 E12.47086
G1 X78.449 Y117.667 E12.50854
G1 X76.824 Y115.024 E12.66333
G1 X75.33 Y112.744 E12.79932
G1 X75.088 Y112.3 E12.82455
G1 X74.909 Y111.79 E12.85151
G1 X74.554 Y110.415 E12.92236
G1 X73.813 Y107.715 E13.06205
G1 X73.024 Y105.132 E13.19679
G1 X72.144 Y102.517 E13.33444
G1 X71.201 Y99.958 E13.4705
G1 X70.162 Y97.365 E13.60987
G1 X69.084 Y94.884 E13.74483
G1 X68.372 Y93.322 E13.83047
G1 X68.199 Y92.847 E13.85569
G1 X68.103 Y92.351 E13.88089
G1 X68.075 Y91.759 E13.91046
G1 X68.074 Y89.652 E14.01558
G1 X68.084 Y88.962 E14.05001
G1 X68.132 Y88.458 E14.07527
G1 X68.257 Y87.969 E14.10045
G1 X68.459 Y87.505 E14.1257
G1 X68.731 Y87.079 E14.15091
G1 X69.067 Y86.701 E14.17614
G1 X69.458 Y86.38 E14.20138
G1 F4800 E7.70138
G1 F600 Z1.3
G0 F1800 X85.8 Y96.813 Z1.3
G1 F600 Z0.3
G1 F4800 E14.20138
G1 F1800 X97.25 Y96.813 E14.77262
G1 X97.25 Y103.213 E15.09192
G1 X91.43 Y103.213 E15.38228
G1 X90.641 Y103.253 E15.4217
G1 X89.861 Y103.372 E15.46106
G1 X89.096 Y103.57 E15.50048
G1 X88.356 Y103.844 E15.53985
G1 X87.647 Y104.192 E15.57926
G1 X86.962 Y104.621 E15.61958
G1 X86.524 Y104.643 E15.64146
G1 X85.8 Y104.753 E15.67799
G1 X85.8 Y96.813 E16.07412
G0 X85.4 Y96.413
G1 X97.65 Y96.413 E16.68528
G1 X97.65 Y103.652 E17.04643
G1 X97.29 Y103.613 E17.0645
G1 X91.43 Y103.613 E17.35686
G1 X90.662 Y103.653 E17.39522
G1 X89.902 Y103.772 E17.4336
G1 X89.159 Y103.97 E17.47196
G1 X88.44 Y104.244 E17.51035
G1 X87.754 Y104.591 E17.5487
G1 X87.098 Y105.014 E17.58765
G1 X86.545 Y105.043 E17.61527
G1 X85.785 Y105.162 E17.65365
G1 X85.514 Y105.234 E17.66764
G1 X85.4 Y105.151 E17.67468
G1 X85.4 Y96.413 E18.11062
G0 X85 Y96.013
G1 X98.05 Y96.013 E18.76168
G1 X98.05 Y104.09 E19.16465
G1 X96.976 Y104.013 E19.21837
G1 X91.43 Y104.013 E19.49506
G1 X90.683 Y104.053 E19.53238
G1 X89.945 Y104.172 E19.56967
G1 X89.223 Y104.37 E19.60703
G1 X88.527 Y104.643 E19.64432
G1 X87.864 Y104.99 E19.68166
G1 X87.239 Y105.407 E19.71914
G1 X86.566 Y105.443 E19.75277
G1 X85.828 Y105.562 E19.79006
G1 X85.413 Y105.676 E19.81153
G1 X85 Y105.354 E19.83766
G1 X85 Y96.013 E20.30368
G0 X84.6 Y95.613
G1 X98.45 Y95.613 E20.99466
G1 X98.45 Y104.583 E21.44218
G1 X97.797 Y104.464 E21.47529
G1 X96.976 Y104.413 E21.51633
G1 X91.43 Y104.413 E21.79302
G1 X90.705 Y104.453 E21.82925
G1 X89.988 Y104.572 E21.86551
G1 X89.289 Y104.77 E21.90175
G1 X88.616 Y105.043 E21.93799
G1 X87.977 Y105.388 E21.97422
G1 X87.379 Y105.803 E22.01053
G1 X86.588 Y105.843 E22.05005
G1 X85.871 Y105.962 E22.08631
G1 X85.31 Y106.121 E22.1154
G1 X85.013 Y105.855 E22.13529
G1 X84.6 Y105.559 E22.16064
G1 X84.6 Y95.613 E22.65685
G0 X84.2 Y95.208
G1 X98.85 Y95.213 E23.38774
G1 X98.85 Y105.109 E23.88145
G1 X98.313 Y104.959 E23.90927
G1 X97.618 Y104.846 E23.9444
G1 X96.976 Y104.813 E23.97647
G1 X91.43 Y104.813 E24.25316
G1 X90.727 Y104.853 E24.28829
G1 X90.033 Y104.972 E24.32342
G1 X89.358 Y105.17 E24.35851
G1 X88.709 Y105.442 E24.39362
G1 X88.095 Y105.787 E24.42876
G1 X87.536 Y106.19 E24.46314
G1 X86.61 Y106.243 E24.50941
G1 X85.916 Y106.362 E24.54454
G1 X85.214 Y106.571 E24.58108
G1 X84.746 Y106.153 E24.61239
G1 X84.2 Y105.767 E24.64575
G1 X84.2 Y95.208 E25.17254
G0 X84.456 Y94.813
G1 X99.25 Y94.813 E25.91062
G1 X99.25 Y105.685 E26.45302
G1 X98.776 Y105.499 E26.47843
G1 X98.117 Y105.326 E26.51242
G1 X97.307 Y105.213 E26.55322
G1 X91.43 Y105.213 E26.84642
G1 X90.75 Y105.253 E26.88041
G1 X90.08 Y105.372 E26.91436
G1 X89.428 Y105.569 E26.94834
G1 X88.804 Y105.841 E26.9823
G1 X88.216 Y106.185 E27.01629
G1 X87.663 Y106.603 E27.05087
G1 X87.313 Y106.603 E27.06833
G1 X86.633 Y106.643 E27.10232
G1 X85.963 Y106.762 E27.13627
G1 X85.311 Y106.959 E27.17025
G1 X85.135 Y107.036 E27.17983
G1 X84.479 Y106.452 E27.22365
G1 X83.8 Y105.979 E27.26493
G1 X83.8 Y94.8 E27.82266
G1 X84.456 Y94.813 E27.85539
G0 X84.456 Y94.413
G1 X99.65 Y94.413 E28.61342
G1 X99.65 Y106.329 E29.20791
G1 X99.179 Y106.083 E29.23442
G1 X98.564 Y105.852 E29.2672
G1 X97.925 Y105.697 E29.3
G1 X96.976 Y105.613 E29.34753
G1 X91.43 Y105.613 E29.62423
G1 X90.774 Y105.653 E29.65701
G1 X90.128 Y105.772 E29.68979
G1 X89.501 Y105.969 E29.72257
G1 X88.903 Y106.241 E29.75535
G1 X88.342 Y106.583 E29.78813
G1 X87.841 Y107.003 E29.82075
G1 X87.313 Y107.003 E29.84709
G1 X86.657 Y107.043 E29.87988
G1 X86.011 Y107.162 E29.91265
G1 X85.384 Y107.359 E29.94544
G1 X85.029 Y107.52 E29.96488
G1 X84.705 Y107.188 E29.98803
G1 X84.213 Y106.752 E30.02083
G1 X83.672 Y106.38 E30.05358
G1 X83.4 Y106.238 E30.06889
G1 X83.397 Y94.4 E30.65949
G1 X83.97 Y94.4 E30.68808
G1 X84.456 Y94.413 E30.71233
G0 X84.456 Y94.013
G1 X100.05 Y94.013 E31.49032
G1 X100.05 Y106.7 E32.12328
G1 X99.77 Y106.879 E32.13986
G1 X99.514 Y106.705 E32.1553
G1 X98.95 Y106.419 E32.18685
G1 X98.355 Y106.207 E32.21836
G1 X97.737 Y106.071 E32.24993
G1 X96.976 Y106.013 E32.28801
G1 X91.43 Y106.013 E32.5647
G1 X90.799 Y106.053 E32.59624
G1 X90.178 Y106.172 E32.62779
G1 X89.578 Y106.369 E32.65929
G1 X89.006 Y106.64 E32.69087
G1 X88.474 Y106.98 E32.72237
G1 X87.98 Y107.403 E32.75482
G1 X87.313 Y107.403 E32.78809
G1 X86.682 Y107.443 E32.81964
G1 X86.061 Y107.562 E32.85118
G1 X85.461 Y107.759 E32.88269
G1 X84.928 Y108.012 E32.91212
G1 X84.423 Y107.47 E32.94908
G1 X83.948 Y107.053 E32.98062
G1 X83.425 Y106.698 E33.01215
G1 X83 Y106.482 E33.03594
G1 X83 Y94.452 E33.63612
G1 X82.971 Y94 E33.65871
G1 X83.983 Y94 E33.7092
G1 X84.456 Y94.013 E33.73281
G0 X84.456 Y93.613
G1 X100.45 Y93.613 E34.53075
G1 X100.45 Y106.94 E35.19564
G1 X100.252 Y107.039 E35.20668
G1 X99.773 Y107.361 E35.23548
G1 X99.268 Y107.025 E35.26574
G1 X98.724 Y106.758 E35.29597
G1 X98.149 Y106.565 E35.32623
G1 X97.554 Y106.449 E35.35648
G1 X96.976 Y106.413 E35.38537
G1 X91.43 Y106.413 E35.66206
G1 X90.825 Y106.453 E35.69231
G1 X90.231 Y106.572 E35.72253
G1 X89.657 Y106.768 E35.7528
G1 X89.114 Y107.039 E35.78307
G1 X88.611 Y107.378 E35.81333
G1 X88.134 Y107.803 E35.84521
G1 X87.313 Y107.803 E35.88617
G1 X86.708 Y107.843 E35.91642
G1 X86.114 Y107.962 E35.94664
G1 X85.54 Y108.158 E35.9769
G1 X84.838 Y108.508 E36.01604
G1 X84.287 Y107.882 E36.05764
G1 X83.684 Y107.354 E36.09763
G1 X83.179 Y107.018 E36.12789
G1 X82.6 Y106.739 E36.15995
G1 X82.6 Y94.452 E36.77296
G1 X82.56 Y93.847 E36.80321
G1 X82.511 Y93.6 E36.81577
G1 X83.963 Y93.6 E36.88821
G1 X84.456 Y93.613 E36.91281
G0 X84.456 Y93.213
G1 X100.85 Y93.213 E37.73071
G1 X100.85 Y107.183 E38.42768
G1 X100.365 Y107.437 E38.45499
G1 X99.753 Y107.875 E38.49254
G1 X99.509 Y107.663 E38.50867
G1 X99.024 Y107.346 E38.53757
G1 X98.5 Y107.099 E38.56647
G1 X97.947 Y106.927 E38.59537
G1 X97.261 Y106.813 E38.63006
G1 X91.43 Y106.813 E38.92097
G1 X90.852 Y106.853 E38.94988
G1 X90.285 Y106.972 E38.97878
G1 X89.74 Y107.168 E39.00768
G1 X89.227 Y107.437 E39.03657
G1 X88.756 Y107.774 E39.06547
G1 X88.3 Y108.203 E39.0967
G1 X87.313 Y108.203 E39.14595
G1 X86.735 Y108.243 E39.17485
G1 X86.168 Y108.362 E39.20375
G1 X85.623 Y108.558 E39.23265
G1 X85.11 Y108.827 E39.26155
G1 X84.746 Y109.087 E39.28387
G1 X84.408 Y108.614 E39.31287
G1 X83.857 Y108.036 E39.35271
G1 X83.42 Y107.656 E39.3816
G1 X82.935 Y107.339 E39.41051
G1 X82.411 Y107.092 E39.43941
G1 X82.2 Y107.026 E39.45044
G1 X82.2 Y94.452 E40.07776
G1 X82.16 Y93.874 E40.10666
G1 X82.019 Y93.2 E40.14102
G1 X83.976 Y93.2 E40.23865
G1 X84.456 Y93.213 E40.26261
G0 X84.456 Y92.813
G1 X101.25 Y92.813 E41.10047
G1 X101.25 Y107.46 E41.83121
G1 X100.965 Y107.568 E41.84641
G1 X100.484 Y107.836 E41.87388
G1 X99.881 Y108.326 E41.91265
G1 X99.663 Y108.326 E41.92352
G1 X99.246 Y107.966 E41.95101
G1 X98.782 Y107.669 E41.97849
G1 X98.279 Y107.443 E42.006
G1 X97.749 Y107.292 E42.0335
G1 X96.976 Y107.213 E42.07226
G1 X91.43 Y107.213 E42.34896
G1 X90.88 Y107.253 E42.37647
G1 X90.342 Y107.372 E42.40396
G1 X89.827 Y107.568 E42.43145
G1 X89.346 Y107.836 E42.45892
G1 X88.743 Y108.326 E42.49768
G1 X88.466 Y108.603 E42.51723
G1 X87.313 Y108.603 E42.57475
G1 X86.763 Y108.643 E42.60226
G1 X86.225 Y108.762 E42.62975
G1 X85.71 Y108.958 E42.65724
G1 X85.229 Y109.226 E42.68471
G1 X84.626 Y109.716 E42.72348
G1 X84.346 Y109.204 E42.75259
G1 X83.751 Y108.472 E42.79965
G1 X83.157 Y107.959 E42.83881
G1 X82.693 Y107.662 E42.8663
G1 X82.19 Y107.436 E42.89381
G1 X81.8 Y107.325 E42.91404
G1 X81.8 Y94.452 E43.55627
G1 X81.76 Y93.902 E43.58379
G1 X81.641 Y93.364 E43.61128
G1 X81.426 Y92.8 E43.64139
G1 X83.989 Y92.8 E43.76926
G1 X84.456 Y92.813 E43.79257
G0 X84.456 Y92.413
G1 X101.65 Y92.413 E44.65038
G1 X101.65 Y107.728 E45.41445
G1 X101.058 Y107.967 E45.4463
G1 X100.61 Y108.233 E45.47229
G1 X100.025 Y108.726 E45.51046
G1 X99.518 Y108.727 E45.53575
G1 X98.984 Y108.27 E45.57082
G1 X98.542 Y107.995 E45.59679
G1 X98.062 Y107.791 E45.62281
G1 X97.557 Y107.663 E45.6488
G1 X96.976 Y107.613 E45.67789
G1 X91.43 Y107.613 E45.95459
G1 X90.91 Y107.653 E45.98061
G1 X90.403 Y107.772 E46.00659
G1 X89.92 Y107.967 E46.03257
G1 X89.472 Y108.233 E46.05857
G1 X89.026 Y108.609 E46.08767
G1 X88.648 Y109.003 E46.11491
G1 X87.313 Y109.003 E46.18151
G1 X86.793 Y109.043 E46.20753
G1 X86.286 Y109.162 E46.23352
G1 X85.803 Y109.357 E46.2595
G1 X85.355 Y109.623 E46.2855
G1 X84.909 Y109.999 E46.3146
G1 X84.46 Y110.476 E46.34728
G1 X84.41 Y110.261 E46.35829
G1 X84.215 Y109.778 E46.38428
G1 X83.949 Y109.33 E46.41027
G1 X83.45 Y108.738 E46.4489
G1 X82.895 Y108.263 E46.48535
G1 X82.453 Y107.988 E46.51132
G1 X81.973 Y107.784 E46.53734
G1 X81.4 Y107.639 E46.56683
G1 X81.4 Y94.452 E47.22473
G1 X81.36 Y93.932 E47.25075
G1 X81.241 Y93.425 E47.27673
G1 X81.046 Y92.942 E47.30272
G1 X80.724 Y92.4 E47.33417
G1 X84.001 Y92.4 E47.49766
G1 X84.456 Y92.413 E47.52037
G0 X84.456 Y92.013
G1 X102.05 Y92.013 E48.39814
G1 X102.05 Y108.061 E49.19878
G1 X101.605 Y108.172 E49.22166
G1 X101.156 Y108.366 E49.24606
G1 X100.744 Y108.631 E49.2705
G1 X100.213 Y109.126 E49.30672
G1 X99.332 Y109.127 E49.35067
G1 X98.724 Y108.575 E49.39164
G1 X98.304 Y108.323 E49.41608
G1 X97.849 Y108.143 E49.44049
G1 X97.251 Y108.013 E49.47102
G1 X91.43 Y108.013 E49.76143
G1 X90.942 Y108.053 E49.78586
G1 X90.467 Y108.172 E49.81029
G1 X90.018 Y108.366 E49.83469
G1 X89.606 Y108.631 E49.85913
G1 X89.027 Y109.174 E49.89873
G1 X88.832 Y109.403 E49.91374
G1 X87.313 Y109.403 E49.98952
G1 X86.825 Y109.443 E50.01395
G1 X86.35 Y109.562 E50.03838
G1 X85.901 Y109.756 E50.06278
G1 X85.489 Y110.021 E50.08722
G1 X84.91 Y110.564 E50.12682
G1 X84.593 Y110.937 E50.15124
G1 X84.341 Y111.357 E50.17568
G1 X84.169 Y111.792 E50.19902
G1 X84.169 Y111.288 E50.22416
G1 X84.129 Y110.8 E50.24859
G1 X84.01 Y110.325 E50.27302
G1 X83.816 Y109.876 E50.29742
G1 X83.551 Y109.464 E50.32186
G1 X83.008 Y108.885 E50.36146
G1 X82.635 Y108.568 E50.38589
G1 X82.215 Y108.316 E50.41032
G1 X81.76 Y108.136 E50.43473
G1 X81.282 Y108.032 E50.45914
G1 X81 Y108.013 E50.47324
G1 X81 Y94.452 E51.1498
G1 X80.96 Y93.964 E51.17423
G1 X80.841 Y93.489 E51.19866
G1 X80.647 Y93.04 E51.22306
G1 X80.382 Y92.628 E51.2475
G1 X79.794 Y92 E51.29042
G1 X84.014 Y92 E51.50096
G1 X84.456 Y92.013 E51.52302
G0 X84.374 Y91.612
G1 X102.45 Y91.613 E52.42483
G1 X102.45 Y108.423 E53.26349
G1 X102.114 Y108.453 E53.28032
G1 X101.674 Y108.571 E53.30305
G1 X101.262 Y108.765 E53.32577
G1 X100.73 Y109.175 E53.35927
G1 X100.391 Y109.525 E53.38358
G1 X99.151 Y109.528 E53.44545
G1 X98.814 Y109.175 E53.4698
G1 X98.465 Y108.882 E53.49253
G1 X98.07 Y108.655 E53.51526
G1 X97.642 Y108.5 E53.53797
G1 X96.976 Y108.413 E53.57148
G1 X91.43 Y108.413 E53.84817
G1 X90.976 Y108.453 E53.87091
G1 X90.536 Y108.571 E53.89364
G1 X90.124 Y108.765 E53.91635
G1 X89.592 Y109.175 E53.94986
G1 X89.02 Y109.803 E53.99224
G1 X87.313 Y109.803 E54.07741
G1 X86.859 Y109.843 E54.10014
G1 X86.419 Y109.961 E54.12287
G1 X86.007 Y110.155 E54.14559
G1 X85.475 Y110.565 E54.1791
